;FLAVOR:Marlin
;TIME:3669
;Filament used: 2.09392m
;Layer height: 0.2
;MINX:65.454
;MINY:62.757
;MINZ:0.2
;MAXX:154.555
;MAXY:157.17
;MAXZ:8.2
;Generated with Cura_SteamEngine 5.0.0
M140 S50
M105
M190 S50
M104 S200
M105
M109 S200
M82 ;absolute extrusion mode

G28 ;Home
;G29 ;Bed levelling

G92 E0 ;Reset Extruder
G1 Z2.0 F3000 ;Move Z Axis up
G1 X10.1 Y20 Z0.28 F5000.0 ;Move to start position
G1 X10.1 Y200.0 Z0.28 F1500.0 E15 ;Draw the first line
G1 X10.4 Y200.0 Z0.28 F5000.0 ;Move to side a little
G1 X10.4 Y20 Z0.28 F1500.0 E30 ;Draw the second line
G92 E0 ;Reset Extruder
G1 Z2.0 F3000 ;Move Z Axis up
G92 E0
G92 E0
G1 F2400 E-0.8
;LAYER_COUNT:41
;LAYER:0
M107
G1 F300 Z0.8
G0 F6000 X106.436 Y70.12 Z0.8
G0 X105.272 Y72.378
;TYPE:SKIRT
G1 F300 Z0.2
G1 F2400 E0
G1 F1200 X105.513 Y71.828 E0.01997
G1 X105.939 Y70.955 E0.05228
G1 X106.436 Y70.12 E0.0846
G1 X106.999 Y69.329 E0.11689
G1 X107.805 Y68.396 E0.1579
G1 X108.324 Y67.859 E0.18274
G1 X109.562 Y66.62 E0.24099
G1 X110.093 Y66.104 E0.26562
G1 X110.816 Y65.457 E0.29789
G1 X111.591 Y64.871 E0.33021
G1 X112.412 Y64.35 E0.36255
G1 X113.272 Y63.899 E0.39485
G1 X114.166 Y63.521 E0.42713
G1 X115.089 Y63.217 E0.45945
G1 X116.033 Y62.99 E0.49174
G1 X116.993 Y62.841 E0.52405
G1 X118.115 Y62.769 E0.56145
G1 X118.905 Y62.757 E0.58773
G1 X140.217 Y62.759 E1.29657
G1 X140.916 Y62.769 E1.31982
G1 X141.886 Y62.823 E1.35213
G1 X142.848 Y62.957 E1.38444
G1 X143.796 Y63.169 E1.41675
G1 X144.723 Y63.458 E1.44904
G1 X145.623 Y63.823 E1.48134
G1 X146.491 Y64.26 E1.51367
G1 X147.319 Y64.768 E1.54598
G1 X148.103 Y65.341 E1.57827
G1 X148.931 Y66.067 E1.6149
G1 X149.525 Y66.642 E1.6424
G1 X150.717 Y67.837 E1.69854
G1 X151.206 Y68.34 E1.72187
G1 X151.854 Y69.063 E1.75416
G1 X152.44 Y69.838 E1.78648
G1 X152.96 Y70.658 E1.81877
G1 X153.411 Y71.519 E1.8511
G1 X153.79 Y72.413 E1.88339
G1 X154.094 Y73.336 E1.91572
G1 X154.322 Y74.28 E1.94802
G1 X154.47 Y75.24 E1.98032
G1 X154.543 Y76.333 E2.01676
G1 X154.555 Y77.073 E2.04137
G1 X154.555 Y95.86 E2.66623
G1 X154.546 Y96.52 E2.68819
G1 X154.493 Y97.49 E2.7205
G1 X154.36 Y98.452 E2.7528
G1 X154.188 Y99.249 E2.77991
G1 X153.866 Y100.514 E2.82333
G1 X151.433 Y109.389 E3.12941
G1 X151.249 Y110.022 E3.15133
G1 X150.94 Y110.943 E3.18364
G1 X150.556 Y111.835 E3.21594
G1 X150.228 Y112.468 E3.23965
G1 X149.774 Y113.28 E3.2706
G1 X128.171 Y150.695 E4.70756
G1 X127.765 Y151.377 E4.73396
G1 X127.235 Y152.191 E4.76627
G1 X126.639 Y152.958 E4.79857
G1 X125.982 Y153.673 E4.83087
G1 X125.268 Y154.332 E4.86319
G1 X124.502 Y154.93 E4.89551
G1 X123.69 Y155.463 E4.92781
G1 X122.837 Y155.928 E4.96013
G1 X121.949 Y156.321 E4.99242
G1 X121.031 Y156.639 E5.02474
G1 X120.09 Y156.881 E5.05705
G1 X118.691 Y157.093 E5.10412
G1 X118.371 Y157.122 E5.1148
G1 X117.401 Y157.17 E5.1471
G1 X116.43 Y157.137 E5.17942
G1 X115.706 Y157.061 E5.20363
G1 X113.334 Y156.736 E5.28326
G1 X110.862 Y156.465 E5.36597
G1 X108.368 Y156.262 E5.4492
G1 X105.927 Y156.132 E5.5305
G1 X102.336 Y156.063 E5.64996
G1 X85.73 Y156.063 E6.20228
G1 X81.383 Y156.157 E6.34689
G1 X80.412 Y156.138 E6.3792
G1 X79.446 Y156.039 E6.41149
G1 X78.491 Y155.861 E6.4438
G1 X77.554 Y155.606 E6.4761
G1 X76.641 Y155.273 E6.50843
G1 X75.758 Y154.867 E6.54075
G1 X74.912 Y154.39 E6.57305
G1 X74.345 Y154.016 E6.59564
G1 X74.056 Y153.813 E6.60739
G1 X73.285 Y153.222 E6.6397
G1 X72.565 Y152.57 E6.67201
G1 X71.901 Y151.861 E6.70432
G1 X71.298 Y151.1 E6.73661
G1 X70.759 Y150.292 E6.76891
G1 X70.289 Y149.442 E6.80122
G1 X69.89 Y148.556 E6.83354
G1 X69.565 Y147.641 E6.86583
G1 X69.317 Y146.702 E6.89814
G1 X69.127 Y145.596 E6.93546
G1 X68.726 Y142.633 E7.03491
G1 X68.386 Y140.554 E7.10498
G1 X65.714 Y125.392 E7.61704
G1 X65.607 Y124.734 E7.63921
G1 X65.491 Y123.77 E7.6715
G1 X65.454 Y122.799 E7.70382
G1 X65.497 Y121.828 E7.73615
G1 X65.62 Y120.865 E7.76844
G1 X65.822 Y119.915 E7.80074
G1 X66.102 Y118.984 E7.83308
G1 X66.457 Y118.08 E7.86538
G1 X66.885 Y117.208 E7.89769
G1 X67.534 Y116.15 E7.93897
G1 X68.117 Y115.308 E7.97303
G1 X68.504 Y114.773 E7.995
G1 X69.105 Y114.01 E8.0273
G1 X69.767 Y113.299 E8.05961
G1 X70.486 Y112.645 E8.09194
G1 X71.632 Y111.797 E8.13936
G1 X73.13 Y110.823 E8.19878
G1 X75.191 Y109.41 E8.2819
G1 X77.238 Y107.92 E8.36611
G1 X79.188 Y106.416 E8.44801
G1 X81.141 Y104.817 E8.53197
G1 X83 Y103.206 E8.61378
G1 X84.853 Y101.507 E8.6974
G1 X86.641 Y99.772 E8.78026
G1 X88.368 Y97.998 E8.86261
G1 X90.073 Y96.146 E8.94634
G1 X91.715 Y94.255 E9.02963
G1 X93.285 Y92.342 E9.11194
G1 X94.823 Y90.356 E9.19549
G1 X96.288 Y88.348 E9.27816
G1 X97.709 Y86.281 E9.36159
G1 X99.053 Y84.204 E9.44387
G1 X100.348 Y82.069 E9.52692
G1 X101.589 Y79.889 E9.61036
G1 X102.753 Y77.702 E9.69276
G1 X103.851 Y75.49 E9.77489
G1 X105.272 Y72.378 E9.88868
G1 F2400 E9.08868
G0 F6000 X103.106 Y77.889
G1 F2400 E9.88868
G1 F1200 X104.216 Y75.655 E9.97165
G1 X105.62 Y72.579 E10.08411
G1 X105.879 Y71.988 E10.10557
G1 X106.299 Y71.131 E10.13732
G1 X106.789 Y70.311 E10.16909
G1 X107.345 Y69.535 E10.20084
G1 X108.094 Y68.672 E10.23885
G1 X108.607 Y68.141 E10.2634
G1 X109.84 Y66.907 E10.32142
G1 X110.371 Y66.391 E10.34605
G1 X111.083 Y65.755 E10.3778
G1 X111.846 Y65.181 E10.40956
G1 X112.654 Y64.672 E10.44132
G1 X113.502 Y64.233 E10.47308
G1 X114.384 Y63.867 E10.50484
G1 X115.293 Y63.575 E10.5366
G1 X116.223 Y63.361 E10.56834
G1 X117.168 Y63.225 E10.60009
G1 X118.122 Y63.169 E10.63188
G1 X118.905 Y63.157 E10.65792
G1 X140.211 Y63.159 E11.36656
G1 X140.91 Y63.169 E11.38981
G1 X141.863 Y63.223 E11.42156
G1 X142.809 Y63.356 E11.45333
G1 X143.74 Y63.568 E11.48509
G1 X144.65 Y63.857 E11.51685
G1 X145.532 Y64.221 E11.54858
G1 X146.381 Y64.658 E11.58034
G1 X147.191 Y65.164 E11.61211
G1 X147.955 Y65.736 E11.64385
G1 X148.654 Y66.356 E11.67493
G1 X149.242 Y66.925 E11.70214
G1 X150.43 Y68.116 E11.75809
G1 X150.919 Y68.619 E11.78143
G1 X151.555 Y69.33 E11.81315
G1 X152.13 Y70.093 E11.84493
G1 X152.638 Y70.901 E11.87668
G1 X153.078 Y71.749 E11.90845
G1 X153.444 Y72.63 E11.94018
G1 X153.736 Y73.539 E11.97194
G1 X153.951 Y74.47 E12.00372
G1 X154.087 Y75.415 E12.03547
G1 X154.143 Y76.341 E12.06633
G1 X154.155 Y77.073 E12.09068
G1 X154.155 Y95.854 E12.71533
G1 X154.146 Y96.514 E12.73729
G1 X154.093 Y97.468 E12.76907
G1 X153.96 Y98.413 E12.80081
G1 X153.8 Y99.151 E12.82592
G1 X153.48 Y100.408 E12.86907
G1 X151.049 Y109.277 E13.17493
G1 X150.865 Y109.91 E13.19686
G1 X150.56 Y110.815 E13.22862
G1 X150.181 Y111.691 E13.26037
G1 X149.878 Y112.273 E13.28219
G1 X149.428 Y113.08 E13.31292
G1 X127.828 Y150.49 E14.74969
G1 X127.422 Y151.172 E14.77609
G1 X126.899 Y151.972 E14.80788
G1 X126.312 Y152.724 E14.83961
G1 X125.664 Y153.425 E14.87136
G1 X124.959 Y154.07 E14.90314
G1 X124.203 Y154.653 E14.9349
G1 X123.401 Y155.17 E14.96663
G1 X122.558 Y155.619 E14.9984
G1 X121.681 Y155.996 E15.03015
G1 X120.775 Y156.298 E15.06191
G1 X119.847 Y156.523 E15.09367
G1 X118.655 Y156.694 E15.13372
G1 X118.335 Y156.723 E15.14441
G1 X117.381 Y156.77 E15.17618
G1 X116.427 Y156.736 E15.20793
G1 X115.76 Y156.665 E15.23024
G1 X113.395 Y156.341 E15.30964
G1 X110.901 Y156.067 E15.39309
G1 X108.383 Y155.863 E15.47711
G1 X105.928 Y155.732 E15.55888
G1 X102.343 Y155.663 E15.67814
G1 X85.721 Y155.663 E16.23099
G1 X81.374 Y155.757 E16.3756
G1 X80.42 Y155.738 E16.40734
G1 X79.47 Y155.639 E16.43911
G1 X78.532 Y155.461 E16.47086
G1 X77.612 Y155.204 E16.50263
G1 X76.717 Y154.872 E16.53438
G1 X75.853 Y154.466 E16.56614
G1 X75.026 Y153.989 E16.59789
G1 X74.575 Y153.689 E16.6159
G1 X74.286 Y153.486 E16.62765
G1 X73.529 Y152.905 E16.65939
G1 X72.822 Y152.262 E16.69118
G1 X72.172 Y151.563 E16.72292
G1 X71.583 Y150.812 E16.75467
G1 X71.059 Y150.014 E16.78642
G1 X70.603 Y149.175 E16.81818
G1 X70.219 Y148.301 E16.84993
G1 X69.909 Y147.398 E16.88169
G1 X69.676 Y146.472 E16.91344
G1 X69.524 Y145.547 E16.94462
G1 X69.478 Y145.169 E16.95729
G1 X69.124 Y142.593 E17.04377
G1 X68.765 Y140.397 E17.11778
G1 X66.109 Y125.328 E17.6267
G1 X66.002 Y124.67 E17.64888
G1 X65.888 Y123.722 E17.68063
G1 X65.854 Y122.768 E17.71238
G1 X65.9 Y121.814 E17.74415
G1 X66.026 Y120.867 E17.77593
G1 X66.23 Y119.935 E17.80766
G1 X66.512 Y119.023 E17.83941
G1 X66.869 Y118.137 E17.87118
G1 X67.299 Y117.285 E17.90292
G1 X67.863 Y116.376 E17.9385
G1 X68.441 Y115.542 E17.97225
G1 X68.828 Y115.007 E17.99421
G1 X69.42 Y114.258 E18.02597
G1 X70.072 Y113.561 E18.05771
G1 X70.78 Y112.92 E18.08948
G1 X71.85 Y112.132 E18.13367
G1 X73.362 Y111.149 E18.19366
G1 X75.43 Y109.731 E18.27705
G1 X77.472 Y108.245 E18.36105
G1 X79.44 Y106.727 E18.44372
G1 X81.39 Y105.131 E18.52753
G1 X83.269 Y103.502 E18.61024
G1 X85.119 Y101.806 E18.69372
G1 X86.923 Y100.056 E18.77731
G1 X88.684 Y98.246 E18.8613
G1 X90.353 Y96.433 E18.94326
G1 X92.025 Y94.508 E19.02807
G1 X93.612 Y92.573 E19.1113
G1 X95.13 Y90.613 E19.19376
G1 X96.614 Y88.581 E19.27745
G1 X98.025 Y86.528 E19.3603
G1 X99.413 Y84.383 E19.44528
G1 X100.679 Y82.295 E19.5265
G1 X101.947 Y80.069 E19.6117
G1 X103.106 Y77.889 E19.69382
G1 F2400 E18.89382
G0 F6000 X101.051 Y82.452
G1 F2400 E19.69382
G1 F1200 X102.29 Y80.275 E19.77713
G1 X103.46 Y78.076 E19.85998
G1 X104.58 Y75.82 E19.94375
G1 X105.979 Y72.755 E20.05581
G1 X106.245 Y72.149 E20.07782
G1 X106.658 Y71.307 E20.10902
G1 X107.141 Y70.503 E20.14021
G1 X107.691 Y69.743 E20.17141
G1 X108.383 Y68.949 E20.20644
G1 X108.89 Y68.424 E20.23072
G1 X110.119 Y67.194 E20.28855
G1 X110.65 Y66.678 E20.31318
G1 X111.35 Y66.054 E20.34437
G1 X112.1 Y65.491 E20.37556
G1 X112.896 Y64.995 E20.40675
G1 X113.731 Y64.568 E20.43795
G1 X114.6 Y64.214 E20.46916
G1 X115.495 Y63.935 E20.50034
G1 X116.411 Y63.733 E20.53153
G1 X117.341 Y63.61 E20.56274
G1 X118.129 Y63.569 E20.58898
G1 X118.905 Y63.557 E20.61479
G1 X140.205 Y63.559 E21.32323
G1 X140.904 Y63.569 E21.34648
G1 X141.841 Y63.623 E21.3777
G1 X142.769 Y63.755 E21.40888
G1 X143.683 Y63.967 E21.44008
G1 X144.575 Y64.256 E21.47127
G1 X145.44 Y64.619 E21.50247
G1 X146.27 Y65.055 E21.53365
G1 X147.06 Y65.56 E21.56484
G1 X147.805 Y66.131 E21.59606
G1 X148.376 Y66.644 E21.62159
G1 X148.959 Y67.207 E21.64855
G1 X150.143 Y68.394 E21.70431
G1 X150.632 Y68.897 E21.72764
G1 X151.257 Y69.597 E21.75885
G1 X151.819 Y70.347 E21.79002
G1 X152.316 Y71.143 E21.82124
G1 X152.743 Y71.978 E21.85243
G1 X153.097 Y72.846 E21.88361
G1 X153.377 Y73.742 E21.91483
G1 X153.578 Y74.658 E21.94602
G1 X153.701 Y75.587 E21.97719
G1 X153.743 Y76.349 E22.00257
G1 X153.755 Y77.073 E22.02666
G1 X153.755 Y95.849 E22.65115
G1 X153.746 Y96.509 E22.6731
G1 X153.693 Y97.445 E22.70428
G1 X153.561 Y98.374 E22.73549
G1 X153.412 Y99.054 E22.75865
G1 X153.094 Y100.302 E22.80148
G1 X150.665 Y109.165 E23.10713
G1 X150.481 Y109.798 E23.12906
G1 X150.181 Y110.687 E23.16027
G1 X149.806 Y111.547 E23.19147
G1 X149.529 Y112.079 E23.21142
G1 X149.081 Y112.88 E23.24195
G1 X127.484 Y150.286 E24.67855
G1 X127.078 Y150.968 E24.70495
G1 X126.564 Y151.753 E24.73616
G1 X125.986 Y152.491 E24.76734
G1 X125.346 Y153.177 E24.79854
G1 X124.651 Y153.806 E24.82972
G1 X123.904 Y154.373 E24.86091
G1 X123.112 Y154.875 E24.8921
G1 X122.28 Y155.308 E24.92329
G1 X121.414 Y155.668 E24.95449
G1 X120.52 Y155.953 E24.9857
G1 X119.606 Y156.161 E25.01687
G1 X118.619 Y156.296 E25.05001
G1 X118.299 Y156.325 E25.06069
G1 X117.362 Y156.37 E25.09189
G1 X116.425 Y156.335 E25.12308
G1 X115.815 Y156.268 E25.14349
G1 X113.458 Y155.946 E25.22261
G1 X110.944 Y155.669 E25.30674
G1 X108.436 Y155.465 E25.39043
G1 X105.927 Y155.332 E25.47399
G1 X102.351 Y155.263 E25.59295
G1 X85.713 Y155.263 E26.14634
G1 X81.366 Y155.357 E26.29095
G1 X80.428 Y155.338 E26.32216
G1 X79.496 Y155.238 E26.35333
G1 X78.575 Y155.06 E26.38453
G1 X77.673 Y154.803 E26.41573
G1 X76.796 Y154.471 E26.44692
G1 X75.95 Y154.065 E26.47813
G1 X74.805 Y153.361 E26.52283
G1 X74.516 Y153.158 E26.53458
G1 X73.773 Y152.587 E26.56575
G1 X73.08 Y151.954 E26.59696
G1 X72.444 Y151.265 E26.62815
G1 X71.869 Y150.524 E26.65935
G1 X71.359 Y149.737 E26.69054
G1 X70.918 Y148.909 E26.72174
G1 X70.55 Y148.047 E26.75291
G1 X70.256 Y147.156 E26.78412
G1 X70.039 Y146.244 E26.8153
G1 X69.921 Y145.498 E26.84042
G1 X69.516 Y142.514 E26.94058
G1 X69.163 Y140.355 E27.01334
G1 X66.504 Y125.264 E27.523
G1 X66.397 Y124.606 E27.54517
G1 X66.286 Y123.674 E27.57639
G1 X66.254 Y122.737 E27.60757
G1 X66.303 Y121.8 E27.63878
G1 X66.432 Y120.871 E27.66998
G1 X66.639 Y119.957 E27.70115
G1 X66.923 Y119.063 E27.73234
G1 X67.282 Y118.196 E27.76356
G1 X67.714 Y117.364 E27.79474
G1 X68.193 Y116.603 E27.82464
G1 X68.765 Y115.777 E27.85806
G1 X69.152 Y115.242 E27.88002
G1 X69.734 Y114.506 E27.91123
G1 X70.376 Y113.823 E27.94241
G1 X71.074 Y113.196 E27.97361
G1 X72.068 Y112.468 E28.01459
G1 X73.565 Y111.494 E28.07399
G1 X75.663 Y110.057 E28.15857
G1 X77.689 Y108.582 E28.24192
G1 X79.692 Y107.036 E28.32608
G1 X81.66 Y105.426 E28.41065
G1 X83.538 Y103.798 E28.49332
G1 X85.402 Y102.089 E28.57743
G1 X87.206 Y100.339 E28.66102
G1 X88.965 Y98.532 E28.74489
G1 X90.666 Y96.683 E28.82846
G1 X92.32 Y94.778 E28.91237
G1 X93.922 Y92.827 E28.99633
G1 X95.453 Y90.849 E29.07952
G1 X96.951 Y88.797 E29.16403
G1 X98.358 Y86.75 E29.24664
G1 X99.722 Y84.642 E29.33015
G1 X101.051 Y82.452 E29.41535
G1 F2400 E28.61535
G0 F6000 X98.707 Y86.947
G1 F2400 E29.41535
G1 F1200 X100.067 Y84.846 E29.4986
G1 X101.398 Y82.652 E29.58395
G1 X102.633 Y80.482 E29.66699
G1 X103.813 Y78.263 E29.75058
G1 X104.945 Y75.985 E29.83519
G1 X106.353 Y72.901 E29.94795
G1 X106.612 Y72.309 E29.96944
G1 X107.018 Y71.483 E30.00005
G1 X107.494 Y70.695 E30.03067
G1 X108.036 Y69.951 E30.06129
G1 X108.671 Y69.226 E30.09334
G1 X109.173 Y68.706 E30.11738
G1 X110.398 Y67.481 E30.175
G1 X110.929 Y66.965 E30.19963
G1 X111.616 Y66.353 E30.23023
G1 X112.354 Y65.802 E30.26086
G1 X113.137 Y65.318 E30.29148
G1 X113.959 Y64.904 E30.32209
G1 X114.814 Y64.562 E30.35272
G1 X115.696 Y64.296 E30.38336
G1 X116.597 Y64.107 E30.41398
G1 X117.511 Y63.998 E30.44459
G1 X118.136 Y63.969 E30.4654
G1 X118.905 Y63.957 E30.49098
G1 X140.2 Y63.959 E31.19926
G1 X140.899 Y63.969 E31.22251
G1 X141.818 Y64.022 E31.25312
G1 X142.729 Y64.155 E31.28375
G1 X143.625 Y64.366 E31.31436
G1 X144.499 Y64.654 E31.34497
G1 X145.345 Y65.017 E31.37559
G1 X146.157 Y65.452 E31.40623
G1 X146.927 Y65.956 E31.43684
G1 X147.651 Y66.525 E31.46746
G1 X148.099 Y66.932 E31.48759
G1 X148.676 Y67.49 E31.51429
G1 X149.856 Y68.673 E31.56987
G1 X150.345 Y69.176 E31.5932
G1 X150.958 Y69.864 E31.62385
G1 X151.508 Y70.601 E31.65443
G1 X151.993 Y71.384 E31.68507
G1 X152.407 Y72.206 E31.71568
G1 X152.749 Y73.061 E31.74631
G1 X153.015 Y73.943 E31.77695
G1 X153.204 Y74.844 E31.80757
G1 X153.314 Y75.758 E31.83818
G1 X153.343 Y76.357 E31.85813
G1 X153.355 Y77.073 E31.88195
G1 X153.355 Y95.844 E32.50627
G1 X153.346 Y96.504 E32.52823
G1 X153.293 Y97.423 E32.55885
G1 X153.161 Y98.334 E32.58946
G1 X153.024 Y98.956 E32.61065
G1 X152.708 Y100.197 E32.65324
G1 X150.281 Y109.054 E32.95868
G1 X150.097 Y109.687 E32.98061
G1 X149.802 Y110.559 E33.01123
G1 X149.432 Y111.402 E33.04185
G1 X149.179 Y111.884 E33.05995
G1 X148.735 Y112.68 E33.09027
G1 X127.14 Y150.081 E34.5267
G1 X126.734 Y150.763 E34.55309
G1 X126.229 Y151.533 E34.58372
G1 X125.66 Y152.256 E34.61432
G1 X125.029 Y152.927 E34.64496
G1 X124.343 Y153.541 E34.67558
G1 X123.606 Y154.093 E34.7062
G1 X122.824 Y154.579 E34.73683
G1 X122.003 Y154.995 E34.76744
G1 X121.149 Y155.338 E34.79805
G1 X120.268 Y155.606 E34.82868
G1 X119.367 Y155.797 E34.85931
G1 X118.583 Y155.898 E34.8856
G1 X118.263 Y155.927 E34.89629
G1 X117.343 Y155.97 E34.92692
G1 X116.423 Y155.933 E34.95755
G1 X115.869 Y155.872 E34.97608
G1 X113.516 Y155.55 E35.05507
G1 X110.95 Y155.268 E35.14093
G1 X108.456 Y155.065 E35.22416
G1 X105.956 Y154.933 E35.30742
G1 X102.359 Y154.863 E35.42708
G1 X85.751 Y154.863 E35.97947
G1 X81.357 Y154.958 E36.12565
G1 X80.437 Y154.937 E36.15625
G1 X79.521 Y154.838 E36.1869
G1 X78.618 Y154.659 E36.21752
G1 X77.734 Y154.402 E36.24814
G1 X76.876 Y154.07 E36.27873
G1 X76.049 Y153.664 E36.30938
G1 X75.035 Y153.034 E36.34908
G1 X74.746 Y152.831 E36.36083
G1 X74.017 Y152.27 E36.39142
G1 X73.338 Y151.647 E36.42207
G1 X72.717 Y150.968 E36.45268
G1 X72.156 Y150.237 E36.48332
