;FLAVOR:Marlin
;TIME:3445
;Filament used: 1.72806m
;Layer height: 0.2
;MINX:68.894
;MINY:84.888
;MINZ:0.2
;MAXX:151.104
;MAXY:135.112
;MAXZ:10
;Generated with Cura_SteamEngine 5.0.0
M140 S50
M105
M190 S50
M104 S200
M105
M109 S200
M82 ;absolute extrusion mode

G28 ;Home
;G29 ;Bed levelling

G92 E0 ;Reset Extruder
G1 Z2.0 F3000 ;Move Z Axis up
G1 X10.1 Y20 Z0.28 F5000.0 ;Move to start position
G1 X10.1 Y200.0 Z0.28 F1500.0 E15 ;Draw the first line
G1 X10.4 Y200.0 Z0.28 F5000.0 ;Move to side a little
G1 X10.4 Y20 Z0.28 F1500.0 E30 ;Draw the second line
G92 E0 ;Reset Extruder
G1 Z2.0 F3000 ;Move Z Axis up
G92 E0
G92 E0
G1 F2400 E-0.8
;LAYER_COUNT:50
;LAYER:0
M107
G1 F300 Z0.8
G0 F6000 X73.778 Y87.505 Z0.8
G1 F300 Z0.2
G0 F6000 X68.895 Y97.7
;TYPE:SKIRT
G1 F2400 E0
G1 F1200 X68.905 Y96.998 E0.02335
G1 X68.959 Y96.028 E0.05566
G1 X69.092 Y95.066 E0.08796
G1 X69.304 Y94.118 E0.12027
G1 X69.594 Y93.191 E0.15258
G1 X69.958 Y92.29 E0.1849
G1 X70.396 Y91.423 E0.21721
G1 X70.903 Y90.595 E0.2495
G1 X71.477 Y89.811 E0.28182
G1 X72.103 Y89.088 E0.31362
G1 X72.745 Y88.431 E0.34418
G1 X73.047 Y88.144 E0.35803
G1 X73.778 Y87.505 E0.39033
G1 X74.56 Y86.927 E0.42267
G1 X75.386 Y86.416 E0.45498
G1 X76.251 Y85.975 E0.48727
G1 X77.15 Y85.606 E0.51959
G1 X78.076 Y85.313 E0.55189
G1 X79.023 Y85.096 E0.58421
G1 X79.984 Y84.958 E0.6165
G1 X80.947 Y84.9 E0.64859
G1 X81.692 Y84.888 E0.67337
G1 X132.432 Y84.889 E2.36099
G1 X133.134 Y84.899 E2.38434
G1 X134.104 Y84.953 E2.41665
G1 X135.066 Y85.086 E2.44895
G1 X136.014 Y85.298 E2.48126
G1 X136.941 Y85.588 E2.51357
G1 X137.842 Y85.952 E2.54589
G1 X138.709 Y86.39 E2.57819
G1 X139.537 Y86.897 E2.61049
G1 X140.321 Y87.471 E2.6428
G1 X141.158 Y88.205 E2.67983
G1 X141.734 Y88.763 E2.7065
G1 X143.745 Y90.776 E2.80114
G1 X144.245 Y91.291 E2.82502
G1 X144.893 Y92.016 E2.85736
G1 X145.478 Y92.791 E2.88965
G1 X145.998 Y93.611 E2.92195
G1 X146.449 Y94.472 E2.95428
G1 X146.827 Y95.366 E2.98656
G1 X147.131 Y96.289 E3.01888
G1 X147.349 Y97.192 E3.04978
G1 X147.49 Y97.91 E3.07411
G1 X150.829 Y116.851 E3.71381
G1 X150.942 Y117.555 E3.73752
G1 X151.056 Y118.52 E3.76984
G1 X151.09 Y119.289 E3.79544
G1 X151.104 Y120.808 E3.84597
G1 X151.094 Y121.51 E3.86932
G1 X151.04 Y122.48 E3.90163
G1 X150.907 Y123.442 E3.93393
G1 X150.695 Y124.39 E3.96624
G1 X150.405 Y125.317 E3.99855
G1 X150.041 Y126.218 E4.03087
G1 X149.603 Y127.085 E4.06318
G1 X149.096 Y127.913 E4.09547
G1 X148.522 Y128.697 E4.12779
G1 X147.944 Y129.369 E4.15727
G1 X147.34 Y129.995 E4.1862
G1 X146.984 Y130.339 E4.20266
G1 X146.258 Y130.984 E4.23496
G1 X145.481 Y131.568 E4.26729
G1 X144.66 Y132.086 E4.29958
G1 X143.798 Y132.535 E4.33191
G1 X142.903 Y132.911 E4.3642
G1 X141.979 Y133.212 E4.39652
G1 X141.034 Y133.437 E4.42883
G1 X139.841 Y133.606 E4.4689
G1 X138.582 Y133.719 E4.51094
G1 X136.079 Y133.981 E4.59465
G1 X135.079 Y134.12 E4.62823
G1 X134.734 Y134.154 E4.63976
G1 X133.582 Y134.303 E4.67839
G1 X132.245 Y134.4 E4.72298
G1 X131.336 Y134.412 E4.75322
G1 X127.387 Y134.412 E4.88456
G1 X124.778 Y134.449 E4.97135
G1 X122.3 Y134.554 E5.05384
G1 X119.816 Y134.73 E5.13666
G1 X117.978 Y134.905 E5.19807
G1 X116.771 Y135.032 E5.23844
G1 X115.734 Y135.095 E5.27299
G1 X114.636 Y135.112 E5.30952
G1 X99.437 Y135.112 E5.81504
G1 X98.729 Y135.102 E5.83859
G1 X97.735 Y135.046 E5.8717
G1 X96.681 Y134.94 E5.90693
G1 X95.912 Y134.852 E5.93268
G1 X93.41 Y134.637 E6.0162
G1 X90.921 Y134.495 E6.09912
G1 X88.409 Y134.422 E6.18271
G1 X87.04 Y134.412 E6.22824
G1 X81.873 Y134.412 E6.40009
G1 X81.007 Y134.401 E6.4289
G1 X80.038 Y134.347 E6.46118
G1 X79.075 Y134.213 E6.49352
G1 X78.127 Y134.001 E6.52583
G1 X77.2 Y133.712 E6.55812
G1 X76.3 Y133.347 E6.59043
G1 X75.433 Y132.909 E6.62273
G1 X74.604 Y132.402 E6.65505
G1 X73.821 Y131.828 E6.68734
G1 X73.146 Y131.247 E6.71697
G1 X72.563 Y130.685 E6.7439
G1 X72.245 Y130.358 E6.75907
G1 X71.597 Y129.634 E6.79139
G1 X71.01 Y128.859 E6.82372
G1 X70.49 Y128.039 E6.85602
G1 X70.038 Y127.179 E6.88833
G1 X69.659 Y126.285 E6.92063
G1 X69.355 Y125.362 E6.95295
G1 X69.128 Y124.418 E6.98524
G1 X68.979 Y123.458 E7.01755
G1 X68.906 Y122.324 E7.05535
G1 X68.894 Y121.52 E7.08209
G1 X68.895 Y97.7 E7.87435
G0 F6000 X69.295 Y97.706
G1 F1200 X69.305 Y97.004 E7.8977
G1 X69.359 Y96.05 E7.92948
G1 X69.492 Y95.105 E7.96122
G1 X69.704 Y94.174 E7.99298
G1 X69.993 Y93.264 E8.02474
G1 X70.357 Y92.381 E8.0565
G1 X70.793 Y91.532 E8.08825
G1 X71.3 Y90.723 E8.12
G1 X71.872 Y89.958 E8.15177
G1 X72.394 Y89.361 E8.17815
G1 X72.564 Y89.18 E8.18641
G1 X73.021 Y88.721 E8.20795
G1 X73.323 Y88.434 E8.22181
G1 X74.042 Y87.806 E8.25356
G1 X74.811 Y87.24 E8.28532
G1 X75.625 Y86.741 E8.31707
G1 X76.477 Y86.311 E8.34881
G1 X77.363 Y85.955 E8.38057
G1 X78.275 Y85.673 E8.41232
G1 X79.208 Y85.469 E8.44409
G1 X80.155 Y85.344 E8.47586
G1 X80.955 Y85.3 E8.50251
G1 X81.692 Y85.288 E8.52702
G1 X132.426 Y85.289 E10.21444
G1 X133.128 Y85.299 E10.23779
G1 X134.082 Y85.353 E10.26957
G1 X135.027 Y85.486 E10.30131
G1 X135.958 Y85.698 E10.33307
G1 X136.868 Y85.987 E10.36483
G1 X137.751 Y86.351 E10.39659
G1 X138.6 Y86.787 E10.42834
G1 X139.409 Y87.294 E10.46009
G1 X140.174 Y87.866 E10.49186
G1 X140.881 Y88.493 E10.52329
G1 X141.451 Y89.046 E10.54971
G1 X143.458 Y91.055 E10.64416
G1 X143.958 Y91.57 E10.66803
G1 X144.594 Y92.282 E10.69978
G1 X145.168 Y93.045 E10.73154
G1 X145.676 Y93.854 E10.76331
G1 X146.115 Y94.702 E10.79507
G1 X146.481 Y95.583 E10.8268
G1 X146.772 Y96.493 E10.85858
G1 X146.957 Y97.27 E10.88515
G1 X147.096 Y97.98 E10.90921
G1 X150.434 Y116.914 E11.54867
G1 X150.547 Y117.618 E11.57238
G1 X150.659 Y118.567 E11.60417
G1 X150.69 Y119.294 E11.62837
G1 X150.704 Y120.802 E11.67853
G1 X150.694 Y121.504 E11.70188
G1 X150.64 Y122.458 E11.73366
G1 X150.507 Y123.403 E11.7654
G1 X150.295 Y124.334 E11.79716
G1 X150.006 Y125.244 E11.82891
G1 X149.642 Y126.127 E11.86068
G1 X149.206 Y126.976 E11.89242
G1 X148.699 Y127.785 E11.92418
G1 X148.127 Y128.55 E11.95595
G1 X147.651 Y129.097 E11.98007
G1 X147.062 Y129.707 E12.00827
G1 X146.706 Y130.051 E12.02473
G1 X145.992 Y130.685 E12.05649
G1 X145.228 Y131.257 E12.08824
G1 X144.418 Y131.764 E12.12002
G1 X143.569 Y132.2 E12.15176
G1 X142.686 Y132.564 E12.18353
G1 X141.776 Y132.853 E12.21529
G1 X140.845 Y133.065 E12.24704
G1 X139.805 Y133.207 E12.28195
G1 X138.571 Y133.318 E12.32316
G1 X136.042 Y133.582 E12.40774
G1 X135.024 Y133.724 E12.44192
G1 X134.707 Y133.755 E12.45252
G1 X133.53 Y133.907 E12.49199
G1 X132.239 Y134 E12.53504
G1 X131.336 Y134.012 E12.56507
G1 X127.381 Y134.012 E12.69662
G1 X124.791 Y134.049 E12.78277
G1 X122.256 Y134.156 E12.86716
G1 X119.79 Y134.331 E12.94939
G1 X118.009 Y134.501 E13.00889
G1 X116.73 Y134.635 E13.05166
G1 X115.727 Y134.695 E13.08508
G1 X114.636 Y134.712 E13.12137
G1 X99.443 Y134.712 E13.6267
G1 X98.735 Y134.702 E13.65025
G1 X97.775 Y134.648 E13.68223
G1 X96.727 Y134.543 E13.71726
G1 X95.922 Y134.451 E13.74421
G1 X93.471 Y134.24 E13.82603
G1 X90.919 Y134.095 E13.91105
G1 X88.423 Y134.022 E13.9941
G1 X87.043 Y134.012 E14.04
G1 X81.873 Y134.012 E14.21195
G1 X81.013 Y134.001 E14.24056
G1 X80.06 Y133.947 E14.27231
G1 X79.115 Y133.814 E14.30405
G1 X78.184 Y133.602 E14.33581
G1 X77.274 Y133.313 E14.36756
G1 X76.391 Y132.949 E14.39933
G1 X75.542 Y132.512 E14.43109
G1 X74.733 Y132.006 E14.46282
G1 X73.968 Y131.433 E14.49461
G1 X73.418 Y130.954 E14.51887
G1 X72.849 Y130.406 E14.54515
G1 X72.531 Y130.079 E14.56032
G1 X71.895 Y129.367 E14.59207
G1 X71.32 Y128.604 E14.62385
G1 X70.812 Y127.797 E14.65556
G1 X70.372 Y126.949 E14.68734
G1 X70.005 Y126.067 E14.71911
G1 X69.713 Y125.158 E14.75087
G1 X69.499 Y124.228 E14.78261
G1 X69.362 Y123.283 E14.81437
G1 X69.306 Y122.318 E14.84652
G1 X69.294 Y121.52 E14.87306
G1 X69.295 Y97.706 E15.66512
G0 F6000 X69.695 Y97.711
G1 F1200 X69.705 Y97.009 E15.68847
G1 X69.758 Y96.073 E15.71965
G1 X69.891 Y95.145 E15.75083
G1 X70.103 Y94.231 E15.78204
G1 X70.391 Y93.338 E15.81325
G1 X70.755 Y92.474 E15.84443
G1 X71.191 Y91.643 E15.87564
G1 X71.696 Y90.853 E15.90683
G1 X72.266 Y90.109 E15.938
G1 X72.686 Y89.635 E15.95906
G1 X73.296 Y89.011 E15.98809
G1 X73.598 Y88.724 E16.00195
G1 X74.305 Y88.108 E16.03313
G1 X75.062 Y87.554 E16.06433
G1 X75.863 Y87.066 E16.09553
G1 X76.703 Y86.649 E16.12672
G1 X77.575 Y86.304 E16.15791
G1 X78.474 Y86.035 E16.18912
G1 X79.392 Y85.844 E16.22031
G1 X80.323 Y85.731 E16.2515
G1 X80.963 Y85.7 E16.27281
G1 X81.692 Y85.688 E16.29706
G1 X132.421 Y85.689 E17.98432
G1 X133.123 Y85.699 E18.00767
G1 X134.059 Y85.752 E18.03885
G1 X134.987 Y85.885 E18.07003
G1 X135.901 Y86.097 E18.10124
G1 X136.794 Y86.385 E18.13244
G1 X137.658 Y86.749 E18.16363
G1 X138.489 Y87.185 E18.19484
G1 X139.279 Y87.69 E18.22602
G1 X140.023 Y88.26 E18.2572
G1 X140.603 Y88.781 E18.28313
G1 X141.168 Y89.329 E18.30931
G1 X143.171 Y91.334 E18.40357
G1 X143.671 Y91.849 E18.42744
G1 X144.295 Y92.549 E18.45863
G1 X144.857 Y93.3 E18.48983
G1 X145.354 Y94.095 E18.52102
G1 X145.78 Y94.931 E18.55222
G1 X146.134 Y95.799 E18.5834
G1 X146.412 Y96.695 E18.6146
G1 X146.564 Y97.349 E18.63694
G1 X146.702 Y98.049 E18.66067
G1 X150.039 Y116.978 E19.29996
G1 X150.152 Y117.682 E19.32367
G1 X150.261 Y118.613 E19.35485
G1 X150.29 Y119.298 E19.37765
G1 X150.304 Y120.797 E19.42751
G1 X150.294 Y121.499 E19.45086
G1 X150.241 Y122.435 E19.48204
G1 X150.108 Y123.363 E19.51322
G1 X149.896 Y124.277 E19.54443
G1 X149.608 Y125.17 E19.57564
G1 X149.244 Y126.034 E19.60682
G1 X148.808 Y126.865 E19.63803
G1 X148.303 Y127.655 E19.66922
G1 X147.733 Y128.399 E19.70039
G1 X147.202 Y128.992 E19.72687
G1 X146.784 Y129.419 E19.74674
G1 X146.428 Y129.763 E19.76321
G1 X145.726 Y130.386 E19.79442
G1 X144.974 Y130.946 E19.82561
G1 X144.177 Y131.44 E19.85679
G1 X143.341 Y131.865 E19.88799
G1 X142.471 Y132.217 E19.9192
G1 X141.575 Y132.493 E19.95038
G1 X140.659 Y132.692 E19.98156
G1 X139.769 Y132.809 E20.01142
G1 X138.492 Y132.924 E20.05406
G1 X136.001 Y133.184 E20.13736
G1 X134.968 Y133.328 E20.17205
G1 X134.643 Y133.359 E20.18291
G1 X133.479 Y133.51 E20.22195
G1 X132.233 Y133.6 E20.2635
G1 X131.336 Y133.612 E20.29334
G1 X127.376 Y133.612 E20.42505
G1 X124.768 Y133.649 E20.5118
G1 X122.246 Y133.756 E20.59576
G1 X119.764 Y133.932 E20.67852
G1 X117.928 Y134.107 E20.73986
G1 X116.688 Y134.237 E20.78133
G1 X115.721 Y134.295 E20.81355
G1 X114.636 Y134.312 E20.84964
G1 X99.449 Y134.312 E21.35476
G1 X98.741 Y134.302 E21.37831
G1 X97.814 Y134.25 E21.40919
G1 X96.772 Y134.145 E21.44403
G1 X95.999 Y134.056 E21.46991
G1 X93.457 Y133.838 E21.55476
G1 X90.953 Y133.695 E21.63818
G1 X88.438 Y133.622 E21.72187
G1 X87.046 Y133.612 E21.76817
G1 X81.873 Y133.612 E21.94022
G1 X81.019 Y133.601 E21.96863
G1 X80.083 Y133.547 E21.99981
G1 X79.154 Y133.414 E22.03102
G1 X78.241 Y133.203 E22.06219
G1 X77.348 Y132.914 E22.09341
G1 X76.484 Y132.551 E22.12458
G1 X75.653 Y132.115 E22.15579
G1 X74.863 Y131.609 E22.18699
G1 X74.119 Y131.039 E22.21817
G1 X73.535 Y130.517 E22.24422
G1 X73.136 Y130.127 E22.26278
G1 X72.818 Y129.8 E22.27795
G1 X72.193 Y129.1 E22.30916
G1 X71.631 Y128.35 E22.34033
G1 X71.134 Y127.554 E22.37154
G1 X70.707 Y126.72 E22.40271
G1 X70.352 Y125.851 E22.43393
G1 X70.073 Y124.956 E22.46511
G1 X69.871 Y124.04 E22.49631
G1 X69.748 Y123.11 E22.52751
G1 X69.705 Y122.311 E22.55412
G1 X69.694 Y121.52 E22.58043
G1 X69.695 Y97.711 E23.37232
G0 F6000 X70.095 Y97.717
G1 F1200 X70.105 Y97.015 E23.39567
G1 X70.158 Y96.096 E23.42629
G1 X70.291 Y95.185 E23.45691
G1 X70.502 Y94.289 E23.48753
G1 X70.79 Y93.414 E23.51817
G1 X71.153 Y92.568 E23.54879
G1 X71.588 Y91.757 E23.5794
G1 X72.092 Y90.986 E23.61003
G1 X72.66 Y90.262 E23.64064
G1 X73.148 Y89.728 E23.6647
G1 X73.572 Y89.301 E23.68471
G1 X73.874 Y89.014 E23.69857
G1 X74.568 Y88.41 E23.72917
G1 X75.312 Y87.868 E23.75979
G1 X76.101 Y87.392 E23.79043
G1 X76.927 Y86.987 E23.82103
G1 X77.786 Y86.655 E23.85166
G1 X78.67 Y86.398 E23.88228
G1 X79.573 Y86.22 E23.91289
G1 X80.489 Y86.12 E23.94354
G1 X80.971 Y86.1 E23.95958
G1 X81.692 Y86.088 E23.98357
G1 X132.415 Y86.089 E25.67062
G1 X133.117 Y86.099 E25.69397
G1 X134.036 Y86.152 E25.72459
G1 X134.947 Y86.285 E25.75521
G1 X135.843 Y86.496 E25.78583
G1 X136.718 Y86.784 E25.81647
G1 X137.564 Y87.147 E25.84709
G1 X138.375 Y87.582 E25.87769
G1 X139.146 Y88.086 E25.90833
G1 X139.87 Y88.654 E25.93894
G1 X140.325 Y89.069 E25.95942
G1 X140.885 Y89.612 E25.98536
G1 X142.884 Y91.612 E26.07941
G1 X143.384 Y92.127 E26.10329
G1 X143.996 Y92.815 E26.13391
G1 X144.546 Y93.553 E26.16453
G1 X145.03 Y94.337 E26.19517
G1 X145.444 Y95.159 E26.22578
G1 X145.786 Y96.014 E26.25641
G1 X146.051 Y96.895 E26.28701
G1 X146.172 Y97.428 E26.30519
G1 X146.308 Y98.119 E26.32861
G1 X149.644 Y117.041 E26.96767
G1 X149.757 Y117.745 E26.99138
G1 X149.863 Y118.66 E27.02202
G1 X149.89 Y119.303 E27.04342
G1 X149.904 Y120.791 E27.09292
G1 X149.894 Y121.493 E27.11627
G1 X149.841 Y122.412 E27.14689
G1 X149.708 Y123.323 E27.17751
G1 X149.497 Y124.219 E27.20812
G1 X149.209 Y125.094 E27.23876
G1 X148.846 Y125.94 E27.26938
G1 X148.411 Y126.751 E27.29999
G1 X147.907 Y127.522 E27.33063
G1 X147.064 Y128.553 E27.37492
G1 X146.506 Y129.132 E27.40167
G1 X146.15 Y129.476 E27.41813
G1 X145.461 Y130.086 E27.44874
G1 X144.721 Y130.634 E27.47936
G1 X143.937 Y131.116 E27.50997
G1 X143.113 Y131.529 E27.54063
G1 X142.257 Y131.868 E27.57125
G1 X141.375 Y132.131 E27.60186
G1 X140.474 Y132.317 E27.63246
G1 X139.734 Y132.41 E27.65727
G1 X138.551 Y132.516 E27.69677
G1 X135.933 Y132.79 E27.78432
G1 X134.913 Y132.932 E27.81858
G1 X134.588 Y132.963 E27.82944
G1 X133.428 Y133.113 E27.86834
G1 X132.226 Y133.2 E27.90842
G1 X131.336 Y133.212 E27.93803
G1 X127.37 Y133.212 E28.06994
G1 X124.745 Y133.249 E28.15725
G1 X122.237 Y133.356 E28.24074
G1 X119.697 Y133.536 E28.32544
G1 X117.949 Y133.702 E28.38384
G1 X116.646 Y133.839 E28.42741
G1 X115.714 Y133.896 E28.45847
G1 X114.636 Y133.912 E28.49433
G1 X99.454 Y133.912 E28.99928
G1 X98.746 Y133.902 E29.02283
G1 X97.853 Y133.852 E29.05258
G1 X96.818 Y133.748 E29.08718
G1 X96.012 Y133.656 E29.11416
G1 X93.513 Y133.441 E29.19759
G1 X90.988 Y133.297 E29.2817
G1 X88.407 Y133.222 E29.36759
G1 X87.049 Y133.212 E29.41275
G1 X81.873 Y133.212 E29.58491
G1 X81.025 Y133.201 E29.61312
G1 X80.106 Y133.148 E29.64373
G1 X79.195 Y133.015 E29.67435
G1 X78.298 Y132.804 E29.705
G1 X77.424 Y132.515 E29.73562
G1 X76.578 Y132.152 E29.76624
G1 X75.767 Y131.717 E29.79685
G1 X74.996 Y131.213 E29.82748
G1 X73.962 Y130.368 E29.8719
G1 X73.423 Y129.848 E29.89681
G1 X73.105 Y129.521 E29.91198
G1 X72.492 Y128.834 E29.9426
G1 X71.942 Y128.096 E29.97322
G1 X71.457 Y127.313 E30.00385
G1 X71.042 Y126.491 E30.03448
G1 X70.7 Y125.636 E30.0651
G1 X70.434 Y124.755 E30.09571
G1 X70.245 Y123.854 E30.12633
G1 X70.135 Y122.94 E30.15695
G1 X70.105 Y122.304 E30.17813
G1 X70.094 Y121.52 E30.20421
G1 X70.095 Y97.717 E30.9959
G0 F6000 X70.495 Y97.723
G1 F1200 X70.505 Y97.021 E31.01925
G1 X70.558 Y96.119 E31.0493
G1 X70.69 Y95.226 E31.07932
G1 X70.901 Y94.348 E31.10936
G1 X71.189 Y93.492 E31.1394
G1 X71.551 Y92.664 E31.16945
G1 X71.985 Y91.872 E31.19949
G1 X72.488 Y91.122 E31.22953
G1 X73.269 Y90.183 E31.27015
G1 X73.847 Y89.591 E31.29767
G1 X74.149 Y89.304 E31.31152
G1 X74.831 Y88.712 E31.34156
G1 X75.562 Y88.182 E31.37159
G1 X76.338 Y87.719 E31.40165
G1 X77.151 Y87.326 E31.43168
G1 X77.996 Y87.007 E31.46172
G1 X78.865 Y86.763 E31.49174
G1 X79.753 Y86.598 E31.52178
G1 X80.978 Y86.5 E31.56266
G1 X81.692 Y86.488 E31.58641
G1 X132.409 Y86.489 E33.27326
G1 X133.111 Y86.499 E33.29661
G1 X134.013 Y86.552 E33.32667
G1 X134.906 Y86.684 E33.35669
G1 X135.784 Y86.895 E33.38672
G1 X136.64 Y87.183 E33.41676
G1 X137.468 Y87.545 E33.44682
G1 X138.26 Y87.979 E33.47686
G1 X139.01 Y88.482 E33.50689
G1 X139.713 Y89.048 E33.53691
G1 X140.047 Y89.357 E33.55205
G1 X140.602 Y89.895 E33.57775
G1 X142.597 Y91.891 E33.67162
G1 X143.097 Y92.406 E33.69549
G1 X143.697 Y93.081 E33.72553
G1 X144.235 Y93.807 E33.75558
G1 X144.706 Y94.577 E33.7856
G1 X145.108 Y95.386 E33.81565
G1 X145.436 Y96.227 E33.84567
G1 X145.78 Y97.506 E33.88973
G1 X145.914 Y98.188 E33.91284
G1 X149.249 Y117.104 E34.5517
G1 X149.362 Y117.808 E34.57541
G1 X149.466 Y118.706 E34.60548
