;FLAVOR:Marlin
;TIME:4861
;Filament used: 2.83143m
;Layer height: 0.2
;MINX:66.884
;MINY:64.196
;MINZ:0.2
;MAXX:153.019
;MAXY:156.449
;MAXZ:11
;Generated with Cura_SteamEngine 5.0.0
M140 S50
M105
M190 S50
M104 S200
M105
M109 S200
M82 ;absolute extrusion mode

G28 ;Home
;G29 ;Bed levelling

G92 E0 ;Reset Extruder
G1 Z2.0 F3000 ;Move Z Axis up
G1 X10.1 Y20 Z0.28 F5000.0 ;Move to start position
G1 X10.1 Y200.0 Z0.28 F1500.0 E15 ;Draw the first line
G1 X10.4 Y200.0 Z0.28 F5000.0 ;Move to side a little
G1 X10.4 Y20 Z0.28 F1500.0 E30 ;Draw the second line
G92 E0 ;Reset Extruder
G1 Z2.0 F3000 ;Move Z Axis up
G92 E0
G92 E0
G1 F2400 E-0.4
;LAYER_COUNT:55
;LAYER:0
M107
G1 F300 Z0.8
G0 F6000 X70.212 Y68.954 Z0.8
G1 F300 Z0.2
G0 F6000 X66.885 Y77.692
;TYPE:SKIRT
G1 F2400 E0
G1 F600 X66.895 Y76.99 E0.02335
G1 X66.949 Y76.02 E0.05566
G1 X67.082 Y75.058 E0.08796
G1 X67.294 Y74.11 E0.12027
G1 X67.584 Y73.183 E0.15258
G1 X67.948 Y72.282 E0.1849
G1 X68.386 Y71.415 E0.21721
G1 X68.893 Y70.587 E0.2495
G1 X69.467 Y69.803 E0.28182
G1 X70.212 Y68.954 E0.31938
G1 X70.883 Y68.267 E0.35133
G1 X71.591 Y67.574 E0.38428
G1 X72.313 Y66.924 E0.41659
G1 X73.085 Y66.335 E0.44888
G1 X73.904 Y65.812 E0.48121
G1 X74.762 Y65.358 E0.51349
G1 X75.655 Y64.976 E0.5458
G1 X76.577 Y64.669 E0.57812
G1 X77.521 Y64.438 E0.61044
G1 X78.48 Y64.286 E0.64274
G1 X79.619 Y64.209 E0.68071
G1 X80.366 Y64.197 E0.70555
G1 X100.388 Y64.196 E1.37149
G1 X101.349 Y64.214 E1.40346
G1 X102.318 Y64.274 E1.43575
G1 X103.28 Y64.414 E1.46808
G1 X104.226 Y64.633 E1.50038
G1 X105.151 Y64.928 E1.53267
G1 X106.049 Y65.299 E1.56499
G1 X106.914 Y65.742 E1.59731
G1 X107.738 Y66.255 E1.62959
G1 X108.518 Y66.835 E1.66192
G1 X109.248 Y67.476 E1.69423
G1 X109.817 Y68.027 E1.72058
G1 X110.65 Y68.873 E1.76007
G1 X111.303 Y69.593 E1.7924
G1 X111.894 Y70.364 E1.82471
G1 X112.419 Y71.18 E1.85698
G1 X112.876 Y72.038 E1.88931
G1 X113.082 Y72.49 E1.90583
G1 X114.334 Y75.326 E2.00894
G1 X115.423 Y77.602 E2.09286
G1 X116.557 Y79.81 E2.17542
G1 X117.76 Y81.998 E2.25847
G1 X119.03 Y84.16 E2.34186
G1 X120.352 Y86.271 E2.42471
G1 X121.734 Y88.346 E2.50763
G1 X123.168 Y90.372 E2.59018
G1 X124.667 Y92.369 E2.67323
G1 X126.229 Y94.329 E2.75659
G1 X127.84 Y96.239 E2.8397
G1 X129.486 Y98.081 E2.92186
G1 X131.205 Y99.901 E3.00513
G1 X132.979 Y101.673 E3.08852
G1 X134.784 Y103.378 E3.17111
G1 X136.648 Y105.042 E3.25421
G1 X138.568 Y106.661 E3.33775
G1 X140.501 Y108.198 E3.41988
G1 X142.492 Y109.692 E3.50268
G1 X144.555 Y111.151 E3.58672
G1 X146.674 Y112.561 E3.67137
G1 X147.461 Y113.065 E3.70246
G1 X148.257 Y113.621 E3.73475
G1 X149.004 Y114.242 E3.76706
G1 X149.698 Y114.921 E3.79935
G1 X150.334 Y115.656 E3.83168
G1 X150.817 Y116.307 E3.85864
G1 X150.939 Y116.484 E3.86579
G1 X151.457 Y117.306 E3.89811
G1 X151.905 Y118.168 E3.93042
G1 X152.281 Y119.063 E3.96271
G1 X152.582 Y119.987 E3.99503
G1 X152.807 Y120.932 E4.02734
G1 X152.952 Y121.892 E4.05963
G1 X153.019 Y122.862 E4.09197
G1 X153.005 Y123.833 E4.12427
G1 X152.887 Y124.966 E4.16215
G1 X152.773 Y125.694 E4.18666
G1 X150.247 Y140.018 E4.67043
G1 X149.847 Y142.493 E4.75382
G1 X149.425 Y145.688 E4.86101
G1 X149.258 Y146.645 E4.89332
G1 X149.013 Y147.585 E4.92563
G1 X148.692 Y148.502 E4.95794
G1 X148.296 Y149.389 E4.99025
G1 X147.829 Y150.241 E5.02257
G1 X147.293 Y151.051 E5.05487
G1 X146.693 Y151.815 E5.08718
G1 X146.031 Y152.526 E5.11949
G1 X145.49 Y153.031 E5.14411
G1 X144.741 Y153.65 E5.17643
G1 X143.944 Y154.204 E5.20871
G1 X143.104 Y154.692 E5.24102
G1 X142.226 Y155.108 E5.27333
G1 X141.317 Y155.451 E5.30565
G1 X140.383 Y155.718 E5.33796
G1 X139.431 Y155.908 E5.37025
G1 X138.465 Y156.018 E5.40258
G1 X137.797 Y156.048 E5.42482
G1 X136.793 Y156.062 E5.45822
G1 X112.668 Y156.062 E6.26062
G1 X110.059 Y156.099 E6.34741
G1 X107.6 Y156.203 E6.42927
G1 X104.621 Y156.419 E6.52861
G1 X103.65 Y156.449 E6.56092
G1 X102.68 Y156.4 E6.59322
G1 X101.717 Y156.27 E6.62554
G1 X100.735 Y156.054 E6.65898
G1 X99.803 Y155.779 E6.6913
G1 X98.898 Y155.427 E6.7236
G1 X98.024 Y155.003 E6.75591
G1 X97.188 Y154.508 E6.78822
G1 X96.396 Y153.946 E6.82052
G1 X95.652 Y153.32 E6.85286
G1 X94.963 Y152.636 E6.88515
G1 X94.332 Y151.897 E6.91748
G1 X93.514 Y150.713 E6.96534
G1 X93.16 Y150.122 E6.98825
G1 X71.443 Y112.507 E8.43288
G1 X71.125 Y111.938 E8.45456
G1 X70.687 Y111.071 E8.48686
G1 X70.321 Y110.171 E8.51918
G1 X70.093 Y109.466 E8.54382
G1 X69.836 Y108.578 E8.57457
G1 X67.448 Y99.854 E8.8754
G1 X67.286 Y99.23 E8.89685
G1 X67.08 Y98.281 E8.92915
G1 X66.954 Y97.318 E8.96145
G1 X66.91 Y96.511 E8.98833
G1 X66.884 Y95.164 E9.03314
G1 X66.885 Y77.692 E9.61426
G0 F6000 X67.285 Y77.698
G1 F600 X67.295 Y76.996 E9.63761
G1 X67.349 Y76.042 E9.66939
G1 X67.482 Y75.097 E9.70113
G1 X67.694 Y74.166 E9.73289
G1 X67.983 Y73.256 E9.76465
G1 X68.347 Y72.373 E9.79641
G1 X68.783 Y71.524 E9.82816
G1 X69.29 Y70.715 E9.85991
G1 X69.862 Y69.95 E9.89168
G1 X70.5 Y69.232 E9.92363
G1 X71.163 Y68.553 E9.95519
G1 X71.871 Y67.86 E9.98814
G1 X72.58 Y67.221 E10.01989
G1 X73.341 Y66.644 E10.05165
G1 X74.147 Y66.133 E10.08339
G1 X74.994 Y65.691 E10.11517
G1 X75.874 Y65.321 E10.14692
G1 X76.782 Y65.026 E10.17867
G1 X77.712 Y64.808 E10.21045
G1 X78.656 Y64.669 E10.24218
G1 X79.627 Y64.609 E10.27454
G1 X80.366 Y64.597 E10.29912
G1 X100.388 Y64.596 E10.96506
G1 X101.34 Y64.614 E10.99672
G1 X102.293 Y64.674 E11.02848
G1 X103.238 Y64.813 E11.06025
G1 X104.167 Y65.031 E11.09199
G1 X105.075 Y65.327 E11.12376
G1 X105.955 Y65.697 E11.15551
G1 X106.802 Y66.139 E11.18728
G1 X107.608 Y66.651 E11.21904
G1 X108.368 Y67.228 E11.25078
G1 X108.972 Y67.765 E11.27766
G1 X109.532 Y68.308 E11.3036
G1 X110.365 Y69.154 E11.34309
G1 X111.006 Y69.861 E11.37483
G1 X111.585 Y70.62 E11.40659
G1 X112.099 Y71.425 E11.43835
G1 X112.714 Y72.648 E11.48388
G1 X113.979 Y75.51 E11.58796
G1 X115.064 Y77.778 E11.67158
G1 X116.216 Y80.021 E11.75545
G1 X117.407 Y82.187 E11.83766
G1 X118.68 Y84.354 E11.92125
G1 X120.007 Y86.475 E12.00446
G1 X121.408 Y88.577 E12.08848
G1 X122.855 Y90.621 E12.17178
G1 X124.363 Y92.63 E12.25533
G1 X125.911 Y94.574 E12.33798
G1 X127.519 Y96.48 E12.42092
G1 X129.215 Y98.377 E12.50555
G1 X130.914 Y100.176 E12.58786
G1 X132.705 Y101.964 E12.67203
G1 X134.509 Y103.669 E12.75459
G1 X136.387 Y105.345 E12.83831
G1 X138.307 Y106.964 E12.92184
G1 X140.257 Y108.515 E13.00471
G1 X142.266 Y110.023 E13.08826
G1 X144.324 Y111.479 E13.17211
G1 X146.458 Y112.899 E13.25736
G1 X147.245 Y113.402 E13.28843
G1 X148.027 Y113.949 E13.32017
G1 X148.761 Y114.561 E13.35195
G1 X149.44 Y115.231 E13.38368
G1 X150.061 Y115.956 E13.41543
G1 X150.487 Y116.534 E13.43931
G1 X150.609 Y116.711 E13.44646
G1 X151.118 Y117.519 E13.47823
G1 X151.557 Y118.367 E13.50999
G1 X151.923 Y119.249 E13.54175
G1 X152.215 Y120.158 E13.5735
G1 X152.429 Y121.088 E13.60524
G1 X152.565 Y122.034 E13.63703
G1 X152.621 Y122.987 E13.66878
G1 X152.598 Y123.941 E13.70052
G1 X152.492 Y124.905 E13.73278
G1 X152.379 Y125.625 E13.75702
G1 X149.846 Y139.991 E14.2422
G1 X149.449 Y142.443 E14.32482
G1 X149.028 Y145.636 E14.43194
G1 X148.863 Y146.576 E14.46368
G1 X148.621 Y147.5 E14.49545
G1 X148.302 Y148.4 E14.52721
G1 X147.909 Y149.27 E14.55896
G1 X147.444 Y150.104 E14.59072
G1 X146.911 Y150.896 E14.62247
G1 X146.314 Y151.641 E14.65422
G1 X145.34 Y152.628 E14.70034
G1 X145.223 Y152.733 E14.70557
G1 X144.487 Y153.341 E14.73732
G1 X143.702 Y153.884 E14.76907
G1 X142.874 Y154.36 E14.80084
G1 X142.009 Y154.765 E14.8326
G1 X141.114 Y155.097 E14.86435
G1 X140.194 Y155.352 E14.89611
G1 X139.256 Y155.529 E14.92786
G1 X138.306 Y155.628 E14.95962
G1 X137.791 Y155.648 E14.97677
G1 X136.793 Y155.662 E15.00996
G1 X112.662 Y155.662 E15.81256
G1 X110.072 Y155.699 E15.89872
G1 X107.554 Y155.806 E15.98254
G1 X104.592 Y156.02 E16.08131
G1 X103.638 Y156.049 E16.11306
G1 X102.684 Y155.998 E16.14483
G1 X101.739 Y155.868 E16.17656
G1 X100.832 Y155.666 E16.20747
G1 X99.917 Y155.395 E16.23921
G1 X99.028 Y155.048 E16.27095
G1 X98.17 Y154.627 E16.30273
G1 X97.351 Y154.137 E16.33448
G1 X96.576 Y153.579 E16.36624
G1 X95.85 Y152.959 E16.39799
G1 X95.179 Y152.28 E16.42974
G1 X94.567 Y151.547 E16.46151
G1 X93.856 Y150.506 E16.50343
G1 X93.506 Y149.922 E16.52608
G1 X71.793 Y112.312 E17.97049
G1 X71.475 Y111.743 E17.99217
G1 X71.044 Y110.89 E18.02396
G1 X70.687 Y110.005 E18.0557
G1 X70.477 Y109.355 E18.07842
G1 X70.222 Y108.472 E18.10899
G1 X67.835 Y99.754 E18.40962
G1 X67.673 Y99.13 E18.43106
G1 X67.472 Y98.196 E18.46284
G1 X67.35 Y97.249 E18.4946
G1 X67.309 Y96.503 E18.51945
G1 X67.284 Y95.164 E18.56399
G1 X67.285 Y77.698 E19.14491
G0 F6000 X67.685 Y77.703
G1 F600 X67.695 Y77.001 E19.16826
G1 X67.748 Y76.065 E19.19944
G1 X67.881 Y75.137 E19.23062
G1 X68.093 Y74.223 E19.26183
G1 X68.381 Y73.33 E19.29304
G1 X68.745 Y72.466 E19.32422
G1 X69.181 Y71.635 E19.35543
G1 X69.686 Y70.845 E19.38662
G1 X70.256 Y70.101 E19.41779
G1 X70.787 Y69.51 E19.44422
G1 X71.443 Y68.839 E19.47543
G1 X72.151 Y68.146 E19.50838
G1 X72.848 Y67.519 E19.53956
G1 X73.597 Y66.954 E19.57077
G1 X74.39 Y66.455 E19.60193
G1 X75.224 Y66.025 E19.63314
G1 X76.091 Y65.667 E19.66434
G1 X76.986 Y65.385 E19.69555
G1 X77.901 Y65.18 E19.72673
G1 X78.83 Y65.054 E19.75792
G1 X79.634 Y65.009 E19.7847
G1 X80.366 Y64.997 E19.80905
G1 X100.388 Y64.996 E20.47498
G1 X101.332 Y65.013 E20.50638
G1 X102.268 Y65.073 E20.53758
G1 X103.195 Y65.212 E20.56876
G1 X104.108 Y65.43 E20.59998
G1 X104.998 Y65.725 E20.63116
G1 X105.86 Y66.094 E20.66235
G1 X106.688 Y66.536 E20.69357
G1 X107.474 Y67.046 E20.72473
G1 X108.215 Y67.622 E20.75595
G1 X108.696 Y68.055 E20.77747
G1 X109.247 Y68.588 E20.80297
G1 X110.08 Y69.434 E20.84246
G1 X110.709 Y70.13 E20.87366
G1 X111.276 Y70.877 E20.90485
G1 X111.778 Y71.669 E20.93604
G1 X112.347 Y72.806 E20.97833
G1 X113.617 Y75.68 E21.08283
G1 X114.705 Y77.954 E21.16668
G1 X115.853 Y80.19 E21.25028
G1 X117.07 Y82.403 E21.33428
G1 X118.339 Y84.563 E21.4176
G1 X119.668 Y86.687 E21.50093
G1 X121.081 Y88.808 E21.5857
G1 X122.524 Y90.846 E21.66876
G1 X124.046 Y92.874 E21.75309
G1 X125.594 Y94.818 E21.83574
G1 X127.229 Y96.756 E21.92008
G1 X128.909 Y98.635 E22.00391
G1 X130.641 Y100.468 E22.08779
G1 X132.411 Y102.236 E22.17099
G1 X134.25 Y103.974 E22.25515
G1 X136.129 Y105.651 E22.33892
G1 X138.046 Y107.267 E22.42231
G1 X140.014 Y108.832 E22.50594
G1 X142.041 Y110.354 E22.59025
G1 X144.078 Y111.794 E22.67322
G1 X146.205 Y113.21 E22.75821
G1 X147.03 Y113.738 E22.79078
G1 X147.797 Y114.277 E22.82196
G1 X148.516 Y114.879 E22.85315
G1 X149.182 Y115.54 E22.88436
G1 X149.788 Y116.256 E22.91556
G1 X150.28 Y116.938 E22.94353
G1 X150.779 Y117.733 E22.97475
G1 X151.208 Y118.566 E23.00591
G1 X151.565 Y119.434 E23.03713
G1 X151.847 Y120.328 E23.06831
G1 X152.051 Y121.244 E23.09952
G1 X152.177 Y122.173 E23.1307
G1 X152.223 Y123.11 E23.16191
G1 X152.189 Y124.047 E23.19309
G1 X152.096 Y124.845 E23.21981
G1 X151.985 Y125.555 E23.24371
G1 X149.469 Y139.824 E23.72562
G1 X149.047 Y142.431 E23.81346
G1 X148.631 Y145.583 E23.91921
G1 X148.469 Y146.507 E23.95041
G1 X148.229 Y147.414 E23.98161
G1 X147.912 Y148.297 E24.01282
G1 X147.521 Y149.149 E24.044
G1 X147.059 Y149.965 E24.07519
G1 X146.53 Y150.739 E24.10637
G1 X145.936 Y151.465 E24.13757
G1 X145.073 Y152.331 E24.17823
G1 X144.956 Y152.436 E24.18346
G1 X144.232 Y153.032 E24.21465
G1 X143.46 Y153.564 E24.24583
G1 X142.645 Y154.029 E24.27704
G1 X141.794 Y154.422 E24.30822
G1 X140.912 Y154.741 E24.33941
G1 X140.006 Y154.985 E24.37062
G1 X139.083 Y155.15 E24.40181
G1 X137.784 Y155.248 E24.44513
G1 X136.793 Y155.262 E24.4781
G1 X112.657 Y155.262 E25.28086
G1 X110.049 Y155.299 E25.36761
G1 X107.541 Y155.405 E25.45111
G1 X104.563 Y155.621 E25.55041
G1 X103.626 Y155.649 E25.58159
G1 X102.689 Y155.597 E25.61281
G1 X101.761 Y155.465 E25.64398
G1 X100.93 Y155.279 E25.6723
G1 X100.031 Y155.011 E25.70351
G1 X99.158 Y154.668 E25.7347
G1 X98.318 Y154.252 E25.76588
G1 X97.516 Y153.766 E25.79707
G1 X96.758 Y153.213 E25.82828
G1 X96.05 Y152.598 E25.85947
G1 X95.397 Y151.924 E25.89068
G1 X94.804 Y151.198 E25.92186
G1 X94.199 Y150.299 E25.9579
G1 X93.853 Y149.722 E25.98028
G1 X72.142 Y112.116 E27.42454
G1 X71.824 Y111.547 E27.44622
G1 X71.402 Y110.71 E27.4774
G1 X71.052 Y109.84 E27.50859
G1 X70.861 Y109.244 E27.5294
G1 X70.608 Y108.366 E27.5598
G1 X68.222 Y99.653 E27.86026
G1 X68.06 Y99.029 E27.8817
G1 X67.863 Y98.112 E27.9129
G1 X67.745 Y97.182 E27.94408
G1 X67.709 Y96.495 E27.96696
G1 X67.684 Y95.164 E28.01124
G1 X67.685 Y77.703 E28.59199
G0 F6000 X68.085 Y77.709
G1 F600 X68.095 Y77.007 E28.61534
G1 X68.148 Y76.088 E28.64596
G1 X68.281 Y75.177 E28.67658
G1 X68.492 Y74.281 E28.7072
G1 X68.78 Y73.406 E28.73784
G1 X69.143 Y72.56 E28.76845
G1 X69.578 Y71.749 E28.79906
G1 X70.082 Y70.978 E28.8297
G1 X70.65 Y70.254 E28.86031
G1 X71.075 Y69.788 E28.88128
G1 X71.722 Y69.125 E28.9121
G1 X72.43 Y68.432 E28.94505
G1 X73.116 Y67.817 E28.97569
G1 X73.852 Y67.264 E29.00631
G1 X74.633 Y66.777 E29.03692
G1 X75.453 Y66.359 E29.06753
G1 X76.307 Y66.015 E29.09816
G1 X77.188 Y65.746 E29.12879
G1 X78.088 Y65.554 E29.1594
G1 X79.002 Y65.441 E29.19003
G1 X79.642 Y65.409 E29.21135
G1 X80.366 Y65.397 E29.23543
G1 X100.388 Y65.396 E29.90136
G1 X101.324 Y65.413 E29.9325
G1 X102.242 Y65.473 E29.9631
G1 X103.152 Y65.612 E29.99372
G1 X104.047 Y65.829 E30.02435
G1 X104.919 Y66.123 E30.05495
G1 X105.763 Y66.492 E30.08559
G1 X106.571 Y66.932 E30.11619
G1 X107.339 Y67.441 E30.14684
G1 X108.059 Y68.015 E30.17746
G1 X108.42 Y68.344 E30.19371
G1 X108.962 Y68.869 E30.2188
G1 X109.795 Y69.715 E30.25829
G1 X110.412 Y70.398 E30.28891
G1 X110.967 Y71.133 E30.31954
G1 X111.457 Y71.913 E30.35018
G1 X111.979 Y72.964 E30.38921
G1 X113.262 Y75.866 E30.49474
G1 X114.346 Y78.131 E30.57826
G1 X115.496 Y80.372 E30.66203
G1 X116.717 Y82.592 E30.7463
G1 X117.998 Y84.772 E30.8304
G1 X119.34 Y86.916 E30.91453
G1 X120.738 Y89.015 E30.99841
G1 X122.21 Y91.095 E31.08316
G1 X123.729 Y93.118 E31.1673
G1 X125.274 Y95.058 E31.24979
G1 X126.943 Y97.037 E31.33589
G1 X128.602 Y98.892 E31.41867
G1 X130.35 Y100.743 E31.50334
G1 X132.137 Y102.528 E31.58735
G1 X133.992 Y104.28 E31.67222
G1 X135.848 Y105.936 E31.75495
G1 X137.805 Y107.587 E31.84011
G1 X139.77 Y109.15 E31.92362
G1 X141.793 Y110.668 E32.00774
G1 X143.871 Y112.138 E32.0924
G1 X145.989 Y113.547 E32.17701
G1 X146.814 Y114.075 E32.20959
G1 X147.567 Y114.605 E32.24021
G1 X148.272 Y115.198 E32.27085
G1 X148.922 Y115.849 E32.30145
G1 X149.513 Y116.555 E32.33207
G1 X149.951 Y117.165 E32.35705
G1 X150.44 Y117.945 E32.38767
G1 X150.859 Y118.765 E32.4183
G1 X151.206 Y119.618 E32.44893
G1 X151.478 Y120.497 E32.47953
G1 X151.672 Y121.397 E32.51015
G1 X151.787 Y122.311 E32.54079
G1 X151.823 Y123.231 E32.57141
G1 X151.779 Y124.15 E32.60201
G1 X151.701 Y124.784 E32.62326
G1 X151.591 Y125.486 E32.64689
G1 X149.073 Y139.769 E33.12927
G1 X148.655 Y142.347 E33.21614
G1 X148.235 Y145.531 E33.32296
G1 X148.075 Y146.438 E33.35359
G1 X147.837 Y147.327 E33.3842
G1 X147.522 Y148.192 E33.41482
G1 X147.134 Y149.027 E33.44544
G1 X146.675 Y149.825 E33.47606
G1 X146.148 Y150.58 E33.50668
G1 X145.558 Y151.287 E33.53731
G1 X144.806 Y152.033 E33.57254
G1 X144.689 Y152.138 E33.57777
G1 X143.978 Y152.723 E33.60839
G1 X143.218 Y153.243 E33.63902
G1 X142.417 Y153.696 E33.66963
G1 X141.579 Y154.078 E33.70026
G1 X140.711 Y154.385 E33.73088
G1 X139.82 Y154.616 E33.7615
G1 X138.912 Y154.769 E33.79212
G1 X137.778 Y154.848 E33.82993
G1 X136.793 Y154.862 E33.8627
G1 X112.651 Y154.862 E34.66566
G1 X110.026 Y154.899 E34.75298
G1 X107.529 Y155.005 E34.8361
G1 X104.534 Y155.222 E34.93598
G1 X103.614 Y155.249 E34.96659
G1 X102.695 Y155.195 E34.99721
G1 X101.784 Y155.063 E35.02783
G1 X101.028 Y154.891 E35.05361
G1 X100.145 Y154.627 E35.08427
G1 X99.289 Y154.289 E35.11488
G1 X98.466 Y153.877 E35.14549
G1 X97.681 Y153.395 E35.17613
G1 X96.941 Y152.847 E35.20675
G1 X96.252 Y152.237 E35.23736
G1 X95.618 Y151.57 E35.26797
G1 X95.044 Y150.85 E35.29859
G1 X94.541 Y150.092 E35.32885
G1 X94.199 Y149.522 E35.35096
G1 X72.491 Y111.921 E36.79503
G1 X72.173 Y111.352 E36.81671
G1 X71.759 Y110.53 E36.84732
G1 X71.418 Y109.675 E36.87794
G1 X71.245 Y109.132 E36.89689
G1 X70.994 Y108.261 E36.92704
