;FLAVOR:Marlin
;TIME:4798
;Filament used: 2.83343m
;Layer height: 0.2
;MINX:66.98
;MINY:64.134
;MINZ:0.2
;MAXX:153.117
;MAXY:156.565
;MAXZ:11
;Generated with Cura_SteamEngine 5.0.0
M140 S50
M105
M190 S50
M104 S200
M105
M109 S200
M82 ;absolute extrusion mode

G28 ;Home
;G29 ;Bed levelling

G92 E0 ;Reset Extruder
G1 Z2.0 F3000 ;Move Z Axis up
G1 X10.1 Y20 Z0.28 F5000.0 ;Move to start position
G1 X10.1 Y200.0 Z0.28 F1500.0 E15 ;Draw the first line
G1 X10.4 Y200.0 Z0.28 F5000.0 ;Move to side a little
G1 X10.4 Y20 Z0.28 F1500.0 E30 ;Draw the second line
G92 E0 ;Reset Extruder
G1 Z2.0 F3000 ;Move Z Axis up
G92 E0
G92 E0
G1 F2400 E-0.8
;LAYER_COUNT:55
;LAYER:0
M107
G1 F300 Z0.8
G0 F6000 X107.853 Y70.678 Z0.8
G1 F300 Z0.2
G0 F6000 X106.471 Y73.452
;TYPE:SKIRT
G1 F2400 E0
G1 F1200 X106.934 Y72.388 E0.03859
G1 X107.358 Y71.514 E0.0709
G1 X107.853 Y70.678 E0.10322
G1 X108.414 Y69.885 E0.13553
G1 X109.234 Y68.933 E0.17732
G1 X109.822 Y68.327 E0.2054
G1 X110.629 Y67.533 E0.24305
G1 X111.349 Y66.88 E0.27538
G1 X112.12 Y66.29 E0.30767
G1 X112.937 Y65.764 E0.33999
G1 X113.795 Y65.308 E0.37231
G1 X114.687 Y64.924 E0.40461
G1 X115.608 Y64.614 E0.43693
G1 X116.551 Y64.381 E0.46924
G1 X117.51 Y64.227 E0.50154
G1 X118.694 Y64.146 E0.54102
G1 X119.464 Y64.134 E0.56663
G1 X139.452 Y64.134 E1.23143
G1 X140.322 Y64.145 E1.26037
G1 X141.292 Y64.199 E1.29268
G1 X142.254 Y64.332 E1.32498
G1 X143.202 Y64.544 E1.35729
G1 X144.129 Y64.834 E1.3896
G1 X145.03 Y65.198 E1.42192
G1 X145.897 Y65.636 E1.45423
G1 X146.725 Y66.143 E1.48652
G1 X147.509 Y66.717 E1.51884
G1 X148.311 Y67.417 E1.55424
G1 X148.93 Y68.017 E1.58292
G1 X149.714 Y68.813 E1.62008
G1 X150.367 Y69.532 E1.65238
G1 X150.958 Y70.303 E1.68469
G1 X151.484 Y71.12 E1.71701
G1 X151.94 Y71.977 E1.7493
G1 X152.325 Y72.869 E1.78161
G1 X152.635 Y73.79 E1.81393
G1 X152.869 Y74.733 E1.84625
G1 X153.023 Y75.692 E1.87855
G1 X153.105 Y76.895 E1.91866
G1 X153.117 Y77.688 E1.94504
G1 X153.116 Y95.607 E2.54102
G1 X153.107 Y96.268 E2.56301
G1 X153.054 Y97.238 E2.59532
G1 X152.921 Y98.2 E2.62762
G1 X152.749 Y98.995 E2.65468
G1 X152.429 Y100.251 E2.69779
G1 X150.108 Y108.719 E2.98982
G1 X149.92 Y109.371 E3.01239
G1 X149.613 Y110.293 E3.04471
G1 X149.231 Y111.186 E3.07701
G1 X148.881 Y111.861 E3.1023
G1 X148.423 Y112.678 E3.13346
G1 X126.796 Y150.136 E4.57206
G1 X126.395 Y150.81 E4.59814
G1 X125.864 Y151.624 E4.63047
G1 X125.269 Y152.391 E4.66276
G1 X124.612 Y153.107 E4.69508
G1 X123.898 Y153.766 E4.72739
G1 X123.133 Y154.364 E4.75969
G1 X122.321 Y154.898 E4.79201
G1 X121.468 Y155.363 E4.82433
G1 X120.58 Y155.756 E4.85662
G1 X119.662 Y156.074 E4.88894
G1 X118.721 Y156.316 E4.92125
G1 X117.764 Y156.48 E4.95355
G1 X116.796 Y156.565 E4.98587
G1 X115.418 Y156.547 E5.0317
G1 X114.68 Y156.494 E5.05631
G1 X113.205 Y156.369 E5.10555
G1 X110.725 Y156.23 E5.18816
G1 X106.905 Y156.15 E5.31524
G1 X82.804 Y156.149 E6.11684
G1 X82.106 Y156.139 E6.14006
G1 X81.136 Y156.085 E6.17238
G1 X80.174 Y155.951 E6.20468
G1 X79.226 Y155.739 E6.23699
G1 X78.299 Y155.45 E6.26929
G1 X77.398 Y155.085 E6.30162
G1 X76.531 Y154.648 E6.33391
G1 X75.703 Y154.14 E6.36622
G1 X74.919 Y153.566 E6.39854
G1 X74.185 Y152.93 E6.43084
G1 X73.506 Y152.236 E6.46313
G1 X72.886 Y151.488 E6.49545
G1 X72.33 Y150.691 E6.52777
G1 X71.841 Y149.852 E6.56007
G1 X71.423 Y148.975 E6.59238
G1 X71.079 Y148.066 E6.62471
G1 X70.81 Y147.133 E6.657
G1 X70.619 Y146.18 E6.68933
G1 X70.551 Y145.681 E6.70608
G1 X70.468 Y144.958 E6.73028
G1 X70.143 Y142.438 E6.81479
G1 X69.684 Y139.567 E6.9115
G1 X67.237 Y125.672 E7.38076
G1 X67.124 Y124.956 E7.40487
G1 X67.012 Y123.991 E7.43718
G1 X66.98 Y123.02 E7.46949
G1 X67.028 Y122.05 E7.50179
G1 X67.156 Y121.087 E7.5341
G1 X67.362 Y120.137 E7.56644
G1 X67.646 Y119.208 E7.59875
G1 X68.005 Y118.306 E7.63104
G1 X68.437 Y117.436 E7.66334
G1 X69.103 Y116.364 E7.70532
G1 X69.223 Y116.192 E7.71229
G1 X69.811 Y115.419 E7.7446
G1 X70.46 Y114.697 E7.77689
G1 X71.167 Y114.031 E7.80919
G1 X71.927 Y113.425 E7.84152
G1 X72.383 Y113.107 E7.86001
G1 X73.181 Y112.58 E7.89182
G1 X74.151 Y111.958 E7.93014
G1 X76.229 Y110.544 E8.01374
G1 X78.248 Y109.083 E8.09663
G1 X80.212 Y107.577 E8.17895
G1 X82.168 Y105.987 E8.26279
G1 X84.049 Y104.366 E8.34538
G1 X85.898 Y102.681 E8.42858
G1 X87.681 Y100.959 E8.51103
G1 X89.45 Y99.152 E8.59513
G1 X91.128 Y97.339 E8.6773
G1 X92.762 Y95.47 E8.75987
G1 X94.375 Y93.518 E8.84409
G1 X95.883 Y91.582 E8.92571
G1 X97.363 Y89.566 E9.00889
G1 X98.787 Y87.508 E9.09213
G1 X100.164 Y85.393 E9.17607
G1 X101.434 Y83.315 E9.25707
G1 X102.697 Y81.112 E9.34153
G1 X103.867 Y78.929 E9.42391
G1 X104.976 Y76.713 E9.50633
G1 X106.471 Y73.452 E9.62564
G1 F2400 E8.82564
G0 F6000 X104.22 Y79.118
G1 F2400 E9.62564
G1 F1200 X105.329 Y76.901 E9.70809
G1 X106.853 Y73.578 E9.82968
G1 X107.301 Y72.548 E9.86704
G1 X107.718 Y71.689 E9.8988
G1 X108.206 Y70.868 E9.93057
G1 X108.761 Y70.091 E9.96232
G1 X109.523 Y69.21 E10.00107
G1 X110.103 Y68.612 E10.02877
G1 X110.91 Y67.818 E10.06643
G1 X111.618 Y67.177 E10.09819
G1 X112.377 Y66.598 E10.12995
G1 X113.182 Y66.085 E10.16169
G1 X114.027 Y65.64 E10.19346
G1 X114.906 Y65.268 E10.2252
G1 X115.814 Y64.971 E10.25698
G1 X116.743 Y64.751 E10.28873
G1 X117.687 Y64.609 E10.32048
G1 X118.701 Y64.546 E10.35427
G1 X119.464 Y64.534 E10.37965
G1 X139.452 Y64.534 E11.04446
G1 X140.316 Y64.545 E11.0732
G1 X141.27 Y64.599 E11.10498
G1 X142.215 Y64.732 E11.13672
G1 X143.146 Y64.944 E11.16848
G1 X144.056 Y65.233 E11.20023
G1 X144.939 Y65.597 E11.232
G1 X145.788 Y66.033 E11.26374
G1 X146.597 Y66.54 E11.2955
G1 X147.362 Y67.112 E11.32727
G1 X148.034 Y67.706 E11.3571
G1 X148.645 Y68.297 E11.38537
G1 X149.429 Y69.093 E11.42253
G1 X150.07 Y69.801 E11.4543
G1 X150.649 Y70.56 E11.48605
G1 X151.163 Y71.365 E11.51782
G1 X151.608 Y72.21 E11.54958
G1 X151.981 Y73.089 E11.58134
G1 X152.278 Y73.996 E11.61308
G1 X152.499 Y74.925 E11.64484
G1 X152.641 Y75.869 E11.67659
G1 X152.705 Y76.901 E11.71098
G1 X152.717 Y77.688 E11.73716
G1 X152.716 Y95.601 E12.33295
G1 X152.707 Y96.262 E12.35494
G1 X152.654 Y97.216 E12.38672
G1 X152.521 Y98.161 E12.41846
G1 X152.361 Y98.897 E12.44351
G1 X152.044 Y100.146 E12.48637
G1 X149.724 Y108.608 E12.7782
G1 X149.536 Y109.26 E12.80077
G1 X149.233 Y110.166 E12.83255
G1 X148.856 Y111.043 E12.8643
G1 X148.532 Y111.666 E12.88765
G1 X148.077 Y112.478 E12.91861
G1 X126.452 Y149.932 E14.35706
G1 X126.051 Y150.606 E14.38315
G1 X125.529 Y151.405 E14.41489
G1 X124.942 Y152.158 E14.44665
G1 X124.294 Y152.859 E14.4784
G1 X123.589 Y153.504 E14.51018
G1 X122.833 Y154.087 E14.54193
G1 X122.031 Y154.605 E14.57369
G1 X121.189 Y155.054 E14.60543
G1 X120.311 Y155.431 E14.63721
G1 X119.406 Y155.733 E14.66894
G1 X118.478 Y155.958 E14.7007
G1 X117.534 Y156.105 E14.73247
G1 X116.582 Y156.172 E14.76422
G1 X115.446 Y156.148 E14.80201
G1 X114.714 Y156.095 E14.82642
G1 X113.228 Y155.969 E14.87602
G1 X110.755 Y155.831 E14.9584
G1 X106.914 Y155.75 E15.08618
G1 X82.81 Y155.749 E15.88788
G1 X82.112 Y155.739 E15.9111
G1 X81.158 Y155.685 E15.94288
G1 X80.213 Y155.552 E15.97462
G1 X79.282 Y155.34 E16.00638
G1 X78.372 Y155.051 E16.03814
G1 X77.489 Y154.687 E16.0699
G1 X76.64 Y154.25 E16.10166
G1 X75.831 Y153.744 E16.1334
G1 X75.067 Y153.172 E16.16514
G1 X74.353 Y152.538 E16.1969
G1 X73.695 Y151.846 E16.22866
G1 X73.097 Y151.102 E16.26041
G1 X72.563 Y150.31 E16.29218
G1 X72.098 Y149.476 E16.32394
G1 X71.703 Y148.607 E16.35569
G1 X71.384 Y147.707 E16.38745
G1 X71.14 Y146.784 E16.4192
G1 X70.949 Y145.636 E16.45791
G1 X70.868 Y144.929 E16.48158
G1 X70.54 Y142.389 E16.56676
G1 X70.079 Y139.501 E16.66403
G1 X67.632 Y125.609 E17.13319
G1 X67.519 Y124.893 E17.1573
G1 X67.41 Y123.945 E17.18904
G1 X67.381 Y122.99 E17.22082
G1 X67.431 Y122.037 E17.25256
G1 X67.561 Y121.091 E17.28432
G1 X67.77 Y120.159 E17.31609
G1 X68.056 Y119.248 E17.34785
G1 X68.417 Y118.365 E17.37957
G1 X68.851 Y117.514 E17.41135
G1 X69.431 Y116.593 E17.44755
G1 X69.551 Y116.421 E17.45452
G1 X70.129 Y115.662 E17.48625
G1 X70.769 Y114.953 E17.51802
G1 X71.466 Y114.301 E17.54977
G1 X72.603 Y113.441 E17.59718
G1 X73.397 Y112.916 E17.62884
G1 X74.387 Y112.281 E17.66796
G1 X76.467 Y110.865 E17.75165
G1 X78.486 Y109.405 E17.83452
G1 X80.462 Y107.89 E17.91734
G1 X82.415 Y106.302 E18.00106
G1 X84.334 Y104.648 E18.08532
G1 X86.144 Y102.998 E18.16678
G1 X87.979 Y101.227 E18.2516
G1 X89.729 Y99.44 E18.33479
G1 X91.423 Y97.609 E18.41776
G1 X93.07 Y95.724 E18.50101
G1 X94.682 Y93.773 E18.58519
G1 X96.205 Y91.819 E18.66759
G1 X97.698 Y89.785 E18.75151
G1 X99.124 Y87.724 E18.83486
G1 X100.481 Y85.639 E18.9176
G1 X101.789 Y83.501 E19.00097
G1 X103.054 Y81.294 E19.08557
G1 X104.22 Y79.118 E19.16768
G1 F2400 E18.36768
G0 F6000 X102.15 Y83.677
G1 F2400 E19.16768
G1 F1200 X103.381 Y81.529 E19.25003
G1 X104.587 Y79.279 E19.33493
G1 X105.692 Y77.071 E19.41706
G1 X107.207 Y73.766 E19.53798
G1 X107.668 Y72.707 E19.5764
G1 X108.078 Y71.864 E19.60757
G1 X108.559 Y71.059 E19.63876
G1 X109.107 Y70.298 E19.66995
G1 X109.812 Y69.487 E19.7057
G1 X110.383 Y68.897 E19.733
G1 X111.19 Y68.103 E19.77066
G1 X111.886 Y67.474 E19.80186
G1 X112.633 Y66.907 E19.83305
G1 X113.426 Y66.406 E19.86425
G1 X114.258 Y65.974 E19.89543
G1 X115.124 Y65.614 E19.92662
G1 X116.018 Y65.33 E19.95782
G1 X116.933 Y65.122 E19.98903
G1 X117.862 Y64.994 E20.02022
G1 X118.708 Y64.946 E20.04841
G1 X119.464 Y64.934 E20.07355
G1 X139.452 Y64.934 E20.73836
G1 X140.311 Y64.945 E20.76693
G1 X141.247 Y64.998 E20.79811
G1 X142.175 Y65.131 E20.82929
G1 X143.089 Y65.343 E20.8605
G1 X143.982 Y65.631 E20.89171
G1 X144.846 Y65.995 E20.92289
G1 X145.677 Y66.431 E20.9541
G1 X146.467 Y66.936 E20.98529
G1 X147.211 Y67.506 E21.01646
G1 X147.758 Y67.995 E21.04086
G1 X148.36 Y68.578 E21.06874
G1 X149.144 Y69.374 E21.1059
G1 X149.773 Y70.07 E21.1371
G1 X150.341 Y70.816 E21.16828
G1 X150.842 Y71.609 E21.19948
G1 X151.275 Y72.441 E21.23068
G1 X151.635 Y73.307 E21.26187
G1 X151.92 Y74.201 E21.29308
G1 X152.128 Y75.115 E21.32426
G1 X152.257 Y76.044 E21.35545
G1 X152.305 Y76.908 E21.38423
G1 X152.317 Y77.688 E21.41018
G1 X152.316 Y95.596 E22.0058
G1 X152.307 Y96.257 E22.02779
G1 X152.254 Y97.193 E22.05897
G1 X152.122 Y98.122 E22.09018
G1 X151.973 Y98.799 E22.11323
G1 X151.658 Y100.04 E22.15582
G1 X149.339 Y108.498 E22.44752
G1 X149.151 Y109.15 E22.47008
G1 X148.853 Y110.039 E22.50127
G1 X148.481 Y110.9 E22.53247
G1 X148.183 Y111.471 E22.55389
G1 X147.73 Y112.278 E22.58467
G1 X126.108 Y149.727 E24.02293
G1 X125.707 Y150.401 E24.04901
G1 X125.194 Y151.186 E24.0802
G1 X124.615 Y151.924 E24.1114
G1 X123.976 Y152.611 E24.14261
G1 X123.281 Y153.24 E24.17379
G1 X122.534 Y153.808 E24.205
G1 X121.742 Y154.31 E24.23619
G1 X120.91 Y154.743 E24.26738
G1 X120.044 Y155.103 E24.29857
G1 X119.151 Y155.389 E24.32976
G1 X118.237 Y155.597 E24.36094
G1 X117.308 Y155.726 E24.39213
G1 X116.371 Y155.776 E24.42334
G1 X115.474 Y155.749 E24.45319
G1 X114.748 Y155.697 E24.4774
G1 X113.249 Y155.57 E24.52743
G1 X110.787 Y155.432 E24.60945
G1 X106.874 Y155.35 E24.73963
G1 X82.815 Y155.349 E25.53983
G1 X82.117 Y155.339 E25.56305
G1 X81.181 Y155.285 E25.59423
G1 X80.253 Y155.153 E25.62541
G1 X79.339 Y154.941 E25.65662
G1 X78.447 Y154.652 E25.6878
G1 X77.582 Y154.289 E25.719
G1 X76.752 Y153.853 E25.75019
G1 X75.961 Y153.348 E25.7814
G1 X75.217 Y152.777 E25.81259
G1 X74.524 Y152.145 E25.84379
G1 X73.887 Y151.457 E25.87497
G1 X73.312 Y150.716 E25.90617
G1 X72.801 Y149.93 E25.93735
G1 X72.359 Y149.102 E25.96857
G1 X71.99 Y148.24 E25.99975
G1 X71.695 Y147.35 E26.03094
G1 X71.477 Y146.438 E26.06213
G1 X71.346 Y145.59 E26.09067
G1 X71.268 Y144.907 E26.11353
G1 X70.933 Y142.309 E26.20065
G1 X70.471 Y139.424 E26.29783
G1 X68.027 Y125.547 E26.76649
G1 X67.914 Y124.831 E26.7906
G1 X67.808 Y123.899 E26.82179
G1 X67.781 Y122.962 E26.85297
G1 X67.834 Y122.025 E26.88419
G1 X67.967 Y121.097 E26.91537
G1 X68.178 Y120.183 E26.94657
G1 X68.467 Y119.291 E26.97775
G1 X68.83 Y118.426 E27.00895
G1 X69.266 Y117.595 E27.04017
G1 X69.759 Y116.822 E27.07066
G1 X69.879 Y116.65 E27.07764
G1 X70.448 Y115.904 E27.10884
G1 X71.078 Y115.21 E27.14002
G1 X71.765 Y114.572 E27.1712
G1 X72.824 Y113.774 E27.2153
G1 X73.613 Y113.253 E27.24675
G1 X74.606 Y112.616 E27.28599
G1 X76.68 Y111.204 E27.36944
G1 X78.718 Y109.73 E27.45309
G1 X80.729 Y108.188 E27.53738
G1 X82.666 Y106.614 E27.62039
G1 X84.581 Y104.963 E27.70449
G1 X86.445 Y103.264 E27.78838
G1 X88.243 Y101.529 E27.87148
G1 X90.043 Y99.69 E27.95707
G1 X91.702 Y97.898 E28.03829
G1 X93.397 Y95.958 E28.12397
G1 X94.978 Y94.045 E28.20652
G1 X96.54 Y92.039 E28.29108
G1 X98.005 Y90.044 E28.3734
G1 X99.455 Y87.948 E28.45817
G1 X100.824 Y85.845 E28.54163
G1 X102.15 Y83.677 E28.62616
G1 F2400 E27.82616
G0 F6000 X99.776 Y88.188
G1 F2400 E28.62616
G1 F1200 X101.184 Y86.025 E28.712
G1 X102.48 Y83.905 E28.79464
G1 X103.738 Y81.711 E28.87876
G1 X104.94 Y79.468 E28.9634
G1 X106.044 Y77.262 E29.04545
G1 X107.589 Y73.892 E29.16875
G1 X108.035 Y72.867 E29.20593
G1 X108.438 Y72.04 E29.23653
G1 X108.912 Y71.25 E29.26717
G1 X109.453 Y70.505 E29.29779
G1 X110.1 Y69.763 E29.33054
G1 X110.664 Y69.182 E29.35747
G1 X111.471 Y68.388 E29.39512
G1 X112.154 Y67.771 E29.42574
G1 X112.889 Y67.217 E29.45635
G1 X113.669 Y66.727 E29.48699
G1 X114.489 Y66.308 E29.51761
G1 X115.341 Y65.961 E29.54821
G1 X116.221 Y65.689 E29.57885
G1 X117.121 Y65.495 E29.60947
G1 X118.034 Y65.38 E29.64007
G1 X118.715 Y65.346 E29.66275
G1 X119.464 Y65.334 E29.68767
G1 X139.452 Y65.334 E30.35247
G1 X140.305 Y65.345 E30.38085
G1 X141.224 Y65.398 E30.41146
G1 X142.135 Y65.531 E30.44208
G1 X143.031 Y65.742 E30.4727
G1 X143.906 Y66.03 E30.50334
G1 X144.752 Y66.393 E30.53396
G1 X145.563 Y66.828 E30.56457
G1 X146.334 Y67.332 E30.5952
G1 X147.058 Y67.9 E30.62581
G1 X147.481 Y68.284 E30.64481
G1 X148.075 Y68.859 E30.67231
G1 X148.859 Y69.655 E30.70947
G1 X149.476 Y70.338 E30.74008
G1 X150.031 Y71.072 E30.77069
G1 X150.521 Y71.852 E30.80132
G1 X150.941 Y72.671 E30.83194
G1 X151.288 Y73.524 E30.86257
G1 X151.56 Y74.404 E30.8932
G1 X151.755 Y75.303 E30.9238
G1 X151.871 Y76.217 E30.95444
G1 X151.906 Y76.915 E30.97769
G1 X151.917 Y77.688 E31.0034
G1 X151.916 Y95.59 E31.59882
G1 X151.907 Y96.251 E31.62081
G1 X151.855 Y97.17 E31.65142
G1 X151.722 Y98.082 E31.68208
G1 X151.586 Y98.701 E31.70316
G1 X151.272 Y99.934 E31.74548
G1 X148.955 Y108.387 E32.03699
G1 X148.767 Y109.039 E32.05956
G1 X148.474 Y109.911 E32.09016
G1 X148.106 Y110.755 E32.12078
G1 X147.834 Y111.275 E32.1403
G1 X147.384 Y112.078 E32.17092
G1 X125.765 Y149.523 E33.60901
G1 X125.364 Y150.197 E33.6351
G1 X124.859 Y150.967 E33.66572
G1 X124.289 Y151.69 E33.69635
G1 X123.659 Y152.361 E33.72696
G1 X122.973 Y152.975 E33.75758
G1 X122.236 Y153.527 E33.78821
G1 X121.455 Y154.014 E33.81882
G1 X120.634 Y154.43 E33.84943
G1 X119.779 Y154.774 E33.88008
G1 X118.899 Y155.042 E33.91068
G1 X117.998 Y155.233 E33.94131
G1 X117.084 Y155.344 E33.97194
G1 X116.164 Y155.377 E34.00255
G1 X115.503 Y155.35 E34.02456
G1 X114.781 Y155.298 E34.04863
G1 X113.268 Y155.17 E34.09914
G1 X110.817 Y155.033 E34.18078
G1 X106.883 Y154.95 E34.31166
G1 X82.821 Y154.949 E35.11196
G1 X82.123 Y154.939 E35.13518
G1 X81.204 Y154.886 E35.1658
G1 X80.293 Y154.753 E35.19642
G1 X79.397 Y154.542 E35.22704
G1 X78.523 Y154.254 E35.25764
G1 X77.676 Y153.891 E35.28829
G1 X76.865 Y153.456 E35.3189
G1 X76.095 Y152.952 E35.34951
G1 X75.371 Y152.383 E35.38014
G1 X74.699 Y151.753 E35.41077
G1 X74.084 Y151.068 E35.44139
G1 X73.531 Y150.332 E35.47201
G1 X73.044 Y149.551 E35.50262
G1 X72.627 Y148.73 E35.53325
G1 X72.282 Y147.876 E35.56389
G1 X72.013 Y146.996 E35.59449
G1 X71.821 Y146.095 E35.62513
G1 X71.744 Y145.545 E35.6436
G1 X71.668 Y144.877 E35.66596
G1 X71.33 Y142.26 E35.75373
G1 X70.866 Y139.357 E35.85151
G1 X68.423 Y125.484 E36.32003
G1 X68.31 Y124.768 E36.34414
G1 X68.206 Y123.854 E36.37473
G1 X68.182 Y122.933 E36.40537
G1 X68.237 Y122.014 E36.436
G1 X68.373 Y121.104 E36.4666
G1 X68.587 Y120.208 E36.49724
G1 X68.877 Y119.335 E36.52783
G1 X69.243 Y118.49 E36.55846
G1 X69.68 Y117.68 E36.58907
G1 X70.087 Y117.051 E36.61399
G1 X70.207 Y116.879 E36.62097
G1 X70.766 Y116.147 E36.6516
G1 X71.386 Y115.467 E36.68221
