;FLAVOR:Marlin
;TIME:17195
;Filament used: 10.6713m
;Layer height: 0.2
;MINX:21.485
;MINY:15.932
;MINZ:0.2
;MAXX:198.515
;MAXY:204.068
;MAXZ:2.6
;Generated with Cura_SteamEngine 5.0.0
M140 S50
M105
M190 S50
M104 S200
M105
M109 S200
M82 ;absolute extrusion mode

G28 ;Home
;G29 ;Bed levelling

G92 E0 ;Reset Extruder
G1 Z2.0 F3000 ;Move Z Axis up
G1 X10.1 Y20 Z0.28 F5000.0 ;Move to start position
G1 X10.1 Y200.0 Z0.28 F1500.0 E15 ;Draw the first line
G1 X10.4 Y200.0 Z0.28 F5000.0 ;Move to side a little
G1 X10.4 Y20 Z0.28 F1500.0 E30 ;Draw the second line
G92 E0 ;Reset Extruder
G1 Z2.0 F3000 ;Move Z Axis up
G92 E0
G92 E0
G1 F2400 E-0.8
;LAYER_COUNT:10
;LAYER:0
M107
G1 F300 Z0.8
G0 F6000 X67.232 Y24.762 Z0.8
G1 F300 Z0.2
G0 F6000 X66.533 Y29.271
;TYPE:SKIRT
G1 F2400 E0
G1 F600 X66.543 Y28.569 E0.02335
G1 X66.597 Y27.599 E0.05566
G1 X66.73 Y26.637 E0.08796
G1 X66.942 Y25.689 E0.12027
G1 X67.232 Y24.762 E0.15258
G1 X67.596 Y23.861 E0.1849
G1 X68.034 Y22.994 E0.21721
G1 X68.541 Y22.166 E0.2495
G1 X69.115 Y21.382 E0.28182
G1 X69.818 Y20.577 E0.31736
G1 X70.424 Y19.953 E0.34629
G1 X71.082 Y19.309 E0.37692
G1 X71.804 Y18.659 E0.40923
G1 X72.577 Y18.07 E0.44155
G1 X73.395 Y17.547 E0.47384
G1 X74.254 Y17.093 E0.50616
G1 X75.147 Y16.711 E0.53846
G1 X76.068 Y16.403 E0.57076
G1 X77.012 Y16.173 E0.60308
G1 X77.972 Y16.021 E0.63541
G1 X79.125 Y15.944 E0.67384
G1 X79.894 Y15.932 E0.69942
G1 X173.325 Y15.932 E3.80695
G1 X174.195 Y15.943 E3.83589
G1 X175.165 Y15.997 E3.8682
G1 X176.127 Y16.13 E3.9005
G1 X177.075 Y16.342 E3.93281
G1 X178.002 Y16.632 E3.96512
G1 X178.903 Y16.996 E3.99744
G1 X179.77 Y17.434 E4.02974
G1 X180.598 Y17.941 E4.06204
G1 X181.382 Y18.515 E4.09435
G1 X182.166 Y19.198 E4.12894
G1 X182.767 Y19.78 E4.15676
G1 X183.433 Y20.459 E4.1884
G1 X184.084 Y21.18 E4.22071
G1 X184.674 Y21.952 E4.25302
G1 X185.198 Y22.77 E4.28533
G1 X185.653 Y23.628 E4.31764
G1 X186.036 Y24.521 E4.34995
G1 X186.344 Y25.442 E4.38225
G1 X186.575 Y26.386 E4.41458
G1 X186.738 Y27.427 E4.44962
G1 X186.756 Y27.59 E4.45508
G1 X186.827 Y28.858 E4.49732
G1 X186.832 Y30.933 E4.56633
G1 X186.869 Y33.558 E4.65365
G1 X186.974 Y36.031 E4.73598
G1 X187.15 Y38.519 E4.81893
G1 X187.394 Y40.973 E4.90096
G1 X187.715 Y43.482 E4.98509
G1 X188.103 Y45.952 E5.06825
G1 X188.552 Y48.368 E5.14998
G1 X189.079 Y50.825 E5.23356
G1 X189.677 Y53.26 E5.31695
G1 X190.336 Y55.654 E5.39954
G1 X191.061 Y58.022 E5.48191
G1 X191.859 Y60.387 E5.56492
G1 X193.097 Y63.696 E5.68243
G1 X193.399 Y64.619 E5.71473
G1 X193.625 Y65.564 E5.74705
G1 X193.716 Y66.089 E5.76477
G1 X193.812 Y66.731 E5.78636
G1 X194.231 Y69.276 E5.87215
G1 X194.699 Y71.69 E5.95393
G1 X195.248 Y74.15 E6.03777
G1 X195.849 Y76.529 E6.11938
G1 X196.541 Y78.966 E6.20364
G1 X197.292 Y81.355 E6.28693
G1 X197.625 Y82.323 E6.32098
G1 X197.912 Y83.194 E6.35148
G1 X198.178 Y84.128 E6.38378
G1 X198.366 Y85.081 E6.41609
G1 X198.475 Y86.047 E6.44842
G1 X198.503 Y86.676 E6.46936
G1 X198.515 Y87.445 E6.49494
G1 X198.512 Y104.869 E7.07447
G1 X198.497 Y105.597 E7.09869
G1 X198.438 Y106.567 E7.13101
G1 X198.237 Y107.833 E7.17364
G1 X197.994 Y108.965 E7.21215
G1 X197.488 Y111.49 E7.2978
G1 X197.07 Y113.922 E7.37988
G1 X196.717 Y116.409 E7.46342
G1 X196.436 Y118.888 E7.5464
G1 X196.224 Y121.389 E7.62989
G1 X196.083 Y123.87 E7.71254
G1 X196.037 Y124.914 E7.74729
G1 X195.954 Y125.882 E7.77961
G1 X195.783 Y126.881 E7.81332
G1 X195.521 Y128.097 E7.85469
G1 X195.011 Y130.64 E7.94096
G1 X194.591 Y133.094 E8.02376
G1 X194.239 Y135.572 E8.10701
G1 X193.957 Y138.052 E8.19003
G1 X193.746 Y140.546 E8.27327
G1 X193.607 Y142.991 E8.35472
G1 X193.526 Y146.858 E8.48337
G1 X193.525 Y163.889 E9.04982
G1 X193.515 Y164.591 E9.07317
G1 X193.461 Y165.561 E9.10549
G1 X193.328 Y166.523 E9.13779
G1 X193.116 Y167.471 E9.1701
G1 X192.826 Y168.398 E9.2024
G1 X192.462 Y169.299 E9.23472
G1 X192.024 Y170.166 E9.26703
G1 X191.517 Y170.994 E9.29932
G1 X190.943 Y171.778 E9.33164
G1 X190.248 Y172.574 E9.36679
G1 X189.644 Y173.196 E9.39562
G1 X188.97 Y173.855 E9.42698
G1 X188.249 Y174.505 E9.45926
G1 X187.476 Y175.094 E9.49159
G1 X186.657 Y175.616 E9.52389
G1 X185.798 Y176.07 E9.5562
G1 X184.905 Y176.451 E9.58849
G1 X183.983 Y176.758 E9.62082
G1 X183.039 Y176.988 E9.65313
G1 X182.08 Y177.14 E9.68543
G1 X180.933 Y177.216 E9.72366
G1 X180.164 Y177.228 E9.74924
G1 X131.725 Y177.228 E11.36033
G1 X129.116 Y177.265 E11.44711
G1 X126.638 Y177.37 E11.5296
G1 X124.155 Y177.546 E11.6124
G1 X121.699 Y177.79 E11.69449
G1 X119.19 Y178.111 E11.77862
G1 X116.72 Y178.499 E11.86178
G1 X114.304 Y178.948 E11.94351
G1 X111.847 Y179.475 E12.02709
G1 X109.412 Y180.073 E12.11048
G1 X107.018 Y180.732 E12.19307
G1 X104.65 Y181.457 E12.27544
G1 X102.236 Y182.272 E12.36018
G1 X99.931 Y183.121 E12.44188
G1 X97.599 Y184.058 E12.52547
G1 X95.349 Y185.036 E12.60707
G1 X93.047 Y186.117 E12.69165
G1 X90.848 Y187.224 E12.77354
G1 X88.582 Y188.447 E12.85918
G1 X87.529 Y189.044 E12.89944
G1 X69.378 Y199.523 E13.59653
G1 X68.787 Y199.853 E13.61905
G1 X67.92 Y200.291 E13.65135
G1 X67.02 Y200.656 E13.68366
G1 X66.32 Y200.883 E13.70813
G1 X65.436 Y201.138 E13.73873
G1 X56.831 Y203.493 E14.03546
G1 X56.161 Y203.667 E14.05848
G1 X55.212 Y203.872 E14.09078
G1 X54.249 Y203.999 E14.12308
G1 X53.439 Y204.043 E14.15006
G1 X52.133 Y204.068 E14.19351
G1 X34.824 Y204.067 E14.76921
G1 X34.122 Y204.057 E14.79256
G1 X33.152 Y204.003 E14.82487
G1 X32.19 Y203.87 E14.85717
G1 X31.242 Y203.658 E14.88948
G1 X30.315 Y203.368 E14.92179
G1 X29.414 Y203.004 E14.95411
G1 X28.547 Y202.566 E14.98641
G1 X27.719 Y202.059 E15.01871
G1 X26.935 Y201.485 E15.05102
G1 X26.132 Y200.784 E15.08648
G1 X25.504 Y200.174 E15.1156
G1 X24.856 Y199.511 E15.14643
G1 X24.206 Y198.789 E15.17874
G1 X23.618 Y198.016 E15.21105
G1 X23.096 Y197.197 E15.24335
G1 X22.642 Y196.338 E15.27566
G1 X22.261 Y195.445 E15.30796
G1 X21.954 Y194.523 E15.34028
G1 X21.724 Y193.579 E15.37259
G1 X21.573 Y192.619 E15.40491
G1 X21.497 Y191.475 E15.44305
G1 X21.485 Y190.706 E15.46863
G1 X21.486 Y170.857 E16.12881
G1 X21.496 Y170.155 E16.15216
G1 X21.55 Y169.185 E16.18447
G1 X21.683 Y168.223 E16.21677
G1 X21.895 Y167.275 E16.24908
G1 X22.185 Y166.348 E16.28139
G1 X22.549 Y165.447 E16.31371
G1 X22.987 Y164.58 E16.34602
G1 X23.494 Y163.752 E16.37831
G1 X24.068 Y162.968 E16.41063
G1 X24.763 Y162.171 E16.4458
G1 X25.367 Y161.55 E16.47461
G1 X26.047 Y160.885 E16.50624
G1 X26.769 Y160.235 E16.53856
G1 X27.354 Y159.78 E16.56321
G1 X28.836 Y158.702 E16.62416
G1 X30.878 Y157.151 E16.70945
G1 X32.814 Y155.595 E16.79206
G1 X34.728 Y153.966 E16.87565
G1 X36.558 Y152.314 E16.95765
G1 X38.403 Y150.553 E17.04248
G1 X40.12 Y148.819 E17.12364
G1 X41.854 Y146.966 E17.20805
G1 X43.476 Y145.129 E17.28956
G1 X45.095 Y143.19 E17.37357
G1 X46.627 Y141.246 E17.4559
G1 X48.125 Y139.228 E17.53949
G1 X49.545 Y137.199 E17.62186
G1 X50.935 Y135.088 E17.70592
G1 X52.23 Y132.995 E17.78778
G1 X53.479 Y130.842 E17.87057
G1 X54.683 Y128.625 E17.95448
G1 X55.803 Y126.417 E18.03683
G1 X56.861 Y124.174 E18.11931
G1 X57.875 Y121.856 E18.20346
G1 X58.803 Y119.564 E18.28571
G1 X59.672 Y117.228 E18.3686
G1 X60.483 Y114.842 E18.45242
G1 X61.22 Y112.458 E18.53542
G1 X61.877 Y110.094 E18.61702
G1 X62.492 Y107.608 E18.7022
G1 X63.01 Y105.235 E18.78299
G1 X63.477 Y102.755 E18.86692
G1 X63.868 Y100.305 E18.94944
G1 X64.193 Y97.812 E19.03306
G1 X64.443 Y95.36 E19.11503
G1 X64.627 Y92.846 E19.19887
G1 X64.739 Y90.379 E19.28101
G1 X64.782 Y87.533 E19.37568
G1 X64.783 Y73.024 E19.85825
G1 X64.794 Y72.317 E19.88177
G1 X64.85 Y71.348 E19.91405
G1 X64.965 Y70.493 E19.94275
G1 X65.467 Y67.588 E20.0408
G1 X65.818 Y65.116 E20.12384
G1 X66.102 Y62.61 E20.20773
G1 X66.311 Y60.156 E20.28964
G1 X66.449 Y57.705 E20.37129
G1 X66.532 Y53.818 E20.5006
G1 X66.533 Y29.271 E21.31704
G0 F6000 X66.933 Y29.277
G1 F600 X66.943 Y28.575 E21.34039
G1 X66.997 Y27.621 E21.37217
G1 X67.13 Y26.676 E21.40391
G1 X67.342 Y25.745 E21.43567
G1 X67.631 Y24.835 E21.46743
G1 X67.995 Y23.952 E21.49919
G1 X68.431 Y23.103 E21.53094
G1 X68.938 Y22.294 E21.56269
G1 X69.51 Y21.529 E21.59446
G1 X70.107 Y20.854 E21.62443
G1 X70.704 Y20.239 E21.65294
G1 X71.362 Y19.595 E21.68356
G1 X72.072 Y18.956 E21.71533
G1 X72.833 Y18.379 E21.7471
G1 X73.639 Y17.868 E21.77884
G1 X74.485 Y17.426 E21.81059
G1 X75.365 Y17.056 E21.84234
G1 X76.273 Y16.761 E21.87409
G1 X77.203 Y16.543 E21.90586
G1 X78.148 Y16.404 E21.93763
G1 X79.132 Y16.344 E21.97042
G1 X79.894 Y16.332 E21.99577
G1 X173.325 Y16.332 E25.10329
G1 X174.189 Y16.343 E25.13203
G1 X175.143 Y16.397 E25.16381
G1 X176.088 Y16.53 E25.19555
G1 X177.019 Y16.742 E25.22731
G1 X177.929 Y17.031 E25.25907
G1 X178.812 Y17.395 E25.29084
G1 X179.661 Y17.831 E25.32258
G1 X180.47 Y18.338 E25.35433
G1 X181.235 Y18.91 E25.3861
G1 X181.89 Y19.487 E25.41514
G1 X182.482 Y20.06 E25.44254
G1 X183.148 Y20.739 E25.47417
G1 X183.787 Y21.448 E25.50592
G1 X184.365 Y22.208 E25.53768
G1 X184.877 Y23.014 E25.56944
G1 X185.32 Y23.86 E25.6012
G1 X185.691 Y24.74 E25.63296
G1 X185.987 Y25.648 E25.66473
G1 X186.205 Y26.577 E25.69646
G1 X186.34 Y27.471 E25.72654
G1 X186.358 Y27.634 E25.73199
G1 X186.427 Y28.859 E25.7728
G1 X186.432 Y30.94 E25.84201
G1 X186.469 Y33.545 E25.92866
G1 X186.576 Y36.078 E26.01299
G1 X186.751 Y38.548 E26.09535
G1 X186.997 Y41.027 E26.1782
G1 X187.317 Y43.528 E26.26206
G1 X187.708 Y46.016 E26.34583
G1 X188.168 Y48.488 E26.42946
G1 X188.678 Y50.868 E26.51042
G1 X189.289 Y53.355 E26.5956
G1 X189.954 Y55.772 E26.67897
G1 X190.686 Y58.161 E26.76208
G1 X191.484 Y60.528 E26.84516
G1 X192.722 Y63.836 E26.96263
G1 X193.019 Y64.744 E26.99441
G1 X193.239 Y65.673 E27.02616
G1 X193.32 Y66.148 E27.04219
G1 X193.416 Y66.789 E27.06375
G1 X193.831 Y69.311 E27.14876
G1 X194.317 Y71.815 E27.23359
G1 X194.855 Y74.23 E27.31589
G1 X195.462 Y76.631 E27.39826
G1 X196.151 Y79.057 E27.48214
G1 X196.919 Y81.5 E27.56731
G1 X197.245 Y82.448 E27.60065
G1 X197.532 Y83.319 E27.63116
G1 X197.793 Y84.238 E27.66293
G1 X197.976 Y85.175 E27.69468
G1 X198.079 Y86.124 E27.72643
G1 X198.103 Y86.683 E27.74504
G1 X198.115 Y87.445 E27.77039
G1 X198.113 Y104.861 E28.34965
G1 X198.098 Y105.589 E28.37387
G1 X198.038 Y106.542 E28.40563
G1 X197.846 Y107.749 E28.44628
G1 X197.603 Y108.88 E28.48475
G1 X197.095 Y111.415 E28.57074
G1 X196.675 Y113.864 E28.65339
G1 X196.317 Y116.383 E28.73801
G1 X196.038 Y118.842 E28.82032
G1 X195.827 Y121.331 E28.9034
G1 X195.679 Y123.936 E28.99019
G1 X195.637 Y124.897 E29.02218
G1 X195.555 Y125.848 E29.05393
G1 X195.392 Y126.796 E29.08592
G1 X195.133 Y127.999 E29.12685
G1 X194.618 Y130.565 E29.2139
G1 X194.196 Y133.036 E29.29727
G1 X193.839 Y135.543 E29.3815
G1 X193.559 Y138.01 E29.46408
G1 X193.349 Y140.488 E29.54679
G1 X193.207 Y142.989 E29.63011
G1 X193.126 Y146.85 E29.75855
G1 X193.125 Y163.883 E30.32507
G1 X193.115 Y164.585 E30.34842
G1 X193.061 Y165.539 E30.38021
G1 X192.928 Y166.484 E30.41195
G1 X192.716 Y167.415 E30.4437
G1 X192.427 Y168.325 E30.47546
G1 X192.063 Y169.208 E30.50723
G1 X191.627 Y170.057 E30.53897
G1 X191.12 Y170.866 E30.57073
G1 X190.548 Y171.631 E30.6025
G1 X189.959 Y172.298 E30.63209
G1 X189.365 Y172.91 E30.66046
G1 X188.691 Y173.569 E30.69181
G1 X187.981 Y174.208 E30.72358
G1 X187.22 Y174.784 E30.75532
G1 X186.413 Y175.295 E30.78709
G1 X185.567 Y175.737 E30.81884
G1 X184.686 Y176.106 E30.85061
G1 X183.778 Y176.4 E30.88235
G1 X182.848 Y176.618 E30.91412
G1 X181.904 Y176.756 E30.94585
G1 X180.926 Y176.816 E30.97844
G1 X180.164 Y176.828 E31.00379
G1 X131.719 Y176.828 E32.61508
G1 X129.129 Y176.865 E32.70123
G1 X126.594 Y176.972 E32.78562
G1 X124.124 Y177.147 E32.86798
G1 X121.645 Y177.393 E32.95084
G1 X119.144 Y177.713 E33.0347
G1 X116.656 Y178.104 E33.11846
G1 X114.184 Y178.564 E33.2021
G1 X111.804 Y179.074 E33.28305
G1 X109.317 Y179.685 E33.36823
G1 X106.9 Y180.35 E33.45161
G1 X104.51 Y181.082 E33.53474
G1 X102.118 Y181.889 E33.61871
G1 X99.78 Y182.751 E33.70159
G1 X97.469 Y183.679 E33.78442
G1 X95.156 Y184.685 E33.86831
G1 X92.891 Y185.748 E33.95153
G1 X90.643 Y186.879 E34.03522
G1 X88.393 Y188.094 E34.12027
G1 X87.329 Y188.698 E34.16097
G1 X69.183 Y199.173 E34.85785
G1 X68.592 Y199.503 E34.88036
G1 X67.739 Y199.934 E34.91215
G1 X66.854 Y200.291 E34.94389
G1 X66.208 Y200.499 E34.96646
G1 X65.331 Y200.752 E34.99682
G1 X56.731 Y203.106 E35.29338
G1 X56.061 Y203.28 E35.3164
G1 X55.127 Y203.481 E35.34818
G1 X54.18 Y203.603 E35.37993
G1 X53.431 Y203.644 E35.40488
G1 X52.133 Y203.668 E35.44806
G1 X34.83 Y203.667 E36.02356
G1 X34.128 Y203.657 E36.04691
G1 X33.174 Y203.603 E36.07869
G1 X32.229 Y203.47 E36.11043
G1 X31.298 Y203.258 E36.14219
G1 X30.388 Y202.969 E36.17395
G1 X29.505 Y202.605 E36.20571
G1 X28.656 Y202.169 E36.23746
G1 X27.847 Y201.662 E36.26921
G1 X27.082 Y201.09 E36.30098
G1 X26.409 Y200.495 E36.33086
G1 X25.79 Y199.894 E36.35956
G1 X25.142 Y199.231 E36.39039
G1 X24.504 Y198.521 E36.42214
G1 X23.928 Y197.76 E36.45388
G1 X23.417 Y196.953 E36.48565
G1 X22.975 Y196.107 E36.5174
G1 X22.606 Y195.226 E36.54917
G1 X22.312 Y194.318 E36.58091
G1 X22.095 Y193.388 E36.61268
G1 X21.956 Y192.444 E36.64441
G1 X21.897 Y191.468 E36.67693
G1 X21.885 Y190.706 E36.70228
G1 X21.886 Y170.863 E37.36226
G1 X21.896 Y170.161 E37.38561
G1 X21.95 Y169.207 E37.41739
G1 X22.083 Y168.262 E37.44913
G1 X22.295 Y167.331 E37.48089
G1 X22.584 Y166.421 E37.51265
G1 X22.948 Y165.538 E37.54441
G1 X23.384 Y164.689 E37.57616
G1 X23.891 Y163.88 E37.60791
G1 X24.463 Y163.115 E37.63968
G1 X25.053 Y162.448 E37.6693
G1 X25.646 Y161.836 E37.69764
G1 X26.326 Y161.171 E37.72928
G1 X27.036 Y160.532 E37.76105
G1 X27.589 Y160.103 E37.78433
G1 X29.112 Y158.994 E37.84699
G1 X31.125 Y157.466 E37.93105
G1 X33.079 Y155.896 E38.01441
G1 X34.973 Y154.284 E38.09714
G1 X36.838 Y152.6 E38.18071
G1 X38.662 Y150.858 E38.2646
G1 X40.413 Y149.09 E38.34736
G1 X42.147 Y147.238 E38.43175
G1 X43.797 Y145.369 E38.51467
G1 X45.4 Y143.449 E38.59786
G1 X46.946 Y141.487 E38.68094
G1 X48.446 Y139.467 E38.76462
G1 X49.874 Y137.427 E38.84745
G1 X51.266 Y135.313 E38.93163
G1 X52.575 Y133.197 E39.01439
G1 X53.842 Y131.011 E39.09842
G1 X55.027 Y128.832 E39.18092
G1 X56.17 Y126.575 E39.26507
G1 X57.232 Y124.327 E39.34776
G1 X58.236 Y122.031 E39.43111
G1 X59.178 Y119.706 E39.51454
G1 X60.05 Y117.36 E39.59779
G1 X60.857 Y114.984 E39.68125
G1 X61.601 Y112.577 E39.76504
G1 X62.265 Y110.192 E39.84738
G1 X62.876 Y107.718 E39.93214
G1 X63.407 Y105.289 E40.01484
G1 X63.872 Y102.821 E40.09837
G1 X64.265 Y100.353 E40.18149
G1 X64.59 Y97.867 E40.26488
G1 X64.842 Y95.393 E40.34759
G1 X65.027 Y92.857 E40.43216
G1 X65.138 Y90.403 E40.51386
G1 X65.182 Y87.539 E40.60913
G1 X65.183 Y73.031 E41.09167
G1 X65.194 Y72.324 E41.11519
G1 X65.249 Y71.37 E41.14697
G1 X65.359 Y70.561 E41.17413
G1 X65.862 Y67.646 E41.27251
G1 X66.218 Y65.145 E41.35653
G1 X66.497 Y62.688 E41.43878
G1 X66.71 Y60.179 E41.52253
G1 X66.85 Y57.706 E41.60491
G1 X66.932 Y53.827 E41.73396
G1 X66.933 Y29.277 E42.55049
G0 F6000 X67.333 Y29.282
G1 F600 X67.343 Y28.58 E42.57385
G1 X67.396 Y27.644 E42.60503
G1 X67.529 Y26.716 E42.63621
G1 X67.741 Y25.802 E42.66741
G1 X68.029 Y24.909 E42.69862
G1 X68.393 Y24.045 E42.7298
G1 X68.829 Y23.214 E42.76102
G1 X69.334 Y22.424 E42.7922
G1 X69.904 Y21.68 E42.82338
G1 X70.396 Y21.13 E42.84792
G1 X70.984 Y20.525 E42.87598
G1 X71.642 Y19.881 E42.9066
G1 X72.34 Y19.254 E42.93781
G1 X73.088 Y18.689 E42.96899
G1 X73.882 Y18.189 E43.0002
G1 X74.715 Y17.759 E43.03138
G1 X75.583 Y17.402 E43.06259
G1 X76.477 Y17.12 E43.09377
G1 X77.392 Y16.915 E43.12496
G1 X78.322 Y16.789 E43.15617
G1 X79.139 Y16.744 E43.18339
G1 X79.894 Y16.732 E43.2085
G1 X173.325 Y16.732 E46.31603
G1 X174.184 Y16.743 E46.3446
G1 X175.12 Y16.796 E46.37578
G1 X176.048 Y16.929 E46.40696
G1 X176.962 Y17.141 E46.43817
G1 X177.855 Y17.429 E46.46938
G1 X178.719 Y17.793 E46.50056
G1 X179.55 Y18.229 E46.53177
G1 X180.34 Y18.734 E46.56296
G1 X181.084 Y19.304 E46.59413
G1 X181.614 Y19.777 E46.61776
G1 X182.196 Y20.34 E46.64469
G1 X182.862 Y21.019 E46.67633
G1 X183.49 Y21.716 E46.70753
G1 X184.056 Y22.464 E46.73873
G1 X184.556 Y23.258 E46.76994
G1 X184.986 Y24.091 E46.80112
G1 X185.345 Y24.957 E46.8323
G1 X185.628 Y25.851 E46.86349
