;FLAVOR:Marlin
;TIME:3683
;Filament used: 2.09468m
;Layer height: 0.2
;MINX:65.454
;MINY:62.757
;MINZ:0.2
;MAXX:154.555
;MAXY:157.17
;MAXZ:8.2
;Generated with Cura_SteamEngine 5.0.0
M140 S50
M105
M190 S50
M104 S200
M105
M109 S200
M82 ;absolute extrusion mode

G28 ;Home
;G29 ;Bed levelling

G92 E0 ;Reset Extruder
G1 Z2.0 F3000 ;Move Z Axis up
G1 X10.1 Y20 Z0.28 F5000.0 ;Move to start position
G1 X10.1 Y200.0 Z0.28 F1500.0 E15 ;Draw the first line
G1 X10.4 Y200.0 Z0.28 F5000.0 ;Move to side a little
G1 X10.4 Y20 Z0.28 F1500.0 E30 ;Draw the second line
G92 E0 ;Reset Extruder
G1 Z2.0 F3000 ;Move Z Axis up
G92 E0
G92 E0
G1 F2400 E-0.8
;LAYER_COUNT:41
;LAYER:0
M107
G1 F300 Z0.8
G0 F6000 X106.443 Y70.109 Z0.8
G0 X105.256 Y72.413
;TYPE:SKIRT
G1 F300 Z0.2
G1 F2400 E0
G1 F1200 X105.518 Y71.816 E0.02168
G1 X105.945 Y70.943 E0.05401
G1 X106.443 Y70.109 E0.08632
G1 X107.007 Y69.319 E0.1186
G1 X107.666 Y68.544 E0.15244
G1 X108.066 Y68.123 E0.17175
G1 X109.562 Y66.62 E0.24228
G1 X110.093 Y66.104 E0.26691
G1 X110.816 Y65.457 E0.29918
G1 X111.591 Y64.871 E0.33149
G1 X112.412 Y64.35 E0.36384
G1 X113.272 Y63.899 E0.39613
G1 X114.166 Y63.521 E0.42842
G1 X115.089 Y63.217 E0.46074
G1 X116.033 Y62.99 E0.49303
G1 X116.993 Y62.841 E0.52534
G1 X118.115 Y62.769 E0.56274
G1 X118.905 Y62.757 E0.58902
G1 X140.217 Y62.759 E1.29786
G1 X140.916 Y62.769 E1.32111
G1 X141.886 Y62.823 E1.35342
G1 X142.848 Y62.957 E1.38572
G1 X143.796 Y63.169 E1.41803
G1 X144.723 Y63.458 E1.45033
G1 X145.623 Y63.823 E1.48263
G1 X146.491 Y64.26 E1.51495
G1 X147.319 Y64.768 E1.54726
G1 X148.103 Y65.341 E1.57956
G1 X148.931 Y66.067 E1.61619
G1 X149.525 Y66.642 E1.64368
G1 X150.717 Y67.837 E1.69982
G1 X151.206 Y68.34 E1.72316
G1 X151.854 Y69.063 E1.75545
G1 X152.44 Y69.838 E1.78776
G1 X152.96 Y70.658 E1.82006
G1 X153.411 Y71.519 E1.85239
G1 X153.79 Y72.413 E1.88468
G1 X154.094 Y73.336 E1.917
G1 X154.322 Y74.28 E1.9493
G1 X154.47 Y75.24 E1.98161
G1 X154.543 Y76.333 E2.01805
G1 X154.555 Y77.073 E2.04266
G1 X154.555 Y95.86 E2.66752
G1 X154.546 Y96.52 E2.68947
G1 X154.493 Y97.49 E2.72178
G1 X154.36 Y98.452 E2.75408
G1 X154.189 Y99.245 E2.78107
G1 X153.871 Y100.495 E2.82397
G1 X151.43 Y109.401 E3.1311
G1 X151.247 Y110.029 E3.15286
G1 X150.937 Y110.95 E3.18518
G1 X150.552 Y111.842 E3.2175
G1 X150.228 Y112.468 E3.24094
G1 X149.774 Y113.28 E3.27188
G1 X128.171 Y150.695 E4.70885
G1 X127.765 Y151.377 E4.73525
G1 X127.235 Y152.191 E4.76755
G1 X126.639 Y152.958 E4.79986
G1 X125.982 Y153.673 E4.83216
G1 X125.268 Y154.332 E4.86447
G1 X124.502 Y154.93 E4.89679
G1 X123.69 Y155.463 E4.9291
G1 X122.837 Y155.928 E4.96141
G1 X121.949 Y156.321 E4.99371
G1 X121.031 Y156.639 E5.02602
G1 X120.09 Y156.881 E5.05834
G1 X118.691 Y157.093 E5.1054
G1 X118.371 Y157.122 E5.11609
G1 X117.401 Y157.17 E5.14839
G1 X116.43 Y157.137 E5.18071
G1 X115.706 Y157.061 E5.20492
G1 X113.334 Y156.736 E5.28455
G1 X110.862 Y156.465 E5.36726
G1 X108.368 Y156.262 E5.45048
G1 X105.927 Y156.132 E5.53179
G1 X102.336 Y156.063 E5.65125
G1 X85.73 Y156.063 E6.20356
G1 X81.383 Y156.157 E6.34818
G1 X80.412 Y156.138 E6.38048
G1 X79.446 Y156.039 E6.41278
G1 X78.491 Y155.861 E6.44509
G1 X77.554 Y155.606 E6.47739
G1 X76.641 Y155.273 E6.50971
G1 X75.758 Y154.867 E6.54204
G1 X74.912 Y154.39 E6.57434
G1 X74.345 Y154.016 E6.59693
G1 X74.056 Y153.813 E6.60868
G1 X73.285 Y153.222 E6.64099
G1 X72.565 Y152.57 E6.67329
G1 X71.901 Y151.861 E6.7056
G1 X71.298 Y151.1 E6.7379
G1 X70.759 Y150.292 E6.7702
G1 X70.289 Y149.442 E6.80251
G1 X69.89 Y148.556 E6.83483
G1 X69.565 Y147.641 E6.86712
G1 X69.317 Y146.702 E6.89942
G1 X69.127 Y145.596 E6.93675
G1 X68.726 Y142.633 E7.0362
G1 X68.386 Y140.554 E7.10626
G1 X65.714 Y125.392 E7.61832
G1 X65.607 Y124.734 E7.6405
G1 X65.491 Y123.77 E7.67279
G1 X65.454 Y122.799 E7.70511
G1 X65.497 Y121.828 E7.73744
G1 X65.62 Y120.865 E7.76973
G1 X65.822 Y119.915 E7.80203
G1 X66.102 Y118.984 E7.83436
G1 X66.457 Y118.08 E7.86667
G1 X66.885 Y117.208 E7.89898
G1 X67.534 Y116.15 E7.94026
G1 X68.126 Y115.296 E7.97482
G1 X68.514 Y114.761 E7.9968
G1 X69.116 Y113.999 E8.0291
G1 X69.779 Y113.289 E8.06141
G1 X70.498 Y112.636 E8.09371
G1 X71.622 Y111.804 E8.14023
G1 X73.18 Y110.788 E8.20209
G1 X75.273 Y109.351 E8.28653
G1 X77.296 Y107.876 E8.3698
G1 X79.264 Y106.353 E8.45257
G1 X81.184 Y104.779 E8.53514
G1 X83.089 Y103.126 E8.61903
G1 X84.919 Y101.445 E8.70168
G1 X86.698 Y99.714 E8.78424
G1 X88.44 Y97.92 E8.86741
G1 X90.145 Y96.064 E8.95123
G1 X91.748 Y94.215 E9.03262
G1 X93.35 Y92.259 E9.11672
G1 X94.862 Y90.302 E9.19897
G1 X96.343 Y88.269 E9.28263
G1 X97.752 Y86.215 E9.36547
G1 X99.083 Y84.152 E9.44713
G1 X100.398 Y81.981 E9.53155
G1 X101.622 Y79.825 E9.61401
G1 X102.8 Y77.609 E9.69748
G1 X103.894 Y75.398 E9.77953
G1 X105.256 Y72.413 E9.88866
G1 F2400 E9.08866
G0 F6000 X103.146 Y77.809
G1 F2400 E9.88866
G1 F1200 X104.252 Y75.575 E9.97157
G1 X105.623 Y72.571 E10.0814
G1 X105.884 Y71.977 E10.10297
G1 X106.305 Y71.12 E10.13473
G1 X106.795 Y70.301 E10.16648
G1 X107.353 Y69.526 E10.19824
G1 X107.959 Y68.816 E10.22929
G1 X108.349 Y68.405 E10.24813
G1 X109.84 Y66.907 E10.31843
G1 X110.371 Y66.391 E10.34305
G1 X111.083 Y65.755 E10.37481
G1 X111.846 Y65.181 E10.40656
G1 X112.654 Y64.672 E10.43833
G1 X113.502 Y64.233 E10.47009
G1 X114.384 Y63.867 E10.50185
G1 X115.293 Y63.575 E10.5336
G1 X116.223 Y63.361 E10.56534
G1 X117.168 Y63.225 E10.5971
G1 X118.122 Y63.169 E10.62888
G1 X118.905 Y63.157 E10.65493
G1 X140.211 Y63.159 E11.36357
G1 X140.91 Y63.169 E11.38682
G1 X141.863 Y63.223 E11.41857
G1 X142.809 Y63.356 E11.45034
G1 X143.74 Y63.568 E11.4821
G1 X144.65 Y63.857 E11.51385
G1 X145.532 Y64.221 E11.54559
G1 X146.381 Y64.658 E11.57735
G1 X147.191 Y65.164 E11.60911
G1 X147.955 Y65.736 E11.64086
G1 X148.654 Y66.356 E11.67193
G1 X149.242 Y66.925 E11.69915
G1 X150.43 Y68.116 E11.7551
G1 X150.919 Y68.619 E11.77843
G1 X151.555 Y69.33 E11.81016
G1 X152.13 Y70.093 E11.84194
G1 X152.638 Y70.901 E11.87368
G1 X153.078 Y71.749 E11.90546
G1 X153.444 Y72.63 E11.93719
G1 X153.736 Y73.539 E11.96894
G1 X153.951 Y74.47 E12.00072
G1 X154.087 Y75.415 E12.03248
G1 X154.143 Y76.341 E12.06333
G1 X154.155 Y77.073 E12.08768
G1 X154.155 Y95.854 E12.71234
G1 X154.146 Y96.514 E12.73429
G1 X154.093 Y97.468 E12.76607
G1 X153.96 Y98.413 E12.79781
G1 X153.801 Y99.147 E12.82279
G1 X153.485 Y100.39 E12.86545
G1 X151.046 Y109.289 E13.17235
G1 X150.863 Y109.917 E13.1941
G1 X150.558 Y110.822 E13.22587
G1 X150.178 Y111.698 E13.25763
G1 X149.878 Y112.273 E13.2792
G1 X149.428 Y113.08 E13.30993
G1 X127.828 Y150.49 E14.7467
G1 X127.422 Y151.172 E14.7731
G1 X126.899 Y151.972 E14.80489
G1 X126.312 Y152.724 E14.83662
G1 X125.664 Y153.425 E14.86837
G1 X124.959 Y154.07 E14.90015
G1 X124.203 Y154.653 E14.9319
G1 X123.401 Y155.17 E14.96364
G1 X122.558 Y155.619 E14.99541
G1 X121.681 Y155.996 E15.02716
G1 X120.775 Y156.298 E15.05892
G1 X119.847 Y156.523 E15.09068
G1 X118.655 Y156.694 E15.13073
G1 X118.335 Y156.723 E15.14142
G1 X117.381 Y156.77 E15.17319
G1 X116.427 Y156.736 E15.20494
G1 X115.76 Y156.665 E15.22725
G1 X113.395 Y156.341 E15.30664
G1 X110.901 Y156.067 E15.39009
G1 X108.383 Y155.863 E15.47412
G1 X105.928 Y155.732 E15.55589
G1 X102.343 Y155.663 E15.67515
G1 X85.721 Y155.663 E16.228
G1 X81.374 Y155.757 E16.37261
G1 X80.42 Y155.738 E16.40435
G1 X79.47 Y155.639 E16.43612
G1 X78.532 Y155.461 E16.46787
G1 X77.612 Y155.204 E16.49964
G1 X76.717 Y154.872 E16.53139
G1 X75.853 Y154.466 E16.56314
G1 X75.026 Y153.989 E16.5949
G1 X74.575 Y153.689 E16.61291
G1 X74.286 Y153.486 E16.62466
G1 X73.529 Y152.905 E16.6564
G1 X72.822 Y152.262 E16.68818
G1 X72.172 Y151.563 E16.71993
G1 X71.583 Y150.812 E16.75168
G1 X71.059 Y150.014 E16.78343
G1 X70.603 Y149.175 E16.81519
G1 X70.219 Y148.301 E16.84694
G1 X69.909 Y147.398 E16.87869
G1 X69.676 Y146.472 E16.91045
G1 X69.524 Y145.547 E16.94163
G1 X69.478 Y145.169 E16.9543
G1 X69.124 Y142.593 E17.04078
G1 X68.765 Y140.397 E17.11479
G1 X66.109 Y125.328 E17.62371
G1 X66.002 Y124.67 E17.64588
G1 X65.888 Y123.722 E17.67764
G1 X65.854 Y122.768 E17.70939
G1 X65.9 Y121.814 E17.74116
G1 X66.026 Y120.867 E17.77293
G1 X66.23 Y119.935 E17.80467
G1 X66.512 Y119.023 E17.83642
G1 X66.869 Y118.137 E17.86819
G1 X67.299 Y117.285 E17.89993
G1 X67.863 Y116.376 E17.93551
G1 X68.449 Y115.531 E17.96971
G1 X68.837 Y114.996 E17.99169
G1 X69.43 Y114.247 E18.02347
G1 X70.083 Y113.551 E18.05521
G1 X70.792 Y112.911 E18.08698
G1 X71.84 Y112.139 E18.13027
G1 X73.432 Y111.101 E18.19348
G1 X75.513 Y109.672 E18.27744
G1 X77.531 Y108.201 E18.3605
G1 X79.496 Y106.681 E18.44313
G1 X81.455 Y105.075 E18.52738
G1 X83.359 Y103.422 E18.61124
G1 X85.186 Y101.743 E18.69377
G1 X86.981 Y99.997 E18.77706
G1 X88.739 Y98.187 E18.86098
G1 X90.425 Y96.35 E18.94392
G1 X92.058 Y94.468 E19.02679
G1 X93.66 Y92.512 E19.11088
G1 X95.19 Y90.531 E19.19413
G1 X96.664 Y88.508 E19.27738
G1 X98.074 Y86.452 E19.3603
G1 X99.444 Y84.329 E19.44434
G1 X100.73 Y82.206 E19.5269
G1 X101.974 Y80.016 E19.61067
G1 X103.146 Y77.809 E19.69378
G1 F2400 E18.89378
G0 F6000 X101.077 Y82.406
G1 F2400 E19.69378
G1 F1200 X102.324 Y80.21 E19.77777
G1 X103.508 Y77.981 E19.86172
G1 X104.605 Y75.766 E19.94393
G1 X105.982 Y72.749 E20.05424
G1 X106.25 Y72.138 E20.07643
G1 X106.664 Y71.296 E20.10763
G1 X107.148 Y70.493 E20.13882
G1 X107.698 Y69.733 E20.17002
G1 X108.252 Y69.088 E20.1983
G1 X108.633 Y68.687 E20.2167
G1 X110.119 Y67.194 E20.28676
G1 X110.65 Y66.678 E20.31139
G1 X111.35 Y66.054 E20.34258
G1 X112.1 Y65.491 E20.37377
G1 X112.896 Y64.995 E20.40496
G1 X113.731 Y64.568 E20.43615
G1 X114.6 Y64.214 E20.46736
G1 X115.495 Y63.935 E20.49854
G1 X116.411 Y63.733 E20.52974
G1 X117.341 Y63.61 E20.56094
G1 X118.129 Y63.569 E20.58719
G1 X118.905 Y63.557 E20.613
G1 X140.205 Y63.559 E21.32144
G1 X140.904 Y63.569 E21.34469
G1 X141.841 Y63.623 E21.37591
G1 X142.769 Y63.755 E21.40709
G1 X143.683 Y63.967 E21.43829
G1 X144.575 Y64.256 E21.46948
G1 X145.44 Y64.619 E21.50068
G1 X146.27 Y65.055 E21.53186
G1 X147.06 Y65.56 E21.56305
G1 X147.805 Y66.131 E21.59427
G1 X148.376 Y66.644 E21.6198
G1 X148.959 Y67.207 E21.64675
G1 X150.143 Y68.394 E21.70252
G1 X150.632 Y68.897 E21.72585
G1 X151.257 Y69.597 E21.75706
G1 X151.819 Y70.347 E21.78823
G1 X152.316 Y71.143 E21.81944
G1 X152.743 Y71.978 E21.85064
G1 X153.097 Y72.846 E21.88182
G1 X153.377 Y73.742 E21.91304
G1 X153.578 Y74.658 E21.94423
G1 X153.701 Y75.587 E21.9754
G1 X153.743 Y76.349 E22.00078
G1 X153.755 Y77.073 E22.02486
G1 X153.755 Y95.849 E22.64936
G1 X153.746 Y96.509 E22.67131
G1 X153.693 Y97.445 E22.70249
G1 X153.561 Y98.374 E22.7337
G1 X153.413 Y99.049 E22.75668
G1 X153.099 Y100.284 E22.79907
G1 X150.662 Y109.177 E23.10575
G1 X150.479 Y109.805 E23.12751
G1 X150.178 Y110.694 E23.15873
G1 X149.803 Y111.553 E23.1899
G1 X149.529 Y112.079 E23.20963
G1 X149.081 Y112.88 E23.24015
G1 X127.484 Y150.286 E24.67676
G1 X127.078 Y150.968 E24.70316
G1 X126.564 Y151.753 E24.73437
G1 X125.986 Y152.491 E24.76554
G1 X125.346 Y153.177 E24.79675
G1 X124.651 Y153.806 E24.82793
G1 X123.904 Y154.373 E24.85912
G1 X123.112 Y154.875 E24.89031
G1 X122.28 Y155.308 E24.9215
G1 X121.414 Y155.668 E24.95269
G1 X120.52 Y155.953 E24.9839
G1 X119.606 Y156.161 E25.01508
G1 X118.619 Y156.296 E25.04821
G1 X118.299 Y156.325 E25.0589
G1 X117.362 Y156.37 E25.0901
G1 X116.425 Y156.335 E25.12129
G1 X115.815 Y156.268 E25.1417
G1 X113.458 Y155.946 E25.22082
G1 X110.944 Y155.669 E25.30494
G1 X108.436 Y155.465 E25.38863
G1 X105.927 Y155.332 E25.4722
G1 X102.351 Y155.263 E25.59116
G1 X85.713 Y155.263 E26.14454
G1 X81.366 Y155.357 E26.28916
G1 X80.428 Y155.338 E26.32036
G1 X79.496 Y155.238 E26.35154
G1 X78.575 Y155.06 E26.38274
G1 X77.673 Y154.803 E26.41393
G1 X76.796 Y154.471 E26.44512
G1 X75.95 Y154.065 E26.47633
G1 X74.805 Y153.361 E26.52104
G1 X74.516 Y153.158 E26.53279
G1 X73.773 Y152.587 E26.56395
G1 X73.08 Y151.954 E26.59517
G1 X72.444 Y151.265 E26.62636
G1 X71.869 Y150.524 E26.65755
G1 X71.359 Y149.737 E26.68874
G1 X70.918 Y148.909 E26.71995
G1 X70.55 Y148.047 E26.75112
G1 X70.256 Y147.156 E26.78233
G1 X70.039 Y146.244 E26.81351
G1 X69.921 Y145.498 E26.83863
G1 X69.516 Y142.514 E26.93878
G1 X69.163 Y140.355 E27.01155
G1 X66.504 Y125.264 E27.52121
G1 X66.397 Y124.606 E27.54338
G1 X66.286 Y123.674 E27.5746
G1 X66.254 Y122.737 E27.60578
G1 X66.303 Y121.8 E27.63699
G1 X66.432 Y120.871 E27.66818
G1 X66.639 Y119.957 E27.69935
G1 X66.923 Y119.063 E27.73055
G1 X67.282 Y118.196 E27.76176
G1 X67.714 Y117.364 E27.79294
G1 X68.193 Y116.603 E27.82285
G1 X68.773 Y115.766 E27.85672
G1 X69.161 Y115.231 E27.8787
G1 X69.744 Y114.496 E27.9099
G1 X70.387 Y113.813 E27.9411
G1 X71.086 Y113.188 E27.97229
G1 X72.059 Y112.474 E28.01243
G1 X73.645 Y111.44 E28.0754
G1 X75.746 Y109.997 E28.16018
G1 X77.767 Y108.524 E28.24335
G1 X79.753 Y106.987 E28.32688
G1 X81.725 Y105.371 E28.41168
G1 X83.589 Y103.753 E28.49377
G1 X85.488 Y102.007 E28.57957
G1 X87.246 Y100.297 E28.66114
G1 X89.039 Y98.452 E28.74671
G1 X90.721 Y96.619 E28.82946
G1 X92.371 Y94.717 E28.9132
G1 X93.974 Y92.759 E28.99737
G1 X95.51 Y90.771 E29.08093
G1 X96.984 Y88.748 E29.16418
G1 X98.412 Y86.666 E29.24815
G1 X99.789 Y84.532 E29.33262
G1 X101.077 Y82.406 E29.41529
G1 F2400 E28.61529
G0 F6000 X98.746 Y86.887
G1 F2400 E29.41529
G1 F1200 X100.124 Y84.751 E29.49984
G1 X101.424 Y82.604 E29.58332
G1 X102.675 Y80.401 E29.66758
G1 X103.855 Y78.181 E29.7512
G1 X104.976 Y75.917 E29.83523
G1 X106.34 Y72.926 E29.94456
G1 X106.616 Y72.299 E29.96735
G1 X107.023 Y71.473 E29.99798
G1 X107.5 Y70.685 E30.02861
G1 X108.044 Y69.942 E30.05924
G1 X108.66 Y69.236 E30.0904
G1 X110.268 Y67.61 E30.16646
G1 X110.929 Y66.965 E30.19718
G1 X111.616 Y66.353 E30.22778
G1 X112.354 Y65.802 E30.25842
G1 X113.137 Y65.318 E30.28903
G1 X113.959 Y64.904 E30.31964
G1 X114.814 Y64.562 E30.35027
G1 X115.696 Y64.296 E30.38091
G1 X116.597 Y64.107 E30.41153
G1 X117.511 Y63.998 E30.44215
G1 X118.136 Y63.969 E30.46296
G1 X118.905 Y63.957 E30.48854
G1 X140.2 Y63.959 E31.19681
G1 X140.899 Y63.969 E31.22006
G1 X141.818 Y64.022 E31.25068
G1 X142.729 Y64.155 E31.2813
G1 X143.625 Y64.366 E31.31192
G1 X144.499 Y64.654 E31.34252
G1 X145.345 Y65.017 E31.37314
G1 X146.157 Y65.452 E31.40378
G1 X146.927 Y65.956 E31.43439
G1 X147.651 Y66.525 E31.46502
G1 X148.099 Y66.932 E31.48515
G1 X148.676 Y67.49 E31.51185
G1 X149.856 Y68.673 E31.56742
G1 X150.345 Y69.176 E31.59075
G1 X150.958 Y69.864 E31.6214
G1 X151.508 Y70.601 E31.65199
G1 X151.993 Y71.384 E31.68262
G1 X152.407 Y72.206 E31.71323
G1 X152.749 Y73.061 E31.74386
G1 X153.015 Y73.943 E31.7745
G1 X153.204 Y74.844 E31.80512
G1 X153.314 Y75.758 E31.83574
G1 X153.343 Y76.357 E31.85569
G1 X153.355 Y77.073 E31.8795
G1 X153.355 Y95.844 E32.50383
G1 X153.346 Y96.504 E32.52578
G1 X153.293 Y97.423 E32.5564
G1 X153.161 Y98.334 E32.58702
G1 X153.025 Y98.951 E32.60803
G1 X152.713 Y100.178 E32.65014
G1 X150.278 Y109.066 E32.95665
G1 X150.095 Y109.694 E32.97841
G1 X149.799 Y110.565 E33.009
G1 X149.429 Y111.408 E33.03962
G1 X149.179 Y111.884 E33.0575
G1 X148.735 Y112.68 E33.08782
G1 X127.14 Y150.081 E34.52425
G1 X126.734 Y150.763 E34.55065
G1 X126.229 Y151.533 E34.58127
G1 X125.66 Y152.256 E34.61188
G1 X125.029 Y152.927 E34.64251
G1 X124.343 Y153.541 E34.67313
G1 X123.606 Y154.093 E34.70376
G1 X122.824 Y154.579 E34.73438
G1 X122.003 Y154.995 E34.76499
G1 X121.149 Y155.338 E34.7956
G1 X120.268 Y155.606 E34.82623
G1 X119.367 Y155.797 E34.85686
G1 X118.583 Y155.898 E34.88316
G1 X118.263 Y155.927 E34.89384
G1 X117.343 Y155.97 E34.92447
G1 X116.423 Y155.933 E34.9551
G1 X115.869 Y155.872 E34.97364
G1 X113.516 Y155.55 E35.05263
G1 X110.95 Y155.268 E35.13849
G1 X108.456 Y155.065 E35.22171
G1 X105.956 Y154.933 E35.30498
G1 X102.359 Y154.863 E35.42464
G1 X85.751 Y154.863 E35.97702
G1 X81.357 Y154.958 E36.1232
G1 X80.437 Y154.937 E36.15381
G1 X79.521 Y154.838 E36.18445
G1 X78.618 Y154.659 E36.21507
G1 X77.734 Y154.402 E36.24569
G1 X76.876 Y154.07 E36.27629
G1 X76.049 Y153.664 E36.30693
G1 X75.035 Y153.034 E36.34663
G1 X74.746 Y152.831 E36.35838
G1 X74.017 Y152.27 E36.38898
G1 X73.338 Y151.647 E36.41963
G1 X72.717 Y150.968 E36.45023
G1 X72.156 Y150.237 E36.48088
G1 X71.661 Y149.461 E36.51149
G1 X71.236 Y148.645 E36.54209
