;FLAVOR:Marlin
;TIME:4809
;Filament used: 2.83128m
;Layer height: 0.2
;MINX:66.884
;MINY:64.133
;MINZ:0.2
;MAXX:153.02
;MAXY:156.575
;MAXZ:11
;Generated with Cura_SteamEngine 5.0.0
M140 S50
M105
M190 S50
M104 S200
M105
M109 S200
M82 ;absolute extrusion mode

G28 ;Home
;G29 ;Bed levelling

G92 E0 ;Reset Extruder
G1 Z2.0 F3000 ;Move Z Axis up
G1 X10.1 Y20 Z0.28 F5000.0 ;Move to start position
G1 X10.1 Y200.0 Z0.28 F1500.0 E15 ;Draw the first line
G1 X10.4 Y200.0 Z0.28 F5000.0 ;Move to side a little
G1 X10.4 Y20 Z0.28 F1500.0 E30 ;Draw the second line
G92 E0 ;Reset Extruder
G1 Z2.0 F3000 ;Move Z Axis up
G92 E0
G92 E0
G1 F2400 E-0.8
;LAYER_COUNT:55
;LAYER:0
M107
G1 F300 Z0.8
G0 F6000 X70.212 Y68.891 Z0.8
G1 F300 Z0.2
G0 F6000 X66.885 Y77.629
;TYPE:SKIRT
G1 F2400 E0
G1 F1200 X66.895 Y76.927 E0.02335
G1 X66.949 Y75.957 E0.05566
G1 X67.082 Y74.995 E0.08796
G1 X67.294 Y74.047 E0.12027
G1 X67.584 Y73.12 E0.15258
G1 X67.948 Y72.219 E0.1849
G1 X68.386 Y71.352 E0.21721
G1 X68.893 Y70.524 E0.2495
G1 X69.467 Y69.74 E0.28182
G1 X70.212 Y68.891 E0.31938
G1 X70.883 Y68.204 E0.35133
G1 X71.591 Y67.511 E0.38428
G1 X72.313 Y66.861 E0.41659
G1 X73.085 Y66.272 E0.44888
G1 X73.904 Y65.749 E0.48121
G1 X74.762 Y65.295 E0.51349
G1 X75.655 Y64.913 E0.5458
G1 X76.577 Y64.606 E0.57812
G1 X77.521 Y64.375 E0.61044
G1 X78.48 Y64.223 E0.64274
G1 X79.619 Y64.146 E0.68071
G1 X80.366 Y64.134 E0.70555
G1 X100.388 Y64.133 E1.37149
G1 X101.349 Y64.151 E1.40346
G1 X102.318 Y64.211 E1.43575
G1 X103.28 Y64.351 E1.46808
G1 X104.226 Y64.57 E1.50038
G1 X105.151 Y64.865 E1.53267
G1 X106.049 Y65.236 E1.56499
G1 X106.914 Y65.679 E1.59731
G1 X107.738 Y66.192 E1.62959
G1 X108.518 Y66.772 E1.66192
G1 X109.248 Y67.413 E1.69423
G1 X109.817 Y67.964 E1.72058
G1 X110.65 Y68.81 E1.76007
G1 X111.303 Y69.53 E1.7924
G1 X111.894 Y70.301 E1.82471
G1 X112.419 Y71.117 E1.85698
G1 X112.876 Y71.975 E1.88931
G1 X113.082 Y72.427 E1.90583
G1 X114.334 Y75.263 E2.00894
G1 X115.423 Y77.539 E2.09286
G1 X116.557 Y79.747 E2.17542
G1 X117.76 Y81.935 E2.25847
G1 X119.03 Y84.097 E2.34186
G1 X120.352 Y86.208 E2.42471
G1 X121.734 Y88.283 E2.50763
G1 X123.168 Y90.309 E2.59018
G1 X124.667 Y92.306 E2.67323
G1 X126.229 Y94.266 E2.75659
G1 X127.84 Y96.176 E2.8397
G1 X129.486 Y98.018 E2.92186
G1 X131.205 Y99.838 E3.00513
G1 X132.979 Y101.61 E3.08852
G1 X134.784 Y103.315 E3.17111
G1 X136.648 Y104.979 E3.25421
G1 X138.568 Y106.598 E3.33775
G1 X140.501 Y108.135 E3.41988
G1 X142.492 Y109.629 E3.50268
G1 X144.555 Y111.088 E3.58672
G1 X146.634 Y112.472 E3.66979
G1 X147.445 Y112.989 E3.70177
G1 X148.242 Y113.545 E3.7341
G1 X148.99 Y114.164 E3.76639
G1 X149.685 Y114.843 E3.79871
G1 X150.322 Y115.576 E3.831
G1 X150.826 Y116.256 E3.85916
G1 X150.949 Y116.435 E3.86638
G1 X151.466 Y117.258 E3.89871
G1 X151.913 Y118.12 E3.931
G1 X152.288 Y119.016 E3.96331
G1 X152.588 Y119.94 E3.99562
G1 X152.811 Y120.886 E4.02795
G1 X152.955 Y121.846 E4.06023
G1 X153.02 Y122.815 E4.09253
G1 X153.005 Y123.787 E4.12487
G1 X152.886 Y124.914 E4.16256
G1 X152.776 Y125.614 E4.18613
G1 X150.306 Y139.625 E4.65932
G1 X149.904 Y142.114 E4.74318
G1 X149.562 Y144.692 E4.82967
G1 X149.447 Y145.688 E4.86302
G1 X149.296 Y146.648 E4.89534
G1 X149.067 Y147.592 E4.92765
G1 X148.761 Y148.514 E4.95996
G1 X148.38 Y149.407 E4.99225
G1 X147.928 Y150.267 E5.02457
G1 X147.406 Y151.086 E5.05687
G1 X146.818 Y151.859 E5.08917
G1 X146.169 Y152.582 E5.12149
G1 X145.462 Y153.249 E5.15382
G1 X144.703 Y153.855 E5.18612
G1 X143.897 Y154.397 E5.21842
G1 X143.049 Y154.87 E5.25072
G1 X142.165 Y155.273 E5.28303
G1 X141.25 Y155.601 E5.31536
G1 X140.312 Y155.853 E5.34767
G1 X139.356 Y156.027 E5.37999
G1 X138.022 Y156.136 E5.4245
G1 X137.328 Y156.15 E5.44759
G1 X113.086 Y156.15 E6.25388
G1 X110.477 Y156.187 E6.34067
G1 X108.011 Y156.292 E6.42276
G1 X105.363 Y156.48 E6.51105
G1 X104.735 Y156.533 E6.53202
G1 X103.765 Y156.575 E6.56431
G1 X102.794 Y156.537 E6.59663
G1 X101.83 Y156.418 E6.62894
G1 X100.879 Y156.221 E6.66124
G1 X99.947 Y155.947 E6.69355
G1 X99.041 Y155.596 E6.72586
G1 X98.167 Y155.173 E6.75816
G1 X97.331 Y154.679 E6.79046
G1 X96.538 Y154.117 E6.82278
G1 X95.794 Y153.493 E6.85508
G1 X95.104 Y152.809 E6.88739
G1 X94.472 Y152.071 E6.91971
G1 X93.662 Y150.904 E6.96696
G1 X93.293 Y150.29 E6.99078
G1 X71.461 Y112.472 E8.44317
G1 X71.123 Y111.867 E8.46622
G1 X70.684 Y111 E8.49854
G1 X70.318 Y110.1 E8.53085
G1 X70.092 Y109.401 E8.55529
G1 X69.841 Y108.534 E8.58531
G1 X67.443 Y99.774 E8.88739
G1 X67.284 Y99.16 E8.90848
G1 X67.079 Y98.211 E8.94077
G1 X66.953 Y97.247 E8.97311
G1 X66.91 Y96.448 E8.99972
G1 X66.884 Y95.101 E9.04453
G1 X66.885 Y77.629 E9.62565
G0 F6000 X67.285 Y77.635
G1 F1200 X67.295 Y76.933 E9.649
G1 X67.349 Y75.979 E9.68079
G1 X67.482 Y75.034 E9.71253
G1 X67.694 Y74.103 E9.74428
G1 X67.983 Y73.193 E9.77604
G1 X68.347 Y72.31 E9.80781
G1 X68.783 Y71.461 E9.83955
G1 X69.29 Y70.652 E9.8713
G1 X69.862 Y69.887 E9.90307
G1 X70.5 Y69.169 E9.93502
G1 X71.163 Y68.49 E9.96659
G1 X71.871 Y67.797 E9.99954
G1 X72.58 Y67.158 E10.03128
G1 X73.341 Y66.581 E10.06305
G1 X74.147 Y66.07 E10.09479
G1 X74.994 Y65.628 E10.12656
G1 X75.874 Y65.258 E10.15831
G1 X76.782 Y64.963 E10.19007
G1 X77.712 Y64.745 E10.22184
G1 X78.656 Y64.606 E10.25358
G1 X79.627 Y64.546 E10.28593
G1 X80.366 Y64.534 E10.31052
G1 X100.388 Y64.533 E10.97645
G1 X101.34 Y64.551 E11.00812
G1 X102.293 Y64.611 E11.03988
G1 X103.238 Y64.75 E11.07165
G1 X104.167 Y64.968 E11.10339
G1 X105.075 Y65.264 E11.13515
G1 X105.955 Y65.634 E11.1669
G1 X106.802 Y66.076 E11.19868
G1 X107.608 Y66.588 E11.23044
G1 X108.368 Y67.165 E11.26217
G1 X108.972 Y67.702 E11.28905
G1 X109.532 Y68.245 E11.315
G1 X110.365 Y69.091 E11.35449
G1 X111.006 Y69.798 E11.38623
G1 X111.585 Y70.557 E11.41798
G1 X112.099 Y71.362 E11.44975
G1 X112.714 Y72.585 E11.49528
G1 X113.979 Y75.447 E11.59935
G1 X115.064 Y77.715 E11.68297
G1 X116.216 Y79.958 E11.76684
G1 X117.407 Y82.124 E11.84905
G1 X118.68 Y84.291 E11.93264
G1 X120.007 Y86.412 E12.01586
G1 X121.408 Y88.514 E12.09988
G1 X122.855 Y90.558 E12.18317
G1 X124.363 Y92.567 E12.26672
G1 X125.911 Y94.511 E12.34937
G1 X127.519 Y96.417 E12.43231
G1 X129.215 Y98.314 E12.51695
G1 X130.914 Y100.113 E12.59925
G1 X132.705 Y101.901 E12.68342
G1 X134.509 Y103.606 E12.76598
G1 X136.387 Y105.282 E12.8497
G1 X138.307 Y106.901 E12.93323
G1 X140.257 Y108.452 E13.0161
G1 X142.266 Y109.96 E13.09965
G1 X144.324 Y111.416 E13.1835
G1 X146.435 Y112.82 E13.26782
G1 X147.23 Y113.327 E13.29919
G1 X148.013 Y113.873 E13.33094
G1 X148.747 Y114.483 E13.36268
G1 X149.428 Y115.153 E13.39445
G1 X150.05 Y115.877 E13.4262
G1 X150.497 Y116.483 E13.45125
G1 X150.62 Y116.662 E13.45847
G1 X151.127 Y117.471 E13.49022
G1 X151.565 Y118.319 E13.52197
G1 X151.93 Y119.201 E13.55372
G1 X152.22 Y120.111 E13.58548
G1 X152.433 Y121.042 E13.61725
G1 X152.568 Y121.987 E13.649
G1 X152.623 Y122.94 E13.68075
G1 X152.598 Y123.894 E13.71249
G1 X152.491 Y124.853 E13.74458
G1 X152.382 Y125.545 E13.76788
G1 X149.91 Y139.569 E14.24151
G1 X149.506 Y142.069 E14.32574
G1 X149.163 Y144.65 E14.41234
G1 X149.049 Y145.642 E14.44555
G1 X148.901 Y146.586 E14.47733
G1 X148.674 Y147.513 E14.50908
G1 X148.37 Y148.418 E14.54083
G1 X147.991 Y149.295 E14.57261
G1 X147.54 Y150.136 E14.60435
G1 X147.021 Y150.937 E14.63609
G1 X146.436 Y151.692 E14.66786
G1 X145.791 Y152.396 E14.69962
G1 X145.088 Y153.042 E14.73137
G1 X144.334 Y153.628 E14.76313
G1 X143.534 Y154.149 E14.79489
G1 X142.693 Y154.6 E14.82663
G1 X141.817 Y154.98 E14.85838
G1 X140.912 Y155.285 E14.89015
G1 X139.985 Y155.514 E14.92191
G1 X139.042 Y155.664 E14.95367
G1 X138.012 Y155.736 E14.98801
G1 X137.328 Y155.75 E15.01076
G1 X113.08 Y155.75 E15.81725
G1 X110.49 Y155.787 E15.90341
G1 X107.967 Y155.894 E15.9874
G1 X105.38 Y156.078 E16.07366
G1 X104.702 Y156.135 E16.09629
G1 X103.748 Y156.175 E16.12805
G1 X102.794 Y156.135 E16.1598
G1 X101.847 Y156.016 E16.19155
G1 X100.913 Y155.817 E16.22331
G1 X99.999 Y155.541 E16.25507
G1 X99.111 Y155.19 E16.28683
G1 X98.256 Y154.766 E16.31857
G1 X97.439 Y154.271 E16.35034
G1 X96.666 Y153.71 E16.38211
G1 X95.943 Y153.086 E16.41387
G1 X95.275 Y152.404 E16.44562
G1 X94.667 Y151.669 E16.47735
G1 X94.004 Y150.696 E16.51651
G1 X93.639 Y150.09 E16.54004
G1 X71.81 Y112.277 E17.99223
G1 X71.472 Y111.672 E18.01528
G1 X71.041 Y110.82 E18.04704
G1 X70.684 Y109.934 E18.07881
G1 X70.476 Y109.29 E18.10132
G1 X70.227 Y108.428 E18.13116
G1 X67.83 Y99.674 E18.43303
G1 X67.671 Y99.06 E18.45413
G1 X67.471 Y98.126 E18.4859
G1 X67.349 Y97.179 E18.51766
G1 X67.309 Y96.44 E18.54227
G1 X67.284 Y95.101 E18.58682
G1 X67.285 Y77.635 E19.16774
G0 F6000 X67.685 Y77.64
G1 F1200 X67.695 Y76.938 E19.19109
G1 X67.748 Y76.002 E19.22227
G1 X67.881 Y75.074 E19.25345
G1 X68.093 Y74.16 E19.28466
G1 X68.381 Y73.267 E19.31586
G1 X68.745 Y72.403 E19.34705
G1 X69.181 Y71.572 E19.37826
G1 X69.686 Y70.782 E19.40944
G1 X70.256 Y70.038 E19.44062
G1 X70.787 Y69.447 E19.46704
G1 X71.443 Y68.776 E19.49825
G1 X72.151 Y68.083 E19.53121
G1 X72.848 Y67.456 E19.56239
G1 X73.597 Y66.891 E19.59359
G1 X74.39 Y66.392 E19.62475
G1 X75.224 Y65.962 E19.65596
G1 X76.091 Y65.604 E19.68716
G1 X76.986 Y65.322 E19.71837
G1 X77.901 Y65.117 E19.74956
G1 X78.83 Y64.991 E19.78074
G1 X79.634 Y64.946 E19.80752
G1 X80.366 Y64.934 E19.83187
G1 X100.388 Y64.933 E20.49781
G1 X101.332 Y64.95 E20.52921
G1 X102.268 Y65.01 E20.56041
G1 X103.195 Y65.149 E20.59158
G1 X104.108 Y65.367 E20.6228
G1 X104.998 Y65.662 E20.65399
G1 X105.86 Y66.031 E20.68518
G1 X106.688 Y66.473 E20.71639
G1 X107.474 Y66.983 E20.74756
G1 X108.215 Y67.559 E20.77877
G1 X108.696 Y67.992 E20.8003
G1 X109.247 Y68.525 E20.8258
G1 X110.08 Y69.371 E20.86528
G1 X110.709 Y70.067 E20.89649
G1 X111.276 Y70.814 E20.92768
G1 X111.778 Y71.606 E20.95887
G1 X112.347 Y72.743 E21.00115
G1 X113.617 Y75.617 E21.10566
G1 X114.705 Y77.891 E21.1895
G1 X115.853 Y80.127 E21.2731
G1 X117.07 Y82.34 E21.3571
G1 X118.339 Y84.5 E21.44043
G1 X119.668 Y86.624 E21.52376
G1 X121.081 Y88.745 E21.60853
G1 X122.524 Y90.783 E21.69158
G1 X124.046 Y92.811 E21.77592
G1 X125.594 Y94.755 E21.85857
G1 X127.229 Y96.693 E21.9429
G1 X128.909 Y98.572 E22.02674
G1 X130.641 Y100.405 E22.11061
G1 X132.411 Y102.173 E22.19382
G1 X134.25 Y103.911 E22.27798
G1 X136.129 Y105.588 E22.36175
G1 X138.046 Y107.204 E22.44514
G1 X140.014 Y108.769 E22.52877
G1 X142.041 Y110.291 E22.61308
G1 X144.078 Y111.731 E22.69605
G1 X146.22 Y113.157 E22.78163
G1 X147.015 Y113.664 E22.81299
G1 X147.783 Y114.201 E22.84416
G1 X148.503 Y114.802 E22.87536
G1 X149.17 Y115.463 E22.90659
G1 X149.777 Y116.177 E22.93776
G1 X150.29 Y116.888 E22.96692
G1 X150.788 Y117.683 E22.99812
G1 X151.216 Y118.518 E23.02933
G1 X151.571 Y119.386 E23.06052
G1 X151.852 Y120.281 E23.09172
G1 X152.055 Y121.196 E23.12289
G1 X152.179 Y122.126 E23.1541
G1 X152.224 Y123.063 E23.1853
G1 X152.189 Y124 E23.21649
G1 X152.096 Y124.792 E23.24301
G1 X151.988 Y125.475 E23.26601
G1 X149.528 Y139.432 E23.73737
G1 X149.104 Y142.053 E23.82568
G1 X148.772 Y144.552 E23.90953
G1 X148.652 Y145.597 E23.94452
G1 X148.505 Y146.523 E23.9757
G1 X148.28 Y147.434 E24.00691
G1 X147.978 Y148.321 E24.03808
G1 X147.602 Y149.18 E24.06926
G1 X147.154 Y150.004 E24.10046
G1 X146.637 Y150.787 E24.13167
G1 X146.055 Y151.523 E24.16287
G1 X145.413 Y152.206 E24.19405
G1 X144.715 Y152.833 E24.22526
G1 X143.966 Y153.397 E24.25644
G1 X143.172 Y153.896 E24.28763
G1 X142.338 Y154.325 E24.31883
G1 X141.471 Y154.682 E24.35001
G1 X140.576 Y154.964 E24.38122
G1 X139.661 Y155.168 E24.4124
G1 X138.731 Y155.294 E24.44362
G1 X138.002 Y155.336 E24.4679
G1 X137.328 Y155.35 E24.49033
G1 X113.075 Y155.35 E25.29698
G1 X110.467 Y155.387 E25.38374
G1 X107.955 Y155.494 E25.46736
G1 X105.319 Y155.681 E25.55525
G1 X104.668 Y155.736 E25.57698
G1 X103.731 Y155.775 E25.60818
G1 X102.794 Y155.734 E25.63937
G1 X101.864 Y155.613 E25.67056
G1 X100.948 Y155.413 E25.70175
G1 X100.052 Y155.136 E25.73294
G1 X99.183 Y154.784 E25.76412
G1 X98.347 Y154.359 E25.79532
G1 X97.55 Y153.864 E25.82652
G1 X96.798 Y153.303 E25.85773
G1 X96.097 Y152.68 E25.88892
G1 X95.451 Y152 E25.92011
G1 X94.866 Y151.267 E25.95131
G1 X94.346 Y150.488 E25.98246
G1 X93.986 Y149.89 E26.00567
G1 X72.159 Y112.082 E27.45768
G1 X71.821 Y111.477 E27.48073
G1 X71.399 Y110.639 E27.51194
G1 X71.05 Y109.769 E27.54312
G1 X70.86 Y109.178 E27.56377
G1 X70.613 Y108.322 E27.5934
G1 X68.217 Y99.574 E27.89507
G1 X68.058 Y98.96 E27.91617
G1 X67.862 Y98.042 E27.94739
G1 X67.745 Y97.112 E27.97857
G1 X67.709 Y96.432 E28.00121
G1 X67.684 Y95.101 E28.04549
G1 X67.685 Y77.64 E28.62625
G0 F6000 X68.085 Y77.646
G1 F1200 X68.095 Y76.944 E28.6496
G1 X68.148 Y76.025 E28.68021
G1 X68.281 Y75.114 E28.71084
G1 X68.492 Y74.218 E28.74145
G1 X68.78 Y73.343 E28.77209
G1 X69.143 Y72.497 E28.80271
G1 X69.578 Y71.686 E28.83332
G1 X70.082 Y70.915 E28.86396
G1 X70.65 Y70.191 E28.89456
G1 X71.075 Y69.725 E28.91554
G1 X71.722 Y69.062 E28.94635
G1 X72.43 Y68.369 E28.9793
G1 X73.116 Y67.754 E29.00995
G1 X73.852 Y67.201 E29.04056
G1 X74.633 Y66.714 E29.07118
G1 X75.453 Y66.296 E29.10179
G1 X76.307 Y65.952 E29.13241
G1 X77.188 Y65.683 E29.16305
G1 X78.088 Y65.491 E29.19366
G1 X79.002 Y65.378 E29.22429
G1 X79.642 Y65.346 E29.2456
G1 X80.366 Y65.334 E29.26968
G1 X100.388 Y65.333 E29.93562
G1 X101.324 Y65.35 E29.96676
G1 X102.242 Y65.41 E29.99735
G1 X103.152 Y65.549 E30.02797
G1 X104.047 Y65.766 E30.0586
G1 X104.919 Y66.06 E30.08921
G1 X105.763 Y66.429 E30.11985
G1 X106.571 Y66.869 E30.15045
G1 X107.339 Y67.378 E30.18109
G1 X108.059 Y67.952 E30.21172
G1 X108.42 Y68.281 E30.22796
G1 X108.962 Y68.806 E30.25306
G1 X109.795 Y69.652 E30.29255
G1 X110.412 Y70.335 E30.32316
G1 X110.967 Y71.07 E30.35379
G1 X111.457 Y71.85 E30.38443
G1 X111.979 Y72.901 E30.42346
G1 X113.262 Y75.803 E30.529
G1 X114.346 Y78.068 E30.61251
G1 X115.496 Y80.309 E30.69629
G1 X116.717 Y82.529 E30.78056
G1 X117.998 Y84.709 E30.86466
G1 X119.34 Y86.853 E30.94878
G1 X120.738 Y88.952 E31.03266
G1 X122.21 Y91.032 E31.11742
G1 X123.729 Y93.055 E31.20156
G1 X125.274 Y94.995 E31.28404
G1 X126.943 Y96.974 E31.37015
G1 X128.602 Y98.829 E31.45292
G1 X130.35 Y100.68 E31.5376
G1 X132.137 Y102.465 E31.62161
G1 X133.992 Y104.217 E31.70647
G1 X135.848 Y105.873 E31.7892
G1 X137.805 Y107.524 E31.87436
G1 X139.77 Y109.087 E31.95787
G1 X141.793 Y110.605 E32.04199
G1 X143.871 Y112.075 E32.12665
G1 X145.982 Y113.479 E32.21098
G1 X146.8 Y114.001 E32.24325
G1 X147.554 Y114.529 E32.27387
G1 X148.259 Y115.121 E32.30449
G1 X148.911 Y115.772 E32.33513
G1 X149.503 Y116.476 E32.36572
G1 X149.96 Y117.115 E32.39185
G1 X150.448 Y117.896 E32.42248
G1 X150.867 Y118.716 E32.45311
G1 X151.212 Y119.569 E32.48371
G1 X151.482 Y120.449 E32.51433
G1 X151.675 Y121.349 E32.54495
G1 X151.789 Y122.263 E32.57558
G1 X151.824 Y123.183 E32.6062
G1 X151.778 Y124.102 E32.63681
G1 X151.7 Y124.732 E32.65792
G1 X151.594 Y125.406 E32.68061
G1 X149.132 Y139.376 E33.15242
G1 X148.711 Y141.973 E33.23992
G1 X148.375 Y144.51 E33.32504
G1 X148.255 Y145.551 E33.35989
G1 X148.11 Y146.46 E33.39051
G1 X147.887 Y147.353 E33.42112
G1 X147.587 Y148.224 E33.45176
G1 X147.213 Y149.065 E33.48237
G1 X146.767 Y149.871 E33.51301
G1 X146.253 Y150.634 E33.54361
G1 X145.674 Y151.351 E33.57426
G1 X145.036 Y152.014 E33.60487
G1 X144.343 Y152.62 E33.63549
G1 X143.599 Y153.163 E33.66612
G1 X142.811 Y153.639 E33.69674
G1 X141.985 Y154.046 E33.72737
G1 X141.127 Y154.379 E33.75798
G1 X140.243 Y154.636 E33.7886
G1 X139.34 Y154.816 E33.81922
G1 X137.992 Y154.937 E33.86424
G1 X137.328 Y154.95 E33.88633
G1 X113.069 Y154.95 E34.69318
G1 X110.444 Y154.987 E34.7805
G1 X107.945 Y155.093 E34.86369
G1 X105.336 Y155.279 E34.95069
G1 X104.635 Y155.338 E34.97409
G1 X103.715 Y155.375 E35.00471
G1 X102.795 Y155.332 E35.03534
G1 X101.883 Y155.21 E35.06595
G1 X100.984 Y155.009 E35.09659
G1 X100.107 Y154.731 E35.12719
G1 X99.256 Y154.377 E35.15784
G1 X98.44 Y153.952 E35.18844
G1 X97.664 Y153.457 E35.21906
G1 X96.934 Y152.896 E35.24968
G1 X96.255 Y152.274 E35.2803
G1 X95.632 Y151.596 E35.31093
G1 X95.071 Y150.866 E35.34155
G1 X94.688 Y150.28 E35.36483
G1 X94.332 Y149.69 E35.38775
G1 X72.508 Y111.887 E36.83957
G1 X72.17 Y111.282 E36.86262
