;FLAVOR:Marlin
;TIME:3524
;Filament used: 2.09071m
;Layer height: 0.2
;MINX:65.444
;MINY:62.757
;MINZ:0.2
;MAXX:154.541
;MAXY:157.171
;MAXZ:8.2
;Generated with Cura_SteamEngine 5.0.0
M140 S50
M105
M190 S50
M104 S200
M105
M109 S200
M82 ;absolute extrusion mode

G28 ;Home
;G29 ;Bed levelling

G92 E0 ;Reset Extruder
G1 Z2.0 F3000 ;Move Z Axis up
G1 X10.1 Y20 Z0.28 F5000.0 ;Move to start position
G1 X10.1 Y200.0 Z0.28 F1500.0 E15 ;Draw the first line
G1 X10.4 Y200.0 Z0.28 F5000.0 ;Move to side a little
G1 X10.4 Y20 Z0.28 F1500.0 E30 ;Draw the second line
G92 E0 ;Reset Extruder
G1 Z2.0 F3000 ;Move Z Axis up
G92 E0
G92 E0
G1 F2400 E-0.8
;LAYER_COUNT:41
;LAYER:0
M107
G1 F300 Z0.8
G0 F6000 X69.292 Y67.826 Z0.8
G1 F300 Z0.2
G0 F6000 X65.446 Y77.081
;TYPE:SKIRT
G1 F2400 E0
G1 F1200 X65.457 Y76.379 E0.02335
G1 X65.513 Y75.409 E0.05567
G1 X65.647 Y74.447 E0.08797
G1 X65.861 Y73.5 E0.12026
G1 X66.151 Y72.573 E0.15257
G1 X66.517 Y71.673 E0.18488
G1 X66.956 Y70.806 E0.21721
G1 X67.465 Y69.979 E0.24951
G1 X68.039 Y69.196 E0.2818
G1 X68.766 Y68.369 E0.31842
G1 X69.292 Y67.826 E0.34356
G1 X70.49 Y66.628 E0.39991
G1 X71.02 Y66.112 E0.42452
G1 X71.743 Y65.464 E0.45681
G1 X72.517 Y64.877 E0.48912
G1 X73.337 Y64.356 E0.52143
G1 X74.197 Y63.904 E0.55374
G1 X75.091 Y63.525 E0.58604
G1 X76.013 Y63.22 E0.61834
G1 X76.958 Y62.992 E0.65067
G1 X77.917 Y62.843 E0.68295
G1 X79.05 Y62.769 E0.72072
G1 X79.84 Y62.757 E0.747
G1 X101.153 Y62.759 E1.45587
G1 X101.852 Y62.769 E1.47912
G1 X102.822 Y62.823 E1.51143
G1 X103.784 Y62.957 E1.54374
G1 X104.732 Y63.169 E1.57605
G1 X105.659 Y63.458 E1.60834
G1 X106.559 Y63.823 E1.64064
G1 X107.427 Y64.26 E1.67297
G1 X108.255 Y64.768 E1.70528
G1 X109.039 Y65.341 E1.73757
G1 X109.848 Y66.049 E1.77333
G1 X110.417 Y66.598 E1.79963
G1 X111.633 Y67.817 E1.8569
G1 X112.141 Y68.339 E1.88112
G1 X112.79 Y69.063 E1.91346
G1 X113.376 Y69.837 E1.94575
G1 X113.897 Y70.657 E1.97806
G1 X114.473 Y71.787 E2.02025
G1 X115.562 Y74.244 E2.10964
G1 X116.635 Y76.489 E2.1924
G1 X117.784 Y78.73 E2.27616
G1 X118.966 Y80.883 E2.35785
G1 X120.24 Y83.055 E2.4416
G1 X121.559 Y85.164 E2.52433
G1 X122.947 Y87.251 E2.6077
G1 X124.382 Y89.281 E2.69038
G1 X125.868 Y91.262 E2.77275
G1 X127.441 Y93.238 E2.85675
G1 X129.028 Y95.121 E2.93866
G1 X130.7 Y96.995 E3.02219
G1 X132.411 Y98.807 E3.10508
G1 X134.187 Y100.584 E3.18864
G1 X135.983 Y102.283 E3.27087
G1 X137.855 Y103.954 E3.35433
G1 X139.743 Y105.548 E3.43651
G1 X141.706 Y107.112 E3.51999
G1 X143.721 Y108.625 E3.6038
G1 X145.709 Y110.032 E3.6848
G1 X148.496 Y111.89 E3.79621
G1 X149.281 Y112.462 E3.82852
G1 X150.017 Y113.096 E3.86082
G1 X150.698 Y113.789 E3.89314
G1 X151.523 Y114.808 E3.93675
G1 X152.131 Y115.659 E3.97153
G1 X152.49 Y116.185 E3.99272
G1 X153.004 Y117.009 E4.02502
G1 X153.449 Y117.873 E4.05734
G1 X153.821 Y118.77 E4.08964
G1 X154.118 Y119.695 E4.12195
G1 X154.338 Y120.641 E4.15426
G1 X154.479 Y121.602 E4.18656
G1 X154.541 Y122.572 E4.21889
G1 X154.523 Y123.543 E4.25119
G1 X154.403 Y124.659 E4.28852
G1 X154.29 Y125.363 E4.31224
G1 X151.647 Y140.37 E4.81905
G1 X151.231 Y142.948 E4.90591
G1 X151.007 Y144.573 E4.96047
G1 X150.864 Y145.675 E4.99743
G1 X150.699 Y146.632 E5.02973
G1 X150.457 Y147.573 E5.06204
G1 X150.138 Y148.49 E5.09433
G1 X149.744 Y149.378 E5.12665
G1 X149.279 Y150.231 E5.15896
G1 X148.745 Y151.043 E5.19128
G1 X148.146 Y151.807 E5.22357
G1 X147.486 Y152.52 E5.25589
G1 X146.77 Y153.177 E5.28821
G1 X145.967 Y153.797 E5.32195
G1 X145.678 Y154.001 E5.33372
G1 X144.862 Y154.528 E5.36602
G1 X144.005 Y154.986 E5.39834
G1 X143.114 Y155.373 E5.43065
G1 X142.194 Y155.684 E5.46295
G1 X141.251 Y155.919 E5.49528
G1 X140.293 Y156.075 E5.52756
G1 X139.324 Y156.152 E5.55989
G1 X138.766 Y156.161 E5.57845
G1 X138.136 Y156.151 E5.59941
G1 X136.088 Y156.08 E5.66757
G1 X134.293 Y156.062 E5.72727
G1 X117.739 Y156.062 E6.27786
G1 X115.129 Y156.099 E6.36468
G1 X112.656 Y156.204 E6.447
G1 X110.199 Y156.378 E6.52893
G1 X107.665 Y156.629 E6.61362
G1 X105.221 Y156.941 E6.69557
G1 X104.385 Y157.059 E6.72365
G1 X103.418 Y157.155 E6.75597
G1 X102.447 Y157.171 E6.78827
G1 X101.701 Y157.129 E6.81312
G1 X101.338 Y157.097 E6.82524
G1 X100.374 Y156.972 E6.85757
G1 X99.425 Y156.768 E6.88986
G1 X98.495 Y156.487 E6.92217
G1 X97.591 Y156.13 E6.9545
G1 X96.72 Y155.7 E6.98681
G1 X95.888 Y155.2 E7.01909
G1 X95.099 Y154.633 E7.05141
G1 X94.359 Y154.004 E7.08371
G1 X93.674 Y153.315 E7.11602
G1 X93.048 Y152.572 E7.14834
G1 X92.237 Y151.383 E7.19621
G1 X91.812 Y150.668 E7.22387
G1 X70.129 Y113.102 E8.66652
G1 X69.792 Y112.501 E8.68944
G1 X69.352 Y111.635 E8.72174
G1 X68.985 Y110.736 E8.75404
G1 X68.746 Y110 E8.77978
G1 X68.491 Y109.11 E8.81057
G1 X66.009 Y100.039 E9.12336
G1 X65.846 Y99.412 E9.14491
G1 X65.64 Y98.463 E9.17721
G1 X65.513 Y97.499 E9.20955
G1 X65.468 Y96.685 E9.23666
G1 X65.444 Y95.37 E9.28041
G1 X65.446 Y77.081 E9.8887
G0 F6000 X65.846 Y77.087
G1 F1200 X65.857 Y76.385 E9.91205
G1 X65.912 Y75.432 E9.9438
G1 X66.047 Y74.487 E9.97555
G1 X66.26 Y73.556 E10.00732
G1 X66.55 Y72.647 E10.03905
G1 X66.916 Y71.765 E10.07081
G1 X67.353 Y70.916 E10.10257
G1 X67.861 Y70.107 E10.13435
G1 X68.434 Y69.344 E10.16608
G1 X69.053 Y68.647 E10.19709
G1 X69.576 Y68.108 E10.22207
G1 X70.769 Y66.915 E10.27818
G1 X71.299 Y66.399 E10.30278
G1 X72.01 Y65.762 E10.33454
G1 X72.772 Y65.187 E10.36629
G1 X73.58 Y64.678 E10.39805
G1 X74.427 Y64.238 E10.42979
G1 X75.308 Y63.87 E10.46155
G1 X76.217 Y63.578 E10.4933
G1 X77.148 Y63.363 E10.52508
G1 X78.092 Y63.226 E10.55681
G1 X79.057 Y63.169 E10.58896
G1 X79.84 Y63.157 E10.61501
G1 X101.147 Y63.159 E11.32368
G1 X101.846 Y63.169 E11.34693
G1 X102.799 Y63.223 E11.37868
G1 X103.745 Y63.356 E11.41045
G1 X104.676 Y63.568 E11.44221
G1 X105.586 Y63.857 E11.47397
G1 X106.468 Y64.221 E11.5057
G1 X107.317 Y64.658 E11.53746
G1 X108.127 Y65.164 E11.56923
G1 X108.891 Y65.736 E11.60097
G1 X109.572 Y66.338 E11.6312
G1 X110.134 Y66.881 E11.6572
G1 X111.347 Y68.096 E11.7143
G1 X111.855 Y68.618 E11.73852
G1 X112.491 Y69.33 E11.77028
G1 X113.066 Y70.092 E11.80203
G1 X113.575 Y70.9 E11.83379
G1 X114.107 Y71.949 E11.87291
G1 X115.193 Y74.399 E11.96204
G1 X116.282 Y76.68 E12.04611
G1 X117.421 Y78.898 E12.12904
G1 X118.628 Y81.099 E12.21253
G1 X119.889 Y83.248 E12.29541
G1 X121.231 Y85.392 E12.37953
G1 X122.604 Y87.458 E12.46204
G1 X124.068 Y89.529 E12.54639
G1 X125.551 Y91.505 E12.62857
G1 X127.121 Y93.479 E12.71246
G1 X128.74 Y95.4 E12.79601
G1 X130.412 Y97.273 E12.87952
G1 X132.12 Y99.082 E12.96227
G1 X133.893 Y100.856 E13.04569
G1 X135.708 Y102.573 E13.12879
G1 X137.594 Y104.257 E13.21288
G1 X139.503 Y105.868 E13.29596
G1 X141.479 Y107.442 E13.37999
G1 X143.455 Y108.927 E13.4622
G1 X145.502 Y110.375 E13.5456
G1 X148.274 Y112.223 E13.6564
G1 X149.045 Y112.785 E13.68814
G1 X149.767 Y113.41 E13.7199
G1 X150.434 Y114.094 E13.75167
G1 X151.198 Y115.042 E13.79217
G1 X151.801 Y115.885 E13.82664
G1 X152.16 Y116.411 E13.84782
G1 X152.665 Y117.221 E13.87957
G1 X153.1 Y118.071 E13.91133
G1 X153.462 Y118.954 E13.94307
G1 X153.75 Y119.865 E13.97485
G1 X153.96 Y120.796 E14.00659
G1 X154.091 Y121.742 E14.03836
G1 X154.143 Y122.695 E14.0701
G1 X154.115 Y123.649 E14.10184
G1 X154.007 Y124.597 E14.13358
G1 X153.896 Y125.294 E14.15705
G1 X151.251 Y140.315 E14.66434
G1 X150.831 Y142.916 E14.75197
G1 X150.61 Y144.518 E14.80576
G1 X150.467 Y145.623 E14.84282
G1 X150.305 Y146.564 E14.87457
G1 X150.064 Y147.488 E14.90633
G1 X149.747 Y148.389 E14.9381
G1 X149.356 Y149.26 E14.96986
G1 X148.893 Y150.095 E15.00161
G1 X148.362 Y150.888 E15.03336
G1 X147.767 Y151.635 E15.06512
G1 X147.111 Y152.329 E15.09688
G1 X146.399 Y152.965 E15.12863
G1 X145.736 Y153.47 E15.15635
G1 X145.447 Y153.674 E15.16812
G1 X144.645 Y154.192 E15.19988
G1 X143.802 Y154.64 E15.23163
G1 X142.924 Y155.017 E15.26341
G1 X142.019 Y155.318 E15.29513
G1 X141.091 Y155.543 E15.32689
G1 X140.147 Y155.69 E15.35866
G1 X138.769 Y155.761 E15.40456
G1 X138.15 Y155.751 E15.42515
G1 X136.106 Y155.681 E15.49317
G1 X134.297 Y155.662 E15.55334
G1 X117.733 Y155.662 E16.10426
G1 X115.142 Y155.699 E16.19045
G1 X112.609 Y155.806 E16.27477
G1 X110.135 Y155.982 E16.35727
G1 X107.642 Y156.229 E16.44059
G1 X105.192 Y156.541 E16.52274
G1 X104.329 Y156.663 E16.55172
G1 X103.379 Y156.757 E16.58348
G1 X102.424 Y156.771 E16.61524
G1 X101.736 Y156.731 E16.63816
G1 X101.373 Y156.699 E16.65028
G1 X100.426 Y156.575 E16.68205
G1 X99.493 Y156.373 E16.7138
G1 X98.58 Y156.093 E16.74556
G1 X97.694 Y155.738 E16.77731
G1 X96.841 Y155.31 E16.80905
G1 X96.026 Y154.812 E16.84082
G1 X95.256 Y154.248 E16.87256
G1 X94.536 Y153.621 E16.90432
G1 X93.87 Y152.936 E16.9361
G1 X93.265 Y152.198 E16.96784
G1 X92.581 Y151.178 E17.00868
G1 X92.159 Y150.468 E17.03615
G1 X70.478 Y112.907 E18.47862
G1 X70.141 Y112.306 E18.50154
G1 X69.709 Y111.454 E18.53331
G1 X69.35 Y110.569 E18.56508
G1 X69.131 Y109.889 E18.58884
G1 X68.876 Y109.005 E18.61944
G1 X66.396 Y99.938 E18.93208
G1 X66.233 Y99.311 E18.95363
G1 X66.031 Y98.378 E18.98538
G1 X65.909 Y97.431 E19.01714
G1 X65.868 Y96.677 E19.04226
G1 X65.844 Y95.37 E19.08573
G1 X65.846 Y77.087 E19.69383
G0 F6000 X66.246 Y77.094
G1 F1200 X66.257 Y76.392 E19.71718
G1 X66.312 Y75.455 E19.7484
G1 X66.446 Y74.527 E19.77958
G1 X66.659 Y73.614 E19.81077
G1 X66.949 Y72.722 E19.84196
G1 X67.314 Y71.858 E19.87316
G1 X67.751 Y71.028 E19.90436
G1 X68.257 Y70.238 E19.93556
G1 X68.828 Y69.495 E19.96673
G1 X69.341 Y68.925 E19.99223
G1 X69.859 Y68.391 E20.01698
G1 X71.048 Y67.201 E20.07293
G1 X71.578 Y66.685 E20.09753
G1 X72.277 Y66.06 E20.12872
G1 X73.027 Y65.497 E20.15991
G1 X73.822 Y65 E20.19109
G1 X74.657 Y64.572 E20.2223
G1 X75.525 Y64.217 E20.25349
G1 X76.42 Y63.938 E20.28467
G1 X77.336 Y63.735 E20.31588
G1 X78.265 Y63.611 E20.34705
G1 X79.064 Y63.569 E20.37366
G1 X79.84 Y63.557 E20.39947
G1 X101.141 Y63.559 E21.10795
G1 X101.84 Y63.569 E21.1312
G1 X102.777 Y63.623 E21.16242
G1 X103.705 Y63.755 E21.19359
G1 X104.619 Y63.967 E21.2248
G1 X105.511 Y64.256 E21.25599
G1 X106.376 Y64.619 E21.28719
G1 X107.206 Y65.055 E21.31837
G1 X107.996 Y65.56 E21.34955
G1 X108.741 Y66.131 E21.38077
G1 X109.295 Y66.627 E21.40551
G1 X109.851 Y67.163 E21.43119
G1 X111.06 Y68.375 E21.48813
G1 X111.568 Y68.897 E21.51236
G1 X112.193 Y69.597 E21.54357
G1 X112.756 Y70.347 E21.57476
G1 X113.253 Y71.142 E21.60594
G1 X113.741 Y72.111 E21.64203
G1 X114.83 Y74.569 E21.73145
G1 X115.916 Y76.842 E21.81523
G1 X117.072 Y79.094 E21.89943
G1 X118.275 Y81.288 E21.98265
G1 X119.558 Y83.473 E22.06692
G1 X120.881 Y85.588 E22.1499
G1 X122.288 Y87.705 E22.23444
G1 X123.737 Y89.754 E22.31791
G1 X125.234 Y91.749 E22.40087
G1 X126.818 Y93.74 E22.48549
G1 X128.437 Y95.661 E22.56905
G1 X130.104 Y97.529 E22.65232
G1 X131.847 Y99.375 E22.73676
G1 X133.618 Y101.147 E22.82009
G1 X135.449 Y102.879 E22.90392
G1 X137.315 Y104.545 E22.98712
G1 X139.241 Y106.171 E23.07095
G1 X141.235 Y107.759 E23.15574
G1 X143.23 Y109.257 E23.23871
G1 X145.271 Y110.702 E23.32189
G1 X148.052 Y112.556 E23.43306
G1 X148.809 Y113.109 E23.46424
G1 X149.517 Y113.724 E23.49543
G1 X150.17 Y114.398 E23.52664
G1 X150.874 Y115.276 E23.56407
G1 X151.471 Y116.11 E23.59818
G1 X151.83 Y116.636 E23.61937
G1 X152.325 Y117.432 E23.65054
G1 X152.75 Y118.268 E23.68173
G1 X153.103 Y119.137 E23.71293
G1 X153.381 Y120.033 E23.74413
G1 X153.581 Y120.949 E23.77532
G1 X153.702 Y121.879 E23.80651
G1 X153.744 Y122.816 E23.83771
G1 X153.706 Y123.753 E23.8689
G1 X153.612 Y124.535 E23.89509
G1 X153.502 Y125.225 E23.91833
G1 X150.855 Y140.259 E24.42606
G1 X150.437 Y142.842 E24.51309
G1 X150.226 Y144.377 E24.56462
G1 X150.071 Y145.572 E24.6047
G1 X149.91 Y146.496 E24.63589
G1 X149.672 Y147.403 E24.66708
G1 X149.357 Y148.287 E24.6983
G1 X148.969 Y149.14 E24.72946
G1 X148.508 Y149.957 E24.76066
G1 X147.98 Y150.732 E24.79185
G1 X147.388 Y151.46 E24.82306
G1 X146.736 Y152.134 E24.85425
G1 X146.029 Y152.75 E24.88544
G1 X145.506 Y153.144 E24.90722
G1 X145.217 Y153.348 E24.91899
G1 X144.428 Y153.855 E24.95018
G1 X143.599 Y154.294 E24.98138
G1 X142.736 Y154.66 E25.01256
G1 X141.844 Y154.952 E25.04377
G1 X140.931 Y155.167 E25.07497
G1 X140.003 Y155.303 E25.10617
G1 X138.773 Y155.361 E25.14712
G1 X138.164 Y155.351 E25.16738
G1 X136.124 Y155.281 E25.23527
G1 X134.301 Y155.262 E25.29591
G1 X117.728 Y155.262 E25.84713
G1 X115.12 Y155.299 E25.93388
G1 X112.598 Y155.406 E26.01784
G1 X110.104 Y155.583 E26.101
G1 X107.619 Y155.829 E26.18405
G1 X105.088 Y156.152 E26.26892
G1 X104.273 Y156.267 E26.29629
G1 X103.34 Y156.358 E26.32747
G1 X102.402 Y156.37 E26.35867
G1 X101.771 Y156.333 E26.37969
G1 X101.408 Y156.301 E26.39181
G1 X100.478 Y156.178 E26.42302
G1 X99.562 Y155.978 E26.4542
G1 X98.666 Y155.699 E26.48541
G1 X97.798 Y155.346 E26.51658
G1 X96.962 Y154.92 E26.54779
G1 X96.166 Y154.424 E26.57898
G1 X95.415 Y153.862 E26.61018
G1 X94.715 Y153.238 E26.64137
G1 X94.07 Y152.557 E26.67256
G1 X93.486 Y151.824 E26.70374
G1 X92.924 Y150.973 E26.73766
G1 X92.505 Y150.268 E26.76493
G1 X70.826 Y112.711 E28.20725
G1 X70.489 Y112.11 E28.23017
G1 X70.066 Y111.273 E28.26136
G1 X69.715 Y110.403 E28.29256
G1 X69.515 Y109.779 E28.31436
G1 X69.262 Y108.899 E28.34481
G1 X66.783 Y99.838 E28.65726
G1 X66.62 Y99.211 E28.67881
G1 X66.423 Y98.294 E28.71
G1 X66.305 Y97.363 E28.74121
G1 X66.268 Y96.669 E28.76433
G1 X66.244 Y95.37 E28.80754
G1 X66.246 Y77.094 E29.4154
G0 F6000 X66.646 Y77.1
G1 F1200 X66.657 Y76.398 E29.43876
G1 X66.712 Y75.479 E29.46938
G1 X66.846 Y74.568 E29.5
G1 X67.058 Y73.672 E29.53063
G1 X67.347 Y72.798 E29.56124
G1 X67.712 Y71.953 E29.59186
G1 X68.148 Y71.142 E29.62248
G1 X68.653 Y70.372 E29.65311
G1 X69.222 Y69.649 E29.68371
G1 X69.629 Y69.203 E29.70379
G1 X70.142 Y68.674 E29.7283
G1 X71.327 Y67.488 E29.78406
G1 X71.857 Y66.972 E29.80867
G1 X72.544 Y66.359 E29.83929
G1 X73.281 Y65.808 E29.8699
G1 X74.064 Y65.323 E29.90053
G1 X74.885 Y64.908 E29.93113
G1 X75.74 Y64.565 E29.96177
G1 X76.621 Y64.298 E29.99239
G1 X77.522 Y64.109 E30.02301
G1 X78.436 Y63.998 E30.05363
G1 X79.071 Y63.969 E30.07477
G1 X79.84 Y63.957 E30.10035
G1 X101.136 Y63.959 E30.80866
G1 X101.835 Y63.969 E30.83191
G1 X102.754 Y64.022 E30.86253
G1 X103.665 Y64.155 E30.89315
G1 X104.561 Y64.366 E30.92376
G1 X105.435 Y64.654 E30.95437
G1 X106.281 Y65.017 E30.98499
G1 X107.093 Y65.452 E31.01563
G1 X107.863 Y65.956 E31.04624
G1 X108.587 Y66.525 E31.07686
G1 X109.018 Y66.916 E31.09622
G1 X109.568 Y67.446 E31.12162
G1 X110.774 Y68.654 E31.1784
G1 X111.282 Y69.176 E31.20262
G1 X111.894 Y69.863 E31.23322
G1 X112.445 Y70.601 E31.26386
G1 X112.93 Y71.384 E31.29449
G1 X113.376 Y72.274 E31.3276
G1 X114.469 Y74.74 E31.41732
G1 X115.564 Y77.032 E31.5018
G1 X116.723 Y79.291 E31.58625
G1 X117.922 Y81.477 E31.66917
G1 X119.207 Y83.666 E31.7536
G1 X120.552 Y85.816 E31.83795
G1 X121.945 Y87.911 E31.92162
G1 X123.424 Y90.003 E32.00684
G1 X124.916 Y91.992 E32.08953
G1 X126.501 Y93.983 E32.17418
G1 X128.131 Y95.918 E32.25833
G1 X129.816 Y97.806 E32.34249
G1 X131.573 Y99.667 E32.42762
G1 X133.343 Y101.438 E32.5109
G1 X135.154 Y103.151 E32.59381
G1 X137.074 Y104.866 E32.67943
G1 X138.996 Y106.488 E32.76308
G1 X140.952 Y108.046 E32.84625
G1 X143.004 Y109.587 E32.93161
G1 X145.064 Y111.046 E33.01557
G1 X147.83 Y112.889 E33.12612
G1 X148.573 Y113.432 E33.15672
G1 X149.267 Y114.038 E33.18737
G1 X149.905 Y114.702 E33.21799
G1 X150.549 Y115.51 E33.25236
G1 X151.14 Y116.335 E33.28611
G1 X151.499 Y116.861 E33.3073
G1 X151.985 Y117.644 E33.33795
G1 X152.4 Y118.465 E33.36854
G1 X152.743 Y119.32 E33.39918
G1 X153.011 Y120.2 E33.42978
G1 X153.201 Y121.101 E33.46041
G1 X153.312 Y122.015 E33.49103
G1 X153.344 Y122.935 E33.52165
G1 X153.295 Y123.855 E33.55229
G1 X153.217 Y124.473 E33.57301
G1 X153.108 Y125.155 E33.59598
G1 X150.46 Y140.191 E34.10377
G1 X150.045 Y142.762 E34.19039
G1 X149.818 Y144.409 E34.24569
G1 X149.674 Y145.52 E34.28295
G1 X149.516 Y146.427 E34.31357
G1 X149.28 Y147.317 E34.3442
G1 X148.968 Y148.183 E34.37481
G1 X148.581 Y149.019 E34.40545
G1 X148.124 Y149.818 E34.43607
G1 X147.599 Y150.574 E34.46668
G1 X147.01 Y151.282 E34.49731
G1 X146.362 Y151.936 E34.52793
G1 X145.66 Y152.532 E34.55856
G1 X144.986 Y153.021 E34.58626
G1 X144.211 Y153.519 E34.6169
