;FLAVOR:Marlin
;TIME:3610
;Filament used: 1.72394m
;Layer height: 0.2
;MINX:65.894
;MINY:85.887
;MINZ:0.2
;MAXX:148.106
;MAXY:136.112
;MAXZ:10
;Generated with Cura_SteamEngine 5.0.0
M140 S50
M105
M190 S50
M104 S200
M105
M109 S200
M82 ;absolute extrusion mode

G28 ;Home
;G29 ;Bed levelling

G92 E0 ;Reset Extruder
G1 Z2.0 F3000 ;Move Z Axis up
G1 X10.1 Y20 Z0.28 F5000.0 ;Move to start position
G1 X10.1 Y200.0 Z0.28 F1500.0 E15 ;Draw the first line
G1 X10.4 Y200.0 Z0.28 F5000.0 ;Move to side a little
G1 X10.4 Y20 Z0.28 F1500.0 E30 ;Draw the second line
G92 E0 ;Reset Extruder
G1 Z2.0 F3000 ;Move Z Axis up
G92 E0
G92 E0
G1 F2400 E-0.8
;LAYER_COUNT:50
;LAYER:0
M107
G1 F300 Z0.8
G0 F6000 X76.532 Y88.587 Z0.8
G1 F300 Z0.2
G0 F6000 X69.501 Y98.965
;TYPE:SKIRT
G1 F2400 E0
G1 F1200 X69.629 Y98.296 E0.02265
G1 X69.851 Y97.35 E0.05497
G1 X70.15 Y96.425 E0.08731
G1 X70.523 Y95.529 E0.11959
G1 X70.97 Y94.666 E0.15191
G1 X71.485 Y93.843 E0.1842
G1 X72.067 Y93.065 E0.21652
G1 X72.653 Y92.397 E0.24607
G1 X73.162 Y91.866 E0.27054
G1 X75.309 Y89.72 E0.3715
G1 X75.808 Y89.235 E0.39465
G1 X76.532 Y88.587 E0.42696
G1 X77.306 Y88.001 E0.45925
G1 X78.126 Y87.481 E0.49155
G1 X78.987 Y87.03 E0.52388
G1 X79.881 Y86.651 E0.55617
G1 X80.804 Y86.347 E0.58849
G1 X81.748 Y86.12 E0.62079
G1 X82.708 Y85.971 E0.6531
G1 X83.816 Y85.899 E0.69003
G1 X84.577 Y85.887 E0.71534
G1 X135.294 Y85.888 E2.4022
G1 X135.995 Y85.898 E2.42551
G1 X136.965 Y85.952 E2.45783
G1 X137.927 Y86.085 E2.49013
G1 X138.875 Y86.298 E2.52244
G1 X139.803 Y86.587 E2.55477
G1 X140.703 Y86.952 E2.58707
G1 X141.57 Y87.389 E2.61937
G1 X142.399 Y87.896 E2.65169
G1 X143.183 Y88.47 E2.684
G1 X143.907 Y89.097 E2.71586
G1 X144.494 Y89.668 E2.7431
G1 X144.781 Y89.965 E2.75683
G1 X145.427 Y90.691 E2.78916
G1 X146.011 Y91.467 E2.82146
G1 X146.529 Y92.289 E2.85377
G1 X146.978 Y93.151 E2.8861
G1 X147.354 Y94.046 E2.91839
G1 X147.655 Y94.97 E2.95071
G1 X147.879 Y95.915 E2.98301
G1 X148.025 Y96.875 E3.01531
G1 X148.094 Y97.923 E3.05024
G1 X148.106 Y98.652 E3.07449
G1 X148.104 Y122.6 E3.871
G1 X148.094 Y123.298 E3.89422
G1 X148.04 Y124.268 E3.92653
G1 X147.906 Y125.23 E3.95884
G1 X147.694 Y126.178 E3.99115
G1 X147.405 Y127.105 E4.02344
G1 X147.04 Y128.006 E4.05578
G1 X146.603 Y128.873 E4.08807
G1 X146.095 Y129.701 E4.12038
G1 X145.521 Y130.485 E4.1527
G1 X145.001 Y131.094 E4.17933
G1 X144.398 Y131.725 E4.20836
G1 X144.057 Y132.057 E4.22419
G1 X143.333 Y132.705 E4.25651
G1 X142.559 Y133.292 E4.28882
G1 X141.739 Y133.813 E4.32113
G1 X140.879 Y134.265 E4.35344
G1 X139.985 Y134.644 E4.38574
G1 X139.063 Y134.949 E4.41804
G1 X138.119 Y135.177 E4.45034
G1 X137.159 Y135.326 E4.48265
G1 X136.036 Y135.4 E4.52008
G1 X135.267 Y135.412 E4.54566
G1 X130.003 Y135.412 E4.72075
G1 X127.394 Y135.449 E4.80753
G1 X124.919 Y135.554 E4.88992
G1 X122.417 Y135.731 E4.97335
G1 X120.65 Y135.899 E5.03238
G1 X119.389 Y136.032 E5.07456
G1 X118.347 Y136.095 E5.10928
G1 X117.239 Y136.112 E5.14613
G1 X102.014 Y136.11 E5.65252
G1 X101.273 Y136.097 E5.67717
G1 X100.317 Y136.042 E5.70902
G1 X99.293 Y135.939 E5.74325
G1 X98.532 Y135.852 E5.76872
G1 X96.046 Y135.639 E5.85171
G1 X93.538 Y135.495 E5.93527
G1 X91.037 Y135.422 E6.01848
G1 X89.663 Y135.412 E6.06419
G1 X85.642 Y135.412 E6.19792
G1 X84.705 Y135.397 E6.22909
G1 X83.428 Y135.305 E6.27168
G1 X82.271 Y135.156 E6.31048
G1 X81.658 Y135.068 E6.33107
G1 X79.204 Y134.789 E6.41322
G1 X77.654 Y134.655 E6.46497
G1 X76.997 Y134.587 E6.48693
G1 X76.036 Y134.448 E6.51923
G1 X75.089 Y134.229 E6.55156
G1 X74.164 Y133.934 E6.58385
G1 X73.266 Y133.563 E6.61617
G1 X72.402 Y133.12 E6.64846
G1 X71.577 Y132.608 E6.68076
G1 X70.796 Y132.029 E6.71309
G1 X70.147 Y131.464 E6.74171
G1 X69.539 Y130.871 E6.76996
G1 X69.187 Y130.504 E6.78687
G1 X68.544 Y129.776 E6.81918
G1 X67.963 Y128.997 E6.8515
G1 X67.448 Y128.174 E6.88379
G1 X67.003 Y127.31 E6.91612
G1 X66.63 Y126.413 E6.94843
G1 X66.332 Y125.489 E6.98072
G1 X66.111 Y124.543 E7.01303
G1 X65.969 Y123.582 E7.04534
G1 X65.904 Y122.507 E7.08116
G1 X65.894 Y121.621 E7.11063
G1 X65.904 Y120.377 E7.15201
G1 X65.952 Y119.407 E7.18431
G1 X66.05 Y118.62 E7.21069
G1 X66.219 Y117.567 E7.24616
G1 X69.501 Y98.965 E7.87442
G0 F6000 X69.894 Y99.04
G1 F1200 X70.022 Y98.371 E7.89707
G1 X70.241 Y97.441 E7.92885
G1 X70.536 Y96.533 E7.9606
G1 X70.907 Y95.653 E7.99237
G1 X71.349 Y94.808 E8.02409
G1 X71.862 Y94.002 E8.05586
G1 X72.439 Y93.241 E8.08763
G1 X72.944 Y92.672 E8.11293
G1 X73.445 Y92.149 E8.13702
G1 X75.587 Y90.007 E8.23777
G1 X76.086 Y89.522 E8.26092
G1 X76.798 Y88.886 E8.29267
G1 X77.561 Y88.312 E8.32443
G1 X78.369 Y87.803 E8.35619
G1 X79.217 Y87.364 E8.38795
G1 X80.098 Y86.997 E8.41969
G1 X81.008 Y86.705 E8.45148
G1 X81.938 Y86.491 E8.48322
G1 X82.883 Y86.355 E8.51497
G1 X83.823 Y86.299 E8.54629
G1 X84.577 Y86.287 E8.57137
G1 X135.289 Y86.288 E10.25806
G1 X135.99 Y86.298 E10.28138
G1 X136.943 Y86.352 E10.31313
G1 X137.888 Y86.485 E10.34487
G1 X138.819 Y86.697 E10.37663
G1 X139.729 Y86.986 E10.40838
G1 X140.612 Y87.35 E10.44015
G1 X141.461 Y87.786 E10.47189
G1 X142.271 Y88.293 E10.50368
G1 X143.035 Y88.865 E10.53542
G1 X143.633 Y89.389 E10.56186
G1 X144.207 Y89.946 E10.58847
G1 X144.494 Y90.243 E10.6022
G1 X145.128 Y90.957 E10.63396
G1 X145.7 Y91.721 E10.66571
G1 X146.206 Y92.531 E10.69747
G1 X146.643 Y93.38 E10.72923
G1 X147.007 Y94.262 E10.76097
G1 X147.296 Y95.172 E10.79272
G1 X147.508 Y96.103 E10.82448
G1 X147.641 Y97.049 E10.85625
G1 X147.694 Y97.931 E10.88564
G1 X147.706 Y98.652 E10.90963
G1 X147.704 Y122.594 E11.70594
G1 X147.694 Y123.292 E11.72916
G1 X147.64 Y124.246 E11.76094
G1 X147.507 Y125.191 E11.79268
G1 X147.295 Y126.122 E11.82444
G1 X147.006 Y127.032 E11.85619
G1 X146.642 Y127.915 E11.88796
G1 X146.205 Y128.764 E11.91972
G1 X145.699 Y129.573 E11.95146
G1 X145.127 Y130.337 E11.9832
G1 X144.577 Y130.965 E12.01096
G1 X144.119 Y131.438 E12.03286
G1 X143.778 Y131.77 E12.04869
G1 X143.066 Y132.407 E12.08047
G1 X142.304 Y132.982 E12.11222
G1 X141.496 Y133.491 E12.14398
G1 X140.649 Y133.931 E12.17573
G1 X139.768 Y134.299 E12.20748
G1 X138.859 Y134.591 E12.23924
G1 X137.929 Y134.806 E12.27098
G1 X136.984 Y134.943 E12.30274
G1 X136.029 Y135 E12.33456
G1 X135.267 Y135.012 E12.35991
G1 X129.997 Y135.012 E12.53519
G1 X127.407 Y135.049 E12.62134
G1 X124.872 Y135.156 E12.70573
G1 X122.394 Y135.332 E12.78836
G1 X120.571 Y135.505 E12.84927
G1 X119.347 Y135.634 E12.8902
G1 X118.34 Y135.695 E12.92376
G1 X117.239 Y135.712 E12.96038
G1 X102.021 Y135.71 E13.46653
G1 X101.28 Y135.697 E13.49118
G1 X100.356 Y135.643 E13.52197
G1 X99.338 Y135.541 E13.556
G1 X98.572 Y135.454 E13.58164
G1 X96.07 Y135.239 E13.66516
G1 X93.573 Y135.095 E13.74835
G1 X91.051 Y135.022 E13.83227
G1 X89.666 Y135.012 E13.87833
G1 X85.642 Y135.012 E14.01217
G1 X84.713 Y134.997 E14.04307
G1 X83.479 Y134.908 E14.08422
G1 X82.328 Y134.76 E14.12282
G1 X81.723 Y134.674 E14.14315
G1 X79.216 Y134.388 E14.22707
G1 X77.695 Y134.257 E14.27785
G1 X77.038 Y134.189 E14.29981
G1 X76.094 Y134.051 E14.33155
G1 X75.164 Y133.835 E14.3633
G1 X74.255 Y133.541 E14.39508
G1 X73.374 Y133.173 E14.42683
G1 X72.528 Y132.732 E14.45856
G1 X71.721 Y132.221 E14.49033
G1 X70.959 Y131.645 E14.5221
G1 X70.42 Y131.172 E14.54595
G1 X69.828 Y130.594 E14.57347
G1 X69.476 Y130.227 E14.59039
G1 X68.844 Y129.511 E14.62215
G1 X68.275 Y128.745 E14.65389
G1 X67.772 Y127.933 E14.68566
G1 X67.338 Y127.082 E14.71743
G1 X66.977 Y126.198 E14.74919
G1 X66.692 Y125.287 E14.78094
G1 X66.483 Y124.356 E14.81267
G1 X66.354 Y123.41 E14.84443
G1 X66.304 Y122.501 E14.87471
G1 X66.294 Y121.624 E14.90388
G1 X66.304 Y120.38 E14.94526
G1 X66.352 Y119.427 E14.97699
G1 X66.445 Y118.683 E15.00193
G1 X66.613 Y117.636 E15.0372
G1 X69.894 Y99.04 E15.66526
G0 F6000 X70.287 Y99.115
G1 F1200 X70.415 Y98.446 E15.68791
G1 X70.63 Y97.533 E15.71911
G1 X70.923 Y96.642 E15.75031
G1 X71.29 Y95.779 E15.7815
G1 X71.729 Y94.95 E15.8127
G1 X72.238 Y94.162 E15.8439
G1 X72.811 Y93.42 E15.87508
G1 X73.234 Y92.947 E15.89618
G1 X73.728 Y92.432 E15.91992
G1 X75.866 Y90.294 E16.02048
G1 X76.365 Y89.809 E16.04363
G1 X77.065 Y89.185 E16.07482
G1 X77.816 Y88.622 E16.10604
G1 X78.611 Y88.125 E16.13722
G1 X79.446 Y87.698 E16.16841
G1 X80.315 Y87.344 E16.19962
G1 X81.21 Y87.065 E16.2308
G1 X82.126 Y86.863 E16.262
G1 X83.056 Y86.74 E16.2932
G1 X83.83 Y86.699 E16.31898
G1 X84.577 Y86.687 E16.34383
G1 X135.283 Y86.688 E18.03032
G1 X135.984 Y86.698 E18.05364
G1 X136.92 Y86.751 E18.08482
G1 X137.849 Y86.884 E18.11603
G1 X138.762 Y87.096 E18.14721
G1 X139.655 Y87.384 E18.17841
G1 X140.519 Y87.748 E18.2096
G1 X141.35 Y88.184 E18.24081
G1 X142.14 Y88.689 E18.27199
G1 X142.884 Y89.259 E18.30317
G1 X143.359 Y89.68 E18.32428
G1 X143.919 Y90.224 E18.35025
G1 X144.206 Y90.521 E18.36398
G1 X144.829 Y91.223 E18.3952
G1 X145.389 Y91.975 E18.42638
G1 X145.883 Y92.772 E18.45757
G1 X146.308 Y93.608 E18.48876
G1 X146.66 Y94.478 E18.51998
G1 X146.936 Y95.374 E18.55116
G1 X147.135 Y96.29 E18.58234
G1 X147.255 Y97.22 E18.61353
G1 X147.294 Y97.939 E18.63748
G1 X147.306 Y98.652 E18.66119
G1 X147.304 Y122.589 E19.45734
G1 X147.294 Y123.287 E19.48056
G1 X147.24 Y124.223 E19.51174
G1 X147.108 Y125.151 E19.54292
G1 X146.896 Y126.065 E19.57413
G1 X146.607 Y126.957 E19.60531
G1 X146.244 Y127.822 E19.63651
G1 X145.808 Y128.652 E19.6677
G1 X145.303 Y129.443 E19.69891
G1 X144.732 Y130.187 E19.7301
G1 X144.282 Y130.695 E19.75267
G1 X143.839 Y131.151 E19.77382
G1 X143.498 Y131.483 E19.78965
G1 X142.799 Y132.108 E19.82084
G1 X142.049 Y132.672 E19.85205
G1 X141.254 Y133.169 E19.88323
G1 X140.419 Y133.597 E19.91444
G1 X139.551 Y133.952 E19.94563
G1 X138.656 Y134.231 E19.97681
G1 X137.74 Y134.434 E20.00802
G1 X136.811 Y134.558 E20.03919
G1 X136.022 Y134.6 E20.06547
G1 X135.267 Y134.612 E20.09058
G1 X129.992 Y134.612 E20.26603
G1 X127.384 Y134.649 E20.35278
G1 X124.863 Y134.756 E20.43671
G1 X122.368 Y134.933 E20.5199
G1 X120.502 Y135.11 E20.58224
G1 X119.305 Y135.236 E20.62227
G1 X118.334 Y135.296 E20.65463
G1 X117.239 Y135.312 E20.69105
G1 X102.028 Y135.31 E21.19697
G1 X101.287 Y135.297 E21.22162
G1 X100.396 Y135.245 E21.25131
G1 X99.384 Y135.144 E21.28514
G1 X98.62 Y135.057 E21.31071
G1 X96.091 Y134.84 E21.39513
G1 X93.572 Y134.695 E21.47906
G1 X91.066 Y134.622 E21.56244
G1 X89.669 Y134.612 E21.60891
G1 X85.445 Y134.61 E21.7494
G1 X84.72 Y134.597 E21.77351
G1 X83.529 Y134.511 E21.81323
G1 X82.384 Y134.364 E21.85163
G1 X81.754 Y134.274 E21.87279
G1 X79.293 Y133.994 E21.95517
G1 X77.737 Y133.86 E22.00712
G1 X77.08 Y133.792 E22.02909
G1 X76.152 Y133.655 E22.06029
G1 X75.239 Y133.441 E22.09148
G1 X74.347 Y133.149 E22.12269
G1 X73.484 Y132.782 E22.15388
G1 X72.655 Y132.343 E22.18508
G1 X71.867 Y131.835 E22.21627
G1 X71.124 Y131.262 E22.24748
G1 X70.537 Y130.733 E22.27376
G1 X70.116 Y130.317 E22.29344
G1 X69.764 Y129.95 E22.31036
G1 X69.145 Y129.246 E22.34153
G1 X68.587 Y128.492 E22.37273
G1 X68.096 Y127.693 E22.40393
G1 X67.674 Y126.855 E22.43513
G1 X67.326 Y125.985 E22.4663
G1 X67.053 Y125.087 E22.49751
G1 X66.857 Y124.17 E22.5287
G1 X66.74 Y123.24 E22.55988
G1 X66.704 Y122.496 E22.58465
G1 X66.694 Y121.628 E22.61352
G1 X66.704 Y120.384 E22.6549
G1 X66.752 Y119.447 E22.68611
G1 X66.84 Y118.746 E22.70961
G1 X67.007 Y117.706 E22.74464
G1 X70.287 Y99.115 E23.37253
G0 F6000 X70.68 Y99.19
G1 F1200 X70.808 Y98.521 E23.39518
G1 X71.02 Y97.625 E23.42581
G1 X71.309 Y96.751 E23.45642
G1 X71.673 Y95.905 E23.48706
G1 X72.109 Y95.094 E23.51768
G1 X72.613 Y94.324 E23.54829
G1 X73.183 Y93.601 E23.57891
G1 X73.525 Y93.222 E23.59589
G1 X74.011 Y92.715 E23.61925
G1 X76.145 Y90.581 E23.71963
G1 X76.644 Y90.096 E23.74277
G1 X77.331 Y89.483 E23.77339
G1 X78.069 Y88.933 E23.80401
G1 X78.852 Y88.449 E23.83462
G1 X79.674 Y88.034 E23.86525
G1 X80.529 Y87.692 E23.89588
G1 X81.411 Y87.426 E23.92652
G1 X82.312 Y87.238 E23.95713
G1 X83.226 Y87.128 E23.98775
G1 X83.838 Y87.099 E24.00813
G1 X84.577 Y87.087 E24.03271
G1 X135.277 Y87.088 E25.719
G1 X135.978 Y87.098 E25.74232
G1 X136.897 Y87.151 E25.77293
G1 X137.808 Y87.284 E25.80356
G1 X138.704 Y87.495 E25.83417
G1 X139.579 Y87.783 E25.86481
G1 X140.425 Y88.146 E25.89543
G1 X141.236 Y88.581 E25.92604
G1 X142.007 Y89.085 E25.95668
G1 X142.731 Y89.654 E25.9873
G1 X143.267 Y90.143 E26.01143
G1 X143.632 Y90.502 E26.02846
G1 X143.919 Y90.799 E26.0422
G1 X144.529 Y91.488 E26.07281
G1 X145.077 Y92.228 E26.10343
G1 X145.559 Y93.012 E26.13404
G1 X145.971 Y93.835 E26.16465
G1 X146.311 Y94.691 E26.19529
G1 X146.574 Y95.573 E26.2259
G1 X146.76 Y96.475 E26.25653
G1 X146.868 Y97.389 E26.28714
G1 X146.894 Y97.947 E26.30572
G1 X146.906 Y98.652 E26.32917
G1 X146.904 Y122.583 E27.12512
G1 X146.894 Y123.281 E27.14834
G1 X146.841 Y124.2 E27.17896
G1 X146.708 Y125.111 E27.20958
G1 X146.497 Y126.007 E27.24019
G1 X146.209 Y126.881 E27.2708
G1 X145.846 Y127.728 E27.30145
G1 X145.411 Y128.539 E27.33206
G1 X144.907 Y129.309 E27.36267
G1 X144.116 Y130.284 E27.40443
G1 X143.56 Y130.865 E27.43117
G1 X143.219 Y131.197 E27.447
G1 X142.533 Y131.81 E27.4776
G1 X141.795 Y132.361 E27.50823
G1 X141.012 Y132.846 E27.53887
G1 X140.191 Y133.261 E27.56947
G1 X139.336 Y133.604 E27.60011
G1 X138.455 Y133.871 E27.63072
G1 X137.554 Y134.06 E27.66134
G1 X136.64 Y134.171 E27.69197
G1 X136.015 Y134.2 E27.71278
G1 X135.267 Y134.212 E27.73766
G1 X129.986 Y134.212 E27.91331
G1 X127.361 Y134.249 E28.00062
G1 X124.853 Y134.356 E28.08411
G1 X122.346 Y134.533 E28.16771
G1 X120.501 Y134.709 E28.22935
G1 X119.263 Y134.839 E28.27075
G1 X118.327 Y134.896 E28.30194
G1 X117.239 Y134.912 E28.33813
G1 X102.035 Y134.91 E28.84382
G1 X101.294 Y134.897 E28.86847
G1 X100.435 Y134.847 E28.89709
G1 X99.429 Y134.747 E28.93071
G1 X98.627 Y134.655 E28.95756
G1 X96.147 Y134.442 E29.04035
G1 X93.607 Y134.297 E29.12497
G1 X91.035 Y134.222 E29.21055
G1 X89.671 Y134.212 E29.25592
G1 X85.642 Y134.212 E29.38992
G1 X84.727 Y134.197 E29.42036
G1 X83.58 Y134.114 E29.45861
G1 X82.441 Y133.968 E29.4968
G1 X81.823 Y133.88 E29.51756
G1 X79.304 Y133.593 E29.60189
G1 X77.778 Y133.462 E29.65283
G1 X77.121 Y133.394 E29.6748
G1 X76.21 Y133.259 E29.70543
G1 X75.314 Y133.046 E29.73606
G1 X74.44 Y132.756 E29.76669
G1 X73.595 Y132.392 E29.79729
G1 X72.785 Y131.955 E29.8279
G1 X72.015 Y131.45 E29.85853
G1 X70.967 Y130.588 E29.90366
G1 X70.405 Y130.04 E29.92977
G1 X70.053 Y129.673 E29.94668
G1 X69.445 Y128.982 E29.9773
G1 X68.9 Y128.24 E30.00792
G1 X68.42 Y127.454 E30.03855
G1 X68.011 Y126.629 E30.06917
G1 X67.675 Y125.772 E30.09979
G1 X67.415 Y124.889 E30.13041
G1 X67.232 Y123.987 E30.16102
G1 X67.129 Y123.072 E30.19164
G1 X67.104 Y122.49 E30.21102
G1 X67.094 Y121.631 E30.23959
G1 X67.104 Y120.387 E30.28097
G1 X67.152 Y119.467 E30.31161
G1 X67.235 Y118.809 E30.33367
G1 X67.401 Y117.775 E30.3685
G1 X70.68 Y99.19 E30.99619
G0 F6000 X71.073 Y99.265
G1 F1200 X71.201 Y98.596 E31.01884
G1 X71.41 Y97.718 E31.04886
G1 X71.695 Y96.861 E31.0789
G1 X72.056 Y96.033 E31.10894
G1 X72.488 Y95.24 E31.13898
G1 X72.988 Y94.488 E31.16901
G1 X73.815 Y93.497 E31.21194
G1 X74.294 Y92.997 E31.23497
G1 X76.424 Y90.868 E31.33514
G1 X76.923 Y90.383 E31.35828
G1 X77.598 Y89.782 E31.38834
G1 X78.323 Y89.244 E31.41837
G1 X79.093 Y88.773 E31.44839
G1 X79.902 Y88.371 E31.47844
G1 X80.743 Y88.042 E31.50847
G1 X81.61 Y87.789 E31.53851
G1 X82.496 Y87.613 E31.56856
G1 X83.845 Y87.499 E31.61358
G1 X84.577 Y87.487 E31.63793
G1 X135.271 Y87.488 E33.32402
G1 X135.972 Y87.498 E33.34734
G1 X136.874 Y87.551 E33.37739
G1 X137.767 Y87.683 E33.40742
G1 X138.646 Y87.894 E33.43748
G1 X139.502 Y88.182 E33.46752
G1 X140.329 Y88.544 E33.49755
G1 X141.121 Y88.978 E33.52759
G1 X141.871 Y89.481 E33.55762
G1 X142.811 Y90.263 E33.59829
G1 X143.344 Y90.78 E33.62299
G1 X143.631 Y91.077 E33.63672
G1 X144.229 Y91.754 E33.66677
G1 X144.765 Y92.48 E33.69678
G1 X145.235 Y93.252 E33.72684
G1 X145.634 Y94.062 E33.75688
G1 X145.961 Y94.904 E33.78692
G1 X146.211 Y95.772 E33.81696
G1 X146.384 Y96.658 E33.84699
G1 X146.494 Y97.956 E33.89031
G1 X146.506 Y98.652 E33.91347
G1 X146.504 Y122.577 E34.70921
G1 X146.494 Y123.275 E34.73243
G1 X146.441 Y124.177 E34.76248
G1 X146.309 Y125.07 E34.79251
G1 X146.098 Y125.948 E34.82254
G1 X145.81 Y126.804 E34.85258
