;FLAVOR:Marlin
;TIME:4868
;Filament used: 2.8335m
;Layer height: 0.2
;MINX:66.98
;MINY:64.197
;MINZ:0.2
;MAXX:153.117
;MAXY:156.447
;MAXZ:11
;Generated with Cura_SteamEngine 5.0.0
M140 S50
M105
M190 S50
M104 S200
M105
M109 S200
M82 ;absolute extrusion mode

G28 ;Home
;G29 ;Bed levelling

G92 E0 ;Reset Extruder
G1 Z2.0 F3000 ;Move Z Axis up
G1 X10.1 Y20 Z0.28 F5000.0 ;Move to start position
G1 X10.1 Y200.0 Z0.28 F1500.0 E15 ;Draw the first line
G1 X10.4 Y200.0 Z0.28 F5000.0 ;Move to side a little
G1 X10.4 Y20 Z0.28 F1500.0 E30 ;Draw the second line
G92 E0 ;Reset Extruder
G1 Z2.0 F3000 ;Move Z Axis up
G92 E0
G92 E0
G1 F2400 E-0.4
;LAYER_COUNT:55
;LAYER:0
M107
G1 F300 Z0.8
G0 F6000 X107.854 Y70.74 Z0.8
G1 F300 Z0.2
G0 F6000 X106.498 Y73.451
;TYPE:SKIRT
G1 F2400 E0
G1 F600 X106.935 Y72.449 E0.03636
G1 X107.359 Y71.576 E0.06864
G1 X107.854 Y70.74 E0.10095
G1 X108.416 Y69.947 E0.13328
G1 X109.21 Y69.022 E0.17382
G1 X109.821 Y68.39 E0.20306
G1 X110.628 Y67.596 E0.24072
G1 X111.348 Y66.943 E0.27305
G1 X112.119 Y66.353 E0.30534
G1 X112.936 Y65.827 E0.33765
G1 X113.794 Y65.371 E0.36997
G1 X114.686 Y64.987 E0.40227
G1 X115.607 Y64.677 E0.43459
G1 X116.55 Y64.444 E0.4669
G1 X117.509 Y64.29 E0.49921
G1 X118.693 Y64.209 E0.53868
G1 X119.464 Y64.197 E0.56432
G1 X139.452 Y64.197 E1.22913
G1 X140.322 Y64.208 E1.25807
G1 X141.292 Y64.262 E1.29038
G1 X142.254 Y64.395 E1.32268
G1 X143.202 Y64.607 E1.35499
G1 X144.129 Y64.897 E1.38729
G1 X145.03 Y65.261 E1.41962
G1 X145.897 Y65.699 E1.45192
G1 X146.725 Y66.206 E1.48421
G1 X147.509 Y66.78 E1.51653
G1 X148.311 Y67.48 E1.55194
G1 X148.93 Y68.08 E1.58061
G1 X149.714 Y68.876 E1.61777
G1 X150.367 Y69.595 E1.65008
G1 X150.958 Y70.366 E1.68239
G1 X151.484 Y71.183 E1.7147
G1 X151.94 Y72.04 E1.74699
G1 X152.325 Y72.932 E1.77931
G1 X152.635 Y73.853 E1.81163
G1 X152.869 Y74.796 E1.84394
G1 X153.023 Y75.755 E1.87625
G1 X153.105 Y76.958 E1.91635
G1 X153.117 Y77.751 E1.94273
G1 X153.116 Y95.67 E2.53872
G1 X153.107 Y96.331 E2.56071
G1 X153.054 Y97.301 E2.59302
G1 X152.921 Y98.263 E2.62532
G1 X152.749 Y99.058 E2.65237
G1 X152.43 Y100.314 E2.69547
G1 X150.112 Y108.768 E2.98703
G1 X149.92 Y109.434 E3.01008
G1 X149.613 Y110.355 E3.04237
G1 X149.231 Y111.248 E3.07468
G1 X148.887 Y111.914 E3.09961
G1 X148.43 Y112.73 E3.13072
G1 X126.906 Y150.008 E4.56242
G1 X126.526 Y150.648 E4.58718
G1 X125.996 Y151.462 E4.61949
G1 X125.401 Y152.23 E4.6518
G1 X124.745 Y152.947 E4.68412
G1 X124.032 Y153.606 E4.71641
G1 X123.268 Y154.205 E4.7487
G1 X122.456 Y154.739 E4.78103
G1 X121.603 Y155.205 E4.81336
G1 X120.716 Y155.599 E4.84564
G1 X119.798 Y155.918 E4.87796
G1 X118.858 Y156.161 E4.91025
G1 X117.96 Y156.319 E4.94058
G1 X116.994 Y156.423 E4.97289
G1 X116.023 Y156.447 E5.0052
G1 X115.317 Y156.415 E5.02871
G1 X113.123 Y156.248 E5.10189
G1 X110.649 Y156.124 E5.18428
G1 X107.325 Y156.063 E5.29485
G1 X82.912 Y156.062 E6.10683
G1 X82.254 Y156.052 E6.12872
G1 X81.284 Y155.997 E6.16104
G1 X80.322 Y155.863 E6.19334
G1 X79.374 Y155.65 E6.22566
G1 X78.447 Y155.359 E6.25797
G1 X77.547 Y154.994 E6.29028
G1 X76.68 Y154.556 E6.32258
G1 X76.322 Y154.335 E6.33658
G1 X75.966 Y154.115 E6.35049
G1 X75.752 Y153.98 E6.35891
G1 X75.409 Y153.75 E6.37265
G1 X74.643 Y153.153 E6.40495
G1 X73.929 Y152.494 E6.43726
G1 X73.271 Y151.779 E6.46958
G1 X72.674 Y151.013 E6.50188
G1 X72.143 Y150.2 E6.53418
G1 X71.68 Y149.346 E6.56649
G1 X71.289 Y148.457 E6.59879
G1 X70.972 Y147.538 E6.63113
G1 X70.732 Y146.597 E6.66343
G1 X70.588 Y145.771 E6.69131
G1 X70.493 Y145.076 E6.71464
G1 X70.288 Y143.415 E6.77031
G1 X69.76 Y140.057 E6.88337
G1 X67.235 Y125.718 E7.36762
G1 X67.124 Y125.013 E7.39136
G1 X67.012 Y124.048 E7.42367
G1 X66.98 Y123.077 E7.45598
G1 X67.029 Y122.107 E7.48829
G1 X67.157 Y121.144 E7.5206
G1 X67.363 Y120.195 E7.5529
G1 X67.647 Y119.266 E7.58521
G1 X68.007 Y118.364 E7.61751
G1 X68.439 Y117.494 E7.64982
G1 X68.942 Y116.663 E7.68213
G1 X69.362 Y116.065 E7.70643
G1 X69.965 Y115.303 E7.73875
G1 X70.628 Y114.593 E7.77106
G1 X71.348 Y113.941 E7.80337
G1 X72.44 Y113.131 E7.84859
G1 X73.382 Y112.514 E7.88604
G1 X73.971 Y112.139 E7.90927
G1 X76.019 Y110.752 E7.99153
G1 X78.045 Y109.295 E8.07453
G1 X80.044 Y107.771 E8.15814
G1 X81.96 Y106.223 E8.24007
G1 X83.869 Y104.587 E8.32369
G1 X85.725 Y102.904 E8.40702
G1 X87.516 Y101.186 E8.48956
G1 X89.268 Y99.407 E8.57261
G1 X90.965 Y97.583 E8.65547
G1 X92.613 Y95.707 E8.73852
G1 X94.211 Y93.783 E8.82171
G1 X95.735 Y91.839 E8.90387
G1 X97.232 Y89.812 E8.98768
G1 X98.663 Y87.756 E9.07099
G1 X100.001 Y85.713 E9.15222
G1 X101.328 Y83.554 E9.23651
G1 X102.578 Y81.388 E9.31968
G1 X103.752 Y79.214 E9.40186
G1 X104.854 Y77.025 E9.48337
G1 X106.498 Y73.451 E9.61422
G1 F2400 E9.21422
G0 F6000 X105.228 Y77.17
G1 F2400 E9.61422
G1 F600 X106.853 Y73.639 E9.7435
G1 X107.302 Y72.609 E9.78087
G1 X107.719 Y71.751 E9.8126
G1 X108.207 Y70.93 E9.84437
G1 X108.762 Y70.153 E9.87613
G1 X109.5 Y69.298 E9.91369
G1 X110.102 Y68.675 E9.94251
G1 X110.909 Y67.881 E9.98016
G1 X111.617 Y67.24 E10.01193
G1 X112.376 Y66.661 E10.04368
G1 X113.181 Y66.148 E10.07543
G1 X114.026 Y65.703 E10.10719
G1 X114.905 Y65.331 E10.13894
G1 X115.813 Y65.034 E10.17071
G1 X116.742 Y64.814 E10.20246
G1 X117.686 Y64.672 E10.23421
G1 X118.7 Y64.609 E10.268
G1 X119.464 Y64.597 E10.29342
G1 X139.452 Y64.597 E10.95822
G1 X140.316 Y64.608 E10.98696
G1 X141.27 Y64.662 E11.01874
G1 X142.215 Y64.795 E11.05048
G1 X143.146 Y65.007 E11.08224
G1 X144.056 Y65.296 E11.114
G1 X144.939 Y65.66 E11.14576
G1 X145.788 Y66.096 E11.17751
G1 X146.597 Y66.603 E11.20926
G1 X147.362 Y67.175 E11.24103
G1 X148.034 Y67.769 E11.27086
G1 X148.645 Y68.36 E11.29914
G1 X149.429 Y69.156 E11.3363
G1 X150.07 Y69.864 E11.36806
G1 X150.649 Y70.623 E11.39981
G1 X151.163 Y71.428 E11.43158
G1 X151.608 Y72.273 E11.46334
G1 X151.981 Y73.152 E11.4951
G1 X152.278 Y74.059 E11.52685
G1 X152.499 Y74.988 E11.55861
G1 X152.641 Y75.932 E11.59036
G1 X152.705 Y76.964 E11.62475
G1 X152.717 Y77.751 E11.65093
G1 X152.716 Y95.664 E12.24672
G1 X152.707 Y96.325 E12.2687
G1 X152.654 Y97.279 E12.30048
G1 X152.521 Y98.224 E12.33222
G1 X152.361 Y98.96 E12.35727
G1 X152.044 Y100.209 E12.40013
G1 X149.728 Y108.657 E12.69148
G1 X149.536 Y109.323 E12.71454
G1 X149.233 Y110.228 E12.74628
G1 X148.856 Y111.105 E12.77803
G1 X148.537 Y111.719 E12.80104
G1 X148.084 Y112.53 E12.83194
G1 X126.562 Y149.804 E14.2635
G1 X126.182 Y150.444 E14.28825
G1 X125.661 Y151.244 E14.32
G1 X125.074 Y151.997 E14.35176
G1 X124.427 Y152.699 E14.38351
G1 X123.723 Y153.344 E14.41527
G1 X122.968 Y153.928 E14.44702
G1 X122.166 Y154.447 E14.47879
G1 X121.324 Y154.896 E14.51053
G1 X120.447 Y155.274 E14.54229
G1 X119.541 Y155.577 E14.57406
G1 X118.614 Y155.803 E14.6058
G1 X117.901 Y155.923 E14.62985
G1 X116.951 Y156.025 E14.66163
G1 X115.997 Y156.047 E14.69337
G1 X115.348 Y156.016 E14.71498
G1 X113.175 Y155.851 E14.78746
G1 X110.645 Y155.723 E14.87171
G1 X107.332 Y155.663 E14.98192
G1 X82.918 Y155.662 E15.79394
G1 X82.26 Y155.652 E15.81582
G1 X81.307 Y155.597 E15.84757
G1 X80.361 Y155.463 E15.87935
G1 X79.43 Y155.25 E15.91112
G1 X78.521 Y154.961 E15.94284
G1 X77.638 Y154.596 E15.97462
G1 X76.79 Y154.158 E16.00636
G1 X76.036 Y153.689 E16.0359
G1 X75.628 Y153.415 E16.05224
G1 X74.877 Y152.827 E16.08397
G1 X74.177 Y152.177 E16.11574
G1 X73.534 Y151.471 E16.1475
G1 X72.953 Y150.714 E16.17924
G1 X72.437 Y149.911 E16.21099
G1 X71.989 Y149.067 E16.24277
G1 X71.615 Y148.189 E16.27451
G1 X71.314 Y147.282 E16.30629
G1 X71.091 Y146.354 E16.33804
G1 X70.984 Y145.716 E16.35955
G1 X70.89 Y145.027 E16.38268
G1 X70.684 Y143.365 E16.43838
G1 X70.153 Y139.983 E16.55225
G1 X67.63 Y125.656 E17.0361
G1 X67.519 Y124.951 E17.05984
G1 X67.41 Y124.003 E17.09157
G1 X67.381 Y123.048 E17.12335
G1 X67.432 Y122.095 E17.15509
G1 X67.562 Y121.149 E17.18685
G1 X67.771 Y120.217 E17.21862
G1 X68.058 Y119.307 E17.25036
G1 X68.419 Y118.423 E17.28212
G1 X68.853 Y117.573 E17.31386
G1 X69.556 Y116.479 E17.35711
G1 X69.686 Y116.3 E17.36447
G1 X70.279 Y115.552 E17.39622
G1 X70.932 Y114.855 E17.42799
G1 X71.642 Y114.216 E17.45976
G1 X72.66 Y113.465 E17.50183
G1 X73.597 Y112.852 E17.53907
G1 X74.18 Y112.481 E17.56206
G1 X76.256 Y111.075 E17.64545
G1 X78.276 Y109.623 E17.72819
G1 X80.275 Y108.098 E17.81182
G1 X82.243 Y106.508 E17.89597
G1 X84.135 Y104.886 E17.97885
G1 X85.97 Y103.223 E18.06122
G1 X87.795 Y101.471 E18.14536
G1 X89.58 Y99.66 E18.22994
G1 X91.259 Y97.854 E18.31196
G1 X92.902 Y95.985 E18.39472
G1 X94.535 Y94.019 E18.47973
G1 X96.056 Y92.078 E18.56175
G1 X97.549 Y90.056 E18.64534
G1 X98.982 Y87.998 E18.72875
G1 X100.349 Y85.91 E18.81176
G1 X101.682 Y83.742 E18.89641
G1 X102.918 Y81.599 E18.97869
G1 X104.104 Y79.405 E19.06164
G1 X105.228 Y77.17 E19.14485
G1 F2400 E18.74485
G0 F6000 X103.282 Y81.768
G1 F2400 E19.14485
G1 F600 X104.463 Y79.583 E19.22746
G1 X105.575 Y77.373 E19.30974
G1 X107.215 Y73.808 E19.44026
G1 X107.668 Y72.769 E19.47796
G1 X108.079 Y71.926 E19.50915
G1 X108.56 Y71.121 E19.54034
G1 X109.108 Y70.36 E19.57153
G1 X109.79 Y69.574 E19.60614
G1 X110.382 Y68.96 E19.63451
G1 X111.189 Y68.166 E19.67217
G1 X111.885 Y67.537 E19.70337
G1 X112.632 Y66.97 E19.73456
G1 X113.425 Y66.469 E19.76576
G1 X114.257 Y66.037 E19.79694
G1 X115.123 Y65.677 E19.82813
G1 X116.017 Y65.393 E19.85933
G1 X116.932 Y65.185 E19.89054
G1 X117.861 Y65.057 E19.92173
G1 X118.708 Y65.009 E19.94995
G1 X119.464 Y64.997 E19.97509
G1 X139.452 Y64.997 E20.6399
G1 X140.311 Y65.008 E20.66847
G1 X141.247 Y65.061 E20.69965
G1 X142.175 Y65.194 E20.73083
G1 X143.089 Y65.406 E20.76204
G1 X143.982 Y65.694 E20.79325
G1 X144.846 Y66.058 E20.82443
G1 X145.677 Y66.494 E20.85564
G1 X146.467 Y66.999 E20.88683
G1 X147.211 Y67.569 E20.918
G1 X147.758 Y68.058 E20.9424
G1 X148.36 Y68.641 E20.97028
G1 X149.144 Y69.437 E21.00744
G1 X149.773 Y70.133 E21.03864
G1 X150.341 Y70.879 E21.06983
G1 X150.842 Y71.672 E21.10102
G1 X151.275 Y72.504 E21.13222
G1 X151.635 Y73.37 E21.16341
G1 X151.92 Y74.264 E21.19462
G1 X152.128 Y75.178 E21.2258
G1 X152.257 Y76.107 E21.25699
G1 X152.305 Y76.971 E21.28577
G1 X152.317 Y77.751 E21.31172
G1 X152.316 Y95.659 E21.90734
G1 X152.307 Y96.32 E21.92933
G1 X152.254 Y97.256 E21.96051
G1 X152.122 Y98.185 E21.99172
G1 X151.973 Y98.862 E22.01478
G1 X151.658 Y100.103 E22.05736
G1 X149.344 Y108.546 E22.34853
G1 X149.152 Y109.212 E22.37159
G1 X148.854 Y110.101 E22.40277
G1 X148.481 Y110.962 E22.43398
G1 X148.188 Y111.524 E22.45506
G1 X147.737 Y112.33 E22.48578
G1 X126.218 Y149.6 E23.91717
G1 X125.838 Y150.24 E23.94193
G1 X125.326 Y151.025 E23.9731
G1 X124.748 Y151.764 E24.0043
G1 X124.109 Y152.451 E24.03551
G1 X123.414 Y153.081 E24.06671
G1 X122.668 Y153.649 E24.09789
G1 X121.877 Y154.152 E24.12907
G1 X121.045 Y154.586 E24.16028
G1 X120.18 Y154.947 E24.19146
G1 X119.287 Y155.233 E24.22264
G1 X118.009 Y155.503 E24.26609
G1 X117.842 Y155.528 E24.27171
G1 X116.909 Y155.627 E24.30291
G1 X115.971 Y155.646 E24.33412
G1 X115.378 Y155.617 E24.35386
G1 X113.186 Y155.45 E24.42698
G1 X110.673 Y155.324 E24.51067
G1 X107.339 Y155.263 E24.62158
G1 X82.924 Y155.262 E25.43362
G1 X82.266 Y155.252 E25.45551
G1 X81.33 Y155.198 E25.48669
G1 X80.401 Y155.064 E25.51791
G1 X79.488 Y154.851 E25.54909
G1 X78.596 Y154.562 E25.58028
G1 X77.731 Y154.198 E25.61149
G1 X76.901 Y153.761 E25.64269
G1 X76.201 Y153.318 E25.67024
G1 X75.848 Y153.081 E25.68439
G1 X75.111 Y152.501 E25.71558
G1 X74.426 Y151.86 E25.74678
G1 X73.799 Y151.163 E25.77796
G1 X73.232 Y150.416 E25.80916
G1 X72.732 Y149.622 E25.84036
G1 X72.301 Y148.789 E25.87156
G1 X71.942 Y147.923 E25.90274
G1 X71.659 Y147.029 E25.93393
G1 X71.381 Y145.662 E25.98032
G1 X71.287 Y144.978 E26.00329
G1 X71.081 Y143.31 E26.05919
G1 X70.546 Y139.908 E26.17373
G1 X68.025 Y125.594 E26.65714
G1 X67.914 Y124.889 E26.68088
G1 X67.808 Y123.957 E26.71208
G1 X67.781 Y123.02 E26.74326
G1 X67.835 Y122.083 E26.77447
G1 X67.968 Y121.155 E26.80565
G1 X68.179 Y120.241 E26.83685
G1 X68.468 Y119.349 E26.86804
G1 X68.832 Y118.484 E26.89925
G1 X69.268 Y117.654 E26.93044
G1 X69.88 Y116.714 E26.96774
G1 X70.01 Y116.535 E26.9751
G1 X70.593 Y115.8 E27.0063
G1 X71.236 Y115.118 E27.03748
G1 X71.935 Y114.493 E27.06867
G1 X72.879 Y113.8 E27.10762
G1 X73.812 Y113.189 E27.14471
G1 X74.397 Y112.816 E27.16778
G1 X76.467 Y111.414 E27.25094
G1 X78.546 Y109.92 E27.33609
G1 X80.524 Y108.411 E27.41884
G1 X82.492 Y106.822 E27.50296
G1 X84.38 Y105.203 E27.58569
G1 X86.268 Y103.492 E27.67043
G1 X88.074 Y101.758 E27.7537
G1 X89.858 Y99.948 E27.83823
G1 X91.552 Y98.127 E27.92095
G1 X93.227 Y96.22 E28.00537
G1 X94.81 Y94.314 E28.08778
G1 X96.406 Y92.277 E28.17385
G1 X97.855 Y90.317 E28.25492
G1 X99.328 Y88.199 E28.34073
G1 X100.691 Y86.118 E28.42346
G1 X102.01 Y83.972 E28.50725
G1 X103.282 Y81.768 E28.59188
G1 F2400 E28.19188
G0 F6000 X101.024 Y86.34
G1 F2400 E28.59188
G1 F600 X102.364 Y84.16 E28.67699
G1 X103.607 Y82.007 E28.75968
G1 X104.828 Y79.747 E28.84512
G1 X105.944 Y77.529 E28.9277
G1 X107.578 Y73.977 E29.05774
G1 X108.035 Y72.929 E29.09577
G1 X108.439 Y72.101 E29.12641
G1 X108.913 Y71.312 E29.15702
G1 X109.454 Y70.567 E29.18765
G1 X110.079 Y69.85 E29.21928
G1 X110.663 Y69.245 E29.24725
G1 X111.47 Y68.451 E29.2849
G1 X112.153 Y67.834 E29.31552
G1 X112.888 Y67.28 E29.34613
G1 X113.668 Y66.79 E29.37677
G1 X114.488 Y66.371 E29.40739
G1 X115.34 Y66.024 E29.43799
G1 X116.22 Y65.752 E29.46863
G1 X117.12 Y65.558 E29.49925
G1 X118.033 Y65.443 E29.52986
G1 X118.715 Y65.409 E29.55257
G1 X119.464 Y65.397 E29.57748
G1 X139.452 Y65.397 E30.24229
G1 X140.305 Y65.408 E30.27066
G1 X141.224 Y65.461 E30.30128
G1 X142.135 Y65.594 E30.3319
G1 X143.031 Y65.805 E30.36251
G1 X143.906 Y66.093 E30.39315
G1 X144.752 Y66.456 E30.42377
G1 X145.563 Y66.891 E30.45438
G1 X146.334 Y67.395 E30.48502
G1 X147.058 Y67.963 E30.51562
G1 X147.481 Y68.347 E30.53462
G1 X148.075 Y68.922 E30.56212
G1 X148.859 Y69.718 E30.59928
G1 X149.476 Y70.401 E30.62989
G1 X150.031 Y71.135 E30.6605
G1 X150.521 Y71.915 E30.69114
G1 X150.941 Y72.734 E30.72175
G1 X151.288 Y73.587 E30.75238
G1 X151.56 Y74.467 E30.78302
G1 X151.755 Y75.366 E30.81361
G1 X151.871 Y76.28 E30.84425
G1 X151.906 Y76.978 E30.8675
G1 X151.917 Y77.751 E30.89321
G1 X151.916 Y95.653 E31.48864
G1 X151.907 Y96.314 E31.51062
G1 X151.855 Y97.233 E31.54124
G1 X151.722 Y98.145 E31.57189
G1 X151.586 Y98.764 E31.59297
G1 X151.272 Y99.997 E31.63529
G1 X148.959 Y108.435 E31.92629
G1 X148.767 Y109.101 E31.94934
G1 X148.474 Y109.974 E31.97997
G1 X148.106 Y110.818 E32.0106
G1 X147.839 Y111.329 E32.02977
G1 X147.391 Y112.13 E32.0603
G1 X125.874 Y149.396 E33.49154
G1 X125.494 Y150.036 E33.5163
G1 X124.99 Y150.806 E33.54691
G1 X124.422 Y151.53 E33.57751
G1 X123.792 Y152.202 E33.60815
G1 X123.107 Y152.816 E33.63875
G1 X122.37 Y153.369 E33.66939
G1 X121.589 Y153.856 E33.7
G1 X120.768 Y154.273 E33.73063
G1 X119.914 Y154.617 E33.76125
G1 X119.034 Y154.886 E33.79186
G1 X117.949 Y155.107 E33.82869
G1 X117.782 Y155.132 E33.8343
G1 X116.867 Y155.229 E33.86491
G1 X115.946 Y155.246 E33.89554
G1 X115.408 Y155.218 E33.91346
G1 X113.235 Y155.053 E33.98594
G1 X110.668 Y154.924 E34.07143
G1 X107.347 Y154.863 E34.18191
G1 X82.93 Y154.862 E34.99402
G1 X82.272 Y154.852 E35.01591
G1 X81.353 Y154.798 E35.04653
G1 X80.442 Y154.664 E35.07715
G1 X79.546 Y154.452 E35.10778
G1 X78.672 Y154.163 E35.13839
G1 X77.826 Y153.8 E35.16901
G1 X77.015 Y153.364 E35.19964
G1 X76.426 Y152.987 E35.2229
G1 X76.068 Y152.746 E35.23725
G1 X75.346 Y152.175 E35.26787
G1 X74.676 Y151.544 E35.29848
G1 X74.064 Y150.856 E35.3291
G1 X73.513 Y150.118 E35.35974
G1 X73.029 Y149.335 E35.39035
G1 X72.614 Y148.513 E35.42098
G1 X72.273 Y147.658 E35.4516
G1 X72.006 Y146.777 E35.48221
G1 X71.777 Y145.607 E35.52187
G1 X71.684 Y144.928 E35.54466
G1 X71.474 Y143.233 E35.60147
G1 X70.948 Y139.886 E35.71416
G1 X68.42 Y125.532 E36.19892
G1 X68.309 Y124.827 E36.22266
G1 X68.205 Y123.912 E36.25329
G1 X68.182 Y122.991 E36.28393
G1 X68.238 Y122.073 E36.31452
G1 X68.373 Y121.162 E36.34515
G1 X68.588 Y120.267 E36.37576
G1 X68.879 Y119.393 E36.4064
G1 X69.245 Y118.548 E36.43703
G1 X69.682 Y117.738 E36.46764
G1 X70.203 Y116.949 E36.49909
G1 X70.333 Y116.77 E36.50645
