;FLAVOR:Marlin
;TIME:2301
;Filament used: 1.26473m
;Layer height: 0.2
;MINX:87.391
;MINY:67.405
;MINZ:0.2
;MAXX:132.609
;MAXY:152.595
;MAXZ:11.4
;Generated with Cura_SteamEngine 5.0.0
M140 S50
M105
M190 S50
M104 S200
M105
M109 S200
M82 ;absolute extrusion mode

G28 ;Home
;G29 ;Bed levelling

G92 E0 ;Reset Extruder
G1 Z2.0 F3000 ;Move Z Axis up
G1 X10.1 Y20 Z0.28 F5000.0 ;Move to start position
G1 X10.1 Y200.0 Z0.28 F1500.0 E15 ;Draw the first line
G1 X10.4 Y200.0 Z0.28 F5000.0 ;Move to side a little
G1 X10.4 Y20 Z0.28 F1500.0 E30 ;Draw the second line
G92 E0 ;Reset Extruder
G1 Z2.0 F3000 ;Move Z Axis up
G92 E0
G92 E0
G1 F2400 E-0.8
;LAYER_COUNT:54
;LAYER:0
M107
G1 F300 Z0.8
G0 F6000 X89.996 Y72.269 Z0.8
G1 F300 Z0.2
G0 F6000 X87.393 Y80.154
;TYPE:SKIRT
G1 F2400 E0
G1 F1200 X87.405 Y79.449 E0.02345
G1 X87.461 Y78.479 E0.05577
G1 X87.597 Y77.518 E0.08805
G1 X87.812 Y76.57 E0.12038
G1 X88.104 Y75.644 E0.15267
G1 X88.471 Y74.744 E0.185
G1 X88.911 Y73.878 E0.21731
G1 X89.42 Y73.051 E0.24961
G1 X89.996 Y72.269 E0.28191
G1 X90.691 Y71.478 E0.31693
G1 X91.17 Y70.99 E0.33968
G1 X91.439 Y70.73 E0.35212
G1 X92.165 Y70.085 E0.38442
G1 X92.941 Y69.501 E0.41672
G1 X93.763 Y68.983 E0.44904
G1 X94.625 Y68.534 E0.48136
G1 X95.52 Y68.158 E0.51365
G1 X96.443 Y67.856 E0.54595
G1 X97.389 Y67.632 E0.57829
G1 X98.349 Y67.486 E0.61058
G1 X99.384 Y67.418 E0.64508
G1 X100.1 Y67.405 E0.6689
G1 X119.657 Y67.405 E1.31937
G1 X120.526 Y67.416 E1.34827
G1 X121.496 Y67.47 E1.38059
G1 X122.458 Y67.603 E1.41289
G1 X123.406 Y67.816 E1.4452
G1 X124.334 Y68.105 E1.47753
G1 X125.234 Y68.47 E1.50983
G1 X126.101 Y68.907 E1.54213
G1 X126.93 Y69.414 E1.57445
G1 X127.714 Y69.988 E1.60676
G1 X128.452 Y70.627 E1.63923
G1 X129.026 Y71.187 E1.6659
G1 X129.33 Y71.505 E1.68054
G1 X129.971 Y72.234 E1.71282
G1 X130.551 Y73.014 E1.74515
G1 X131.064 Y73.838 E1.77744
G1 X131.508 Y74.702 E1.80974
G1 X131.88 Y75.6 E1.84207
G1 X132.176 Y76.525 E1.87438
G1 X132.395 Y77.471 E1.90667
G1 X132.536 Y78.432 E1.93898
G1 X132.599 Y79.488 E1.97416
G1 X132.609 Y80.279 E2.00047
G1 X132.607 Y139.813 E3.98058
G1 X132.597 Y140.514 E4.0039
G1 X132.543 Y141.484 E4.03621
G1 X132.41 Y142.446 E4.06851
G1 X132.197 Y143.394 E4.10083
G1 X131.908 Y144.322 E4.13316
G1 X131.543 Y145.222 E4.16546
G1 X131.106 Y146.089 E4.19775
G1 X130.599 Y146.918 E4.23007
G1 X130.025 Y147.702 E4.26239
G1 X129.476 Y148.342 E4.29044
G1 X128.861 Y148.979 E4.31988
G1 X128.551 Y149.278 E4.33421
G1 X127.824 Y149.923 E4.36653
G1 X127.048 Y150.506 E4.39882
G1 X126.225 Y151.023 E4.43114
G1 X125.363 Y151.471 E4.46345
G1 X124.467 Y151.847 E4.49577
G1 X123.544 Y152.147 E4.52805
G1 X122.598 Y152.371 E4.56039
G1 X121.638 Y152.516 E4.59268
G1 X120.57 Y152.583 E4.62827
G1 X119.801 Y152.595 E4.65385
G1 X100.168 Y152.595 E5.30685
G1 X99.501 Y152.585 E5.32903
G1 X98.531 Y152.53 E5.36135
G1 X97.569 Y152.396 E5.39365
G1 X96.621 Y152.183 E5.42597
G1 X95.694 Y151.893 E5.45828
G1 X94.794 Y151.528 E5.49058
G1 X93.927 Y151.09 E5.52289
G1 X92.921 Y150.46 E5.56236
G1 X92.57 Y150.209 E5.57672
G1 X91.808 Y149.606 E5.60904
G1 X91.034 Y148.876 E5.64442
G1 X90.725 Y148.557 E5.65919
G1 X90.079 Y147.832 E5.69149
G1 X89.494 Y147.056 E5.72381
G1 X88.975 Y146.235 E5.75612
G1 X88.525 Y145.374 E5.78843
G1 X88.148 Y144.479 E5.82073
G1 X87.846 Y143.556 E5.85303
G1 X87.62 Y142.611 E5.88535
G1 X87.473 Y141.651 E5.91765
G1 X87.403 Y140.559 E5.95405
G1 X87.391 Y139.79 E5.97963
G1 X87.393 Y80.154 E7.96313
G0 F6000 X87.793 Y80.161
G1 F1200 X87.805 Y79.456 E7.98658
G1 X87.861 Y78.503 E8.01833
G1 X87.997 Y77.558 E8.05009
G1 X88.211 Y76.627 E8.08186
G1 X88.502 Y75.718 E8.1136
G1 X88.869 Y74.837 E8.14535
G1 X89.308 Y73.989 E8.17711
G1 X89.816 Y73.181 E8.20885
G1 X90.391 Y72.418 E8.24063
G1 X90.979 Y71.755 E8.2701
G1 X91.448 Y71.278 E8.29235
G1 X91.717 Y71.018 E8.3048
G1 X92.431 Y70.384 E8.33655
G1 X93.195 Y69.812 E8.3683
G1 X94.005 Y69.305 E8.40008
G1 X94.854 Y68.868 E8.43184
G1 X95.736 Y68.504 E8.46357
G1 X96.646 Y68.215 E8.49533
G1 X97.577 Y68.003 E8.52709
G1 X98.523 Y67.87 E8.55886
G1 X99.392 Y67.818 E8.58782
G1 X100.1 Y67.805 E8.61137
G1 X119.657 Y67.805 E9.26184
G1 X120.521 Y67.816 E9.29058
G1 X121.474 Y67.87 E9.32232
G1 X122.419 Y68.003 E9.35407
G1 X123.35 Y68.215 E9.38582
G1 X124.26 Y68.504 E9.41758
G1 X125.143 Y68.868 E9.44935
G1 X125.992 Y69.304 E9.48109
G1 X126.802 Y69.811 E9.51287
G1 X127.566 Y70.383 E9.54462
G1 X128.183 Y70.922 E9.57187
G1 X128.736 Y71.463 E9.5976
G1 X129.04 Y71.781 E9.61223
G1 X129.671 Y72.499 E9.64402
G1 X130.239 Y73.266 E9.67576
G1 X130.741 Y74.078 E9.70752
G1 X131.173 Y74.93 E9.73929
G1 X131.532 Y75.814 E9.77102
G1 X131.816 Y76.726 E9.80279
G1 X132.023 Y77.658 E9.83455
G1 X132.151 Y78.604 E9.8663
G1 X132.199 Y79.494 E9.89594
G1 X132.209 Y80.279 E9.92205
G1 X132.207 Y139.808 E11.902
G1 X132.197 Y140.509 E11.92531
G1 X132.143 Y141.462 E11.95706
G1 X132.01 Y142.407 E11.9888
G1 X131.798 Y143.338 E12.02056
G1 X131.509 Y144.248 E12.05232
G1 X131.145 Y145.131 E12.08408
G1 X130.709 Y145.98 E12.11583
G1 X130.202 Y146.79 E12.14761
G1 X129.63 Y147.554 E12.17935
G1 X129.053 Y148.211 E12.20844
G1 X128.583 Y148.691 E12.23078
G1 X128.273 Y148.99 E12.2451
G1 X127.559 Y149.624 E12.27686
G1 X126.794 Y150.195 E12.30861
G1 X125.984 Y150.701 E12.34038
G1 X125.134 Y151.137 E12.37215
G1 X124.251 Y151.5 E12.40391
G1 X123.341 Y151.788 E12.43565
G1 X122.41 Y151.999 E12.4674
G1 X121.464 Y152.131 E12.49917
G1 X120.563 Y152.183 E12.52919
G1 X119.801 Y152.195 E12.55454
G1 X100.174 Y152.195 E13.20733
G1 X99.507 Y152.185 E13.22952
G1 X98.554 Y152.13 E13.26127
G1 X97.609 Y151.997 E13.29301
G1 X96.678 Y151.784 E13.32477
G1 X95.768 Y151.494 E13.35654
G1 X94.886 Y151.13 E13.38828
G1 X94.037 Y150.692 E13.42005
G1 X93.148 Y150.131 E13.45501
G1 X92.805 Y149.886 E13.46903
G1 X92.057 Y149.292 E13.5008
G1 X91.322 Y148.598 E13.53442
G1 X91.013 Y148.279 E13.5492
G1 X90.378 Y147.566 E13.58095
G1 X89.805 Y146.802 E13.61272
G1 X89.297 Y145.993 E13.64449
G1 X88.86 Y145.145 E13.67622
G1 X88.494 Y144.262 E13.70801
G1 X88.204 Y143.353 E13.73974
G1 X87.991 Y142.422 E13.77151
G1 X87.857 Y141.477 E13.80325
G1 X87.803 Y140.552 E13.83407
G1 X87.791 Y139.79 E13.85942
G1 X87.793 Y80.161 E15.84269
G0 F6000 X88.193 Y80.168
G1 F1200 X88.205 Y79.463 E15.86614
G1 X88.261 Y78.527 E15.89733
G1 X88.396 Y77.599 E15.92852
G1 X88.61 Y76.685 E15.95974
G1 X88.901 Y75.794 E15.99091
G1 X89.267 Y74.93 E16.02212
G1 X89.705 Y74.101 E16.05331
G1 X90.212 Y73.312 E16.0845
G1 X90.785 Y72.569 E16.11571
G1 X91.268 Y72.032 E16.13973
G1 X91.726 Y71.566 E16.16146
G1 X91.995 Y71.306 E16.17391
G1 X92.697 Y70.683 E16.20512
G1 X93.449 Y70.123 E16.23631
G1 X94.246 Y69.628 E16.26751
G1 X95.082 Y69.204 E16.29869
G1 X95.951 Y68.852 E16.32987
G1 X96.848 Y68.575 E16.3611
G1 X97.764 Y68.376 E16.39228
G1 X98.694 Y68.256 E16.42346
G1 X99.401 Y68.218 E16.44701
G1 X100.1 Y68.205 E16.47027
G1 X119.657 Y68.205 E17.12073
G1 X120.515 Y68.216 E17.14927
G1 X121.451 Y68.269 E17.18046
G1 X122.38 Y68.402 E17.21167
G1 X123.293 Y68.614 E17.24284
G1 X124.186 Y68.902 E17.27405
G1 X125.05 Y69.266 E17.30523
G1 X125.881 Y69.702 E17.33645
G1 X126.671 Y70.207 E17.36763
G1 X127.415 Y70.777 E17.3988
G1 X127.913 Y71.218 E17.42093
G1 X128.447 Y71.74 E17.44577
G1 X128.751 Y72.058 E17.4604
G1 X129.37 Y72.763 E17.4916
G1 X129.926 Y73.518 E17.52279
G1 X130.416 Y74.318 E17.55399
G1 X130.836 Y75.156 E17.58517
G1 X131.183 Y76.027 E17.61635
G1 X131.455 Y76.925 E17.64756
G1 X131.649 Y77.843 E17.67877
G1 X131.764 Y78.773 E17.70993
G1 X131.799 Y79.499 E17.73411
G1 X131.809 Y80.279 E17.76005
G1 X131.807 Y139.802 E19.7398
G1 X131.797 Y140.503 E19.76311
G1 X131.744 Y141.439 E19.7943
G1 X131.611 Y142.368 E19.82551
G1 X131.399 Y143.281 E19.85668
G1 X131.111 Y144.174 E19.88789
G1 X130.747 Y145.038 E19.91907
G1 X130.311 Y145.869 E19.95029
G1 X129.806 Y146.659 E19.98147
G1 X129.236 Y147.403 E20.01265
G1 X128.758 Y147.94 E20.03656
G1 X128.305 Y148.403 E20.0581
G1 X127.995 Y148.702 E20.07243
G1 X127.293 Y149.324 E20.10362
G1 X126.541 Y149.884 E20.13481
G1 X125.743 Y150.377 E20.166
G1 X124.906 Y150.801 E20.19721
G1 X124.037 Y151.152 E20.22838
G1 X123.14 Y151.428 E20.2596
G1 X122.224 Y151.626 E20.29077
G1 X121.293 Y151.745 E20.32198
G1 X120.556 Y151.783 E20.34653
G1 X119.801 Y151.795 E20.37164
G1 X100.18 Y151.795 E21.02424
G1 X99.513 Y151.785 E21.04643
G1 X98.577 Y151.731 E21.07761
G1 X97.648 Y151.597 E21.10883
G1 X96.735 Y151.385 E21.14
G1 X95.843 Y151.096 E21.17119
G1 X94.978 Y150.732 E21.2024
G1 X94.148 Y150.295 E21.2336
G1 X93.375 Y149.801 E21.26411
G1 X93.04 Y149.562 E21.2778
G1 X92.306 Y148.979 E21.30898
G1 X91.609 Y148.319 E21.34091
G1 X91.3 Y148 E21.35568
G1 X90.677 Y147.299 E21.38687
G1 X90.115 Y146.548 E21.41807
G1 X89.62 Y145.752 E21.44924
G1 X89.195 Y144.916 E21.48044
G1 X88.842 Y144.047 E21.51163
G1 X88.564 Y143.151 E21.54284
G1 X88.364 Y142.235 E21.57402
G1 X88.243 Y141.305 E21.60521
G1 X88.203 Y140.544 E21.63056
G1 X88.191 Y139.79 E21.65564
G1 X88.193 Y80.168 E23.63868
G0 F6000 X88.593 Y80.175
G1 F1200 X88.605 Y79.47 E23.66213
G1 X88.66 Y78.551 E23.69275
G1 X88.795 Y77.64 E23.72338
G1 X89.009 Y76.744 E23.75402
G1 X89.3 Y75.871 E23.78462
G1 X89.665 Y75.026 E23.81524
G1 X90.102 Y74.216 E23.84585
G1 X90.608 Y73.446 E23.8765
G1 X91.179 Y72.724 E23.90711
G1 X91.724 Y72.134 E23.93383
G1 X92.273 Y71.593 E23.95946
G1 X92.962 Y70.983 E23.99007
G1 X93.702 Y70.434 E24.02072
G1 X94.486 Y69.952 E24.05133
G1 X95.309 Y69.54 E24.08194
G1 X96.165 Y69.201 E24.11256
G1 X97.047 Y68.937 E24.14318
G1 X97.949 Y68.751 E24.17381
G1 X98.863 Y68.643 E24.20442
G1 X99.41 Y68.618 E24.22264
G1 X100.1 Y68.605 E24.24559
G1 X119.657 Y68.605 E24.89606
G1 X120.509 Y68.616 E24.9244
G1 X121.428 Y68.669 E24.95501
G1 X122.339 Y68.802 E24.98564
G1 X123.235 Y69.013 E25.01625
G1 X124.11 Y69.301 E25.04689
G1 X124.956 Y69.664 E25.07751
G1 X125.767 Y70.099 E25.10812
G1 X126.538 Y70.603 E25.13875
G1 X127.505 Y71.387 E25.18016
G1 X128.158 Y72.016 E25.21032
G1 X128.462 Y72.334 E25.22495
G1 X129.069 Y73.027 E25.25559
G1 X129.613 Y73.769 E25.28619
G1 X130.091 Y74.556 E25.31682
G1 X130.499 Y75.382 E25.34746
G1 X130.833 Y76.239 E25.37805
G1 X131.092 Y77.123 E25.40869
G1 X131.273 Y78.025 E25.43929
G1 X131.376 Y78.94 E25.46991
G1 X131.399 Y79.505 E25.48872
G1 X131.409 Y80.279 E25.51446
G1 X131.407 Y139.796 E27.49401
G1 X131.397 Y140.497 E27.51733
G1 X131.344 Y141.416 E27.54794
G1 X131.211 Y142.327 E27.57856
G1 X131 Y143.223 E27.60918
G1 X130.712 Y144.098 E27.63982
G1 X130.349 Y144.944 E27.67044
G1 X129.914 Y145.755 E27.70105
G1 X129.41 Y146.526 E27.73168
G1 X128.593 Y147.529 E27.77471
G1 X128.028 Y148.115 E27.80178
G1 X127.718 Y148.414 E27.81611
G1 X127.028 Y149.024 E27.84674
G1 X126.288 Y149.572 E27.87737
G1 X125.503 Y150.053 E27.90799
G1 X124.679 Y150.465 E27.93863
G1 X123.823 Y150.803 E27.96924
G1 X122.941 Y151.066 E27.99985
G1 X122.039 Y151.251 E28.03048
G1 X121.125 Y151.357 E28.06108
G1 X120.549 Y151.383 E28.08026
G1 X119.801 Y151.395 E28.10514
G1 X100.186 Y151.395 E28.75754
G1 X99.519 Y151.385 E28.77972
G1 X98.6 Y151.331 E28.81034
G1 X97.689 Y151.198 E28.84096
G1 X96.793 Y150.986 E28.87159
G1 X95.919 Y150.697 E28.9022
G1 X95.073 Y150.334 E28.93282
G1 X94.262 Y149.898 E28.96345
G1 X93.602 Y149.472 E28.98958
G1 X93.275 Y149.239 E29.00293
G1 X92.555 Y148.665 E29.03356
G1 X91.896 Y148.041 E29.06374
G1 X91.587 Y147.722 E29.07851
G1 X90.976 Y147.034 E29.10912
G1 X90.427 Y146.295 E29.13974
G1 X89.944 Y145.511 E29.17036
G1 X89.531 Y144.688 E29.20099
G1 X89.19 Y143.833 E29.23161
G1 X88.926 Y142.951 E29.26223
G1 X88.739 Y142.049 E29.29287
G1 X88.63 Y141.135 E29.32348
G1 X88.603 Y140.537 E29.34339
G1 X88.591 Y139.79 E29.36824
G1 X88.593 Y80.175 E31.35104
G0 F6000 X88.992 Y80.181
G1 F1200 X89.004 Y79.476 E31.37449
G1 X89.06 Y78.575 E31.40452
G1 X89.195 Y77.682 E31.43456
G1 X89.408 Y76.804 E31.46461
G1 X89.698 Y75.949 E31.49464
G1 X90.063 Y75.123 E31.52467
G1 X90.499 Y74.332 E31.55471
G1 X91.003 Y73.583 E31.58474
G1 X91.845 Y72.586 E31.62814
G1 X92.282 Y72.141 E31.64889
G1 X92.551 Y71.881 E31.66133
G1 X93.228 Y71.283 E31.69137
G1 X93.955 Y70.747 E31.72142
G1 X94.726 Y70.277 E31.75145
G1 X95.536 Y69.877 E31.78149
G1 X96.378 Y69.551 E31.81153
G1 X97.245 Y69.3 E31.84155
G1 X98.132 Y69.127 E31.8716
G1 X99.418 Y69.017 E31.91453
G1 X100.1 Y69.005 E31.93722
G1 X119.657 Y69.005 E32.58769
G1 X120.503 Y69.016 E32.61583
G1 X121.405 Y69.069 E32.64588
G1 X122.298 Y69.201 E32.6759
G1 X123.177 Y69.412 E32.70597
G1 X124.033 Y69.7 E32.73601
G1 X124.86 Y70.062 E32.76604
G1 X125.652 Y70.496 E32.79607
G1 X126.402 Y70.999 E32.82611
G1 X127.236 Y71.682 E32.86196
G1 X127.374 Y71.808 E32.86818
G1 X127.869 Y72.293 E32.89123
G1 X128.173 Y72.611 E32.90586
G1 X128.768 Y73.29 E32.93589
G1 X129.3 Y74.02 E32.96593
G1 X129.765 Y74.794 E32.99596
G1 X130.16 Y75.606 E33.026
G1 X130.482 Y76.45 E33.05604
G1 X130.728 Y77.319 E33.08608
G1 X130.896 Y78.206 E33.11611
G1 X130.999 Y79.511 E33.15965
G1 X131.009 Y80.279 E33.18519
G1 X131.007 Y139.79 E35.16454
G1 X130.997 Y140.491 E35.18785
G1 X130.944 Y141.393 E35.21791
G1 X130.812 Y142.286 E35.24793
G1 X130.601 Y143.165 E35.278
G1 X130.313 Y144.021 E35.30803
G1 X129.951 Y144.848 E35.33806
G1 X129.517 Y145.64 E35.3681
G1 X129.014 Y146.39 E35.39813
G1 X128.299 Y147.258 E35.43554
G1 X127.75 Y147.828 E35.46186
G1 X127.44 Y148.127 E35.47618
G1 X126.763 Y148.724 E35.50621
G1 X126.036 Y149.259 E35.53623
G1 X125.264 Y149.728 E35.56627
G1 X124.453 Y150.127 E35.59633
G1 X123.611 Y150.453 E35.62636
G1 X122.743 Y150.702 E35.6564
G1 X121.857 Y150.874 E35.68642
G1 X120.541 Y150.983 E35.73034
G1 X119.801 Y150.995 E35.75495
G1 X100.192 Y150.995 E36.40715
G1 X99.525 Y150.985 E36.42934
G1 X98.624 Y150.931 E36.45936
G1 X97.73 Y150.798 E36.48942
G1 X96.852 Y150.587 E36.51945
G1 X95.997 Y150.298 E36.54947
G1 X95.17 Y149.936 E36.5795
G1 X94.378 Y149.501 E36.60955
G1 X93.829 Y149.143 E36.63135
G1 X93.511 Y148.915 E36.64437
G1 X92.805 Y148.352 E36.6744
G1 X92.184 Y147.763 E36.70287
G1 X91.875 Y147.444 E36.71764
G1 X91.276 Y146.768 E36.74768
G1 X90.739 Y146.042 E36.77771
G1 X90.268 Y145.271 E36.80776
G1 X89.868 Y144.461 E36.83781
G1 X89.54 Y143.62 E36.86783
G1 X89.289 Y142.752 E36.89789
G1 X89.115 Y141.866 E36.92792
G1 X89.003 Y140.53 E36.97251
G1 X88.991 Y139.79 E36.99712
G1 X88.992 Y80.181 E38.97973
G1 F2400 E38.17973
G1 F300 Z0.8
G0 F6000 X103.337 Y96.692 Z0.8
G0 X103.295 Y96.848
G1 F300 Z0.2
G1 F2400 E38.97973
G1 F1200 X103.337 Y96.692 E38.9851
G1 X103.449 Y96.58 E38.99037
G1 X103.605 Y96.538 E38.99574
G1 X103.761 Y96.58 E39.00112
G1 X103.874 Y96.692 E39.00641
G1 X103.915 Y96.848 E39.01177
G1 X103.874 Y97.005 E39.01717
G1 X103.762 Y97.117 E39.02244
G1 X103.605 Y97.158 E39.02783
G1 X103.449 Y97.117 E39.0332
G1 X103.337 Y97.004 E39.03849
G1 X103.295 Y96.848 E39.04386
G0 F6000 X102.892 Y96.848
G1 F1200 X102.986 Y96.494 E39.05605
G1 X103.251 Y96.229 E39.06851
G1 X103.605 Y96.135 E39.08069
G1 X103.963 Y96.232 E39.09303
G1 X104.225 Y96.494 E39.10535
G1 X104.318 Y96.848 E39.11753
G1 X104.225 Y97.203 E39.12973
G1 X103.96 Y97.468 E39.1422
G1 X103.605 Y97.561 E39.1544
G1 X103.251 Y97.468 E39.16658
G1 X102.989 Y97.206 E39.1789
G1 X102.892 Y96.848 E39.19124
G0 F6000 X102.488 Y96.848
G1 F1200 X102.526 Y96.56 E39.2009
G1 X102.638 Y96.29 E39.21062
G1 X102.816 Y96.059 E39.22032
G1 X103.047 Y95.881 E39.23002
G1 X103.317 Y95.769 E39.23974
G1 X103.605 Y95.731 E39.2494
G1 X103.893 Y95.769 E39.25907
G1 X104.164 Y95.881 E39.26882
G1 X104.395 Y96.059 E39.27852
G1 X104.573 Y96.29 E39.28822
G1 X104.684 Y96.56 E39.29793
G1 X104.722 Y96.848 E39.30759
G1 X104.684 Y97.137 E39.31729
G1 X104.573 Y97.407 E39.32699
G1 X104.395 Y97.638 E39.33669
G1 X104.164 Y97.816 E39.34639
G1 X103.894 Y97.927 E39.3561
G1 X103.605 Y97.965 E39.3658
G1 X103.317 Y97.927 E39.37546
G1 X103.047 Y97.816 E39.38517
G1 X102.816 Y97.638 E39.39487
G1 X102.638 Y97.407 E39.40457
G1 X102.526 Y97.136 E39.41432
G1 X102.488 Y96.848 E39.42398
G1 F2400 E38.62398
;MESH:mtk64_PMCase_RH_rev2 v16.stl
G0 F6000 X103.624 Y99.173
;TYPE:WALL-OUTER
G1 F2400 E39.42398
G1 F900 X103.579 Y99.172 E39.42548
G1 X103.026 Y99.1 E39.44403
G1 X102.975 Y99.086 E39.44579
G1 X102.464 Y98.875 E39.46418
