;FLAVOR:Marlin
;TIME:3618
;Filament used: 1.72524m
;Layer height: 0.2
;MINX:65.894
;MINY:85.888
;MINZ:0.2
;MAXX:148.104
;MAXY:136.112
;MAXZ:10
;Generated with Cura_SteamEngine 5.0.0
M140 S50
M105
M190 S50
M104 S200
M105
M109 S200
M82 ;absolute extrusion mode

G28 ;Home
;G29 ;Bed levelling

G92 E0 ;Reset Extruder
G1 Z2.0 F3000 ;Move Z Axis up
G1 X10.1 Y20 Z0.28 F5000.0 ;Move to start position
G1 X10.1 Y200.0 Z0.28 F1500.0 E15 ;Draw the first line
G1 X10.4 Y200.0 Z0.28 F5000.0 ;Move to side a little
G1 X10.4 Y20 Z0.28 F1500.0 E30 ;Draw the second line
G92 E0 ;Reset Extruder
G1 Z2.0 F3000 ;Move Z Axis up
G92 E0
G92 E0
G1 F2400 E-0.8
;LAYER_COUNT:50
;LAYER:0
M107
G1 F300 Z0.8
G0 F6000 X70.778 Y88.505 Z0.8
G1 F300 Z0.2
G0 F6000 X65.895 Y98.7
;TYPE:SKIRT
G1 F2400 E0
G1 F1200 X65.905 Y97.998 E0.02335
G1 X65.959 Y97.028 E0.05566
G1 X66.092 Y96.066 E0.08796
G1 X66.304 Y95.118 E0.12027
G1 X66.594 Y94.191 E0.15258
G1 X66.958 Y93.29 E0.1849
G1 X67.396 Y92.423 E0.21721
G1 X67.903 Y91.595 E0.2495
G1 X68.477 Y90.811 E0.28182
G1 X69.103 Y90.088 E0.31362
G1 X69.745 Y89.431 E0.34418
G1 X70.047 Y89.144 E0.35803
G1 X70.778 Y88.505 E0.39033
G1 X71.56 Y87.927 E0.42267
G1 X72.386 Y87.416 E0.45498
G1 X73.251 Y86.975 E0.48727
G1 X74.15 Y86.606 E0.51959
G1 X75.076 Y86.313 E0.55189
G1 X76.023 Y86.096 E0.58421
G1 X76.984 Y85.958 E0.6165
G1 X77.947 Y85.9 E0.64859
G1 X78.692 Y85.888 E0.67337
G1 X129.432 Y85.889 E2.36099
G1 X130.134 Y85.899 E2.38434
G1 X131.104 Y85.953 E2.41665
G1 X132.066 Y86.086 E2.44895
G1 X133.014 Y86.298 E2.48126
G1 X133.941 Y86.588 E2.51357
G1 X134.842 Y86.952 E2.54589
G1 X135.709 Y87.39 E2.57819
G1 X136.537 Y87.897 E2.61049
G1 X137.321 Y88.471 E2.6428
G1 X138.158 Y89.205 E2.67983
G1 X138.734 Y89.763 E2.7065
G1 X140.745 Y91.776 E2.80114
G1 X141.245 Y92.291 E2.82502
G1 X141.893 Y93.016 E2.85736
G1 X142.478 Y93.791 E2.88965
G1 X142.998 Y94.611 E2.92195
G1 X143.449 Y95.472 E2.95428
G1 X143.827 Y96.366 E2.98656
G1 X144.131 Y97.289 E3.01888
G1 X144.349 Y98.192 E3.04978
G1 X144.49 Y98.91 E3.07411
G1 X147.829 Y117.851 E3.71381
G1 X147.942 Y118.555 E3.73752
G1 X148.056 Y119.52 E3.76984
G1 X148.09 Y120.289 E3.79544
G1 X148.104 Y121.808 E3.84597
G1 X148.094 Y122.51 E3.86932
G1 X148.04 Y123.48 E3.90163
G1 X147.907 Y124.442 E3.93393
G1 X147.695 Y125.39 E3.96624
G1 X147.405 Y126.317 E3.99855
G1 X147.041 Y127.218 E4.03087
G1 X146.603 Y128.085 E4.06318
G1 X146.096 Y128.913 E4.09547
G1 X145.522 Y129.697 E4.12779
G1 X144.944 Y130.369 E4.15727
G1 X144.34 Y130.995 E4.1862
G1 X143.984 Y131.339 E4.20266
G1 X143.258 Y131.984 E4.23496
G1 X142.481 Y132.568 E4.26729
G1 X141.66 Y133.086 E4.29958
G1 X140.798 Y133.535 E4.33191
G1 X139.903 Y133.911 E4.3642
G1 X138.979 Y134.212 E4.39652
G1 X138.034 Y134.437 E4.42883
G1 X136.841 Y134.606 E4.4689
G1 X135.582 Y134.719 E4.51094
G1 X133.079 Y134.981 E4.59465
G1 X132.079 Y135.12 E4.62823
G1 X131.734 Y135.154 E4.63976
G1 X130.582 Y135.303 E4.67839
G1 X129.245 Y135.4 E4.72298
G1 X128.336 Y135.412 E4.75322
G1 X124.387 Y135.412 E4.88456
G1 X121.778 Y135.449 E4.97135
G1 X119.3 Y135.554 E5.05384
G1 X116.816 Y135.73 E5.13666
G1 X114.978 Y135.905 E5.19807
G1 X113.771 Y136.032 E5.23844
G1 X112.734 Y136.095 E5.27299
G1 X111.636 Y136.112 E5.30952
G1 X96.437 Y136.112 E5.81504
G1 X95.729 Y136.102 E5.83859
G1 X94.735 Y136.046 E5.8717
G1 X93.681 Y135.94 E5.90693
G1 X92.912 Y135.852 E5.93268
G1 X90.41 Y135.637 E6.0162
G1 X87.921 Y135.495 E6.09912
G1 X85.409 Y135.422 E6.18271
G1 X84.04 Y135.412 E6.22824
G1 X78.873 Y135.412 E6.40009
G1 X78.007 Y135.401 E6.4289
G1 X77.038 Y135.347 E6.46118
G1 X76.075 Y135.213 E6.49352
G1 X75.127 Y135.001 E6.52583
G1 X74.2 Y134.712 E6.55812
G1 X73.3 Y134.347 E6.59043
G1 X72.433 Y133.909 E6.62273
G1 X71.604 Y133.402 E6.65505
G1 X70.821 Y132.828 E6.68734
G1 X70.146 Y132.247 E6.71697
G1 X69.563 Y131.685 E6.7439
G1 X69.245 Y131.358 E6.75907
G1 X68.597 Y130.634 E6.79139
G1 X68.01 Y129.859 E6.82372
G1 X67.49 Y129.039 E6.85602
G1 X67.038 Y128.179 E6.88833
G1 X66.659 Y127.285 E6.92063
G1 X66.355 Y126.362 E6.95295
G1 X66.128 Y125.418 E6.98524
G1 X65.979 Y124.458 E7.01755
G1 X65.906 Y123.324 E7.05535
G1 X65.894 Y122.52 E7.08209
G1 X65.895 Y98.7 E7.87435
G0 F6000 X66.295 Y98.706
G1 F1200 X66.305 Y98.004 E7.8977
G1 X66.359 Y97.05 E7.92948
G1 X66.492 Y96.105 E7.96122
G1 X66.704 Y95.174 E7.99298
G1 X66.993 Y94.264 E8.02474
G1 X67.357 Y93.381 E8.0565
G1 X67.793 Y92.532 E8.08825
G1 X68.3 Y91.723 E8.12
G1 X68.872 Y90.958 E8.15177
G1 X69.394 Y90.361 E8.17815
G1 X69.564 Y90.18 E8.18641
G1 X70.021 Y89.721 E8.20795
G1 X70.323 Y89.434 E8.22181
G1 X71.042 Y88.806 E8.25356
G1 X71.811 Y88.24 E8.28532
G1 X72.625 Y87.741 E8.31707
G1 X73.477 Y87.311 E8.34881
G1 X74.363 Y86.955 E8.38057
G1 X75.275 Y86.673 E8.41232
G1 X76.208 Y86.469 E8.44409
G1 X77.155 Y86.344 E8.47586
G1 X77.955 Y86.3 E8.50251
G1 X78.692 Y86.288 E8.52702
G1 X129.426 Y86.289 E10.21444
G1 X130.128 Y86.299 E10.23779
G1 X131.082 Y86.353 E10.26957
G1 X132.027 Y86.486 E10.30131
G1 X132.958 Y86.698 E10.33307
G1 X133.868 Y86.987 E10.36483
G1 X134.751 Y87.351 E10.39659
G1 X135.6 Y87.787 E10.42834
G1 X136.409 Y88.294 E10.46009
G1 X137.174 Y88.866 E10.49186
G1 X137.881 Y89.493 E10.52329
G1 X138.451 Y90.046 E10.54971
G1 X140.458 Y92.055 E10.64416
G1 X140.958 Y92.57 E10.66803
G1 X141.594 Y93.282 E10.69978
G1 X142.168 Y94.045 E10.73154
G1 X142.676 Y94.854 E10.76331
G1 X143.115 Y95.702 E10.79507
G1 X143.481 Y96.583 E10.8268
G1 X143.772 Y97.493 E10.85858
G1 X143.957 Y98.27 E10.88515
G1 X144.096 Y98.98 E10.90921
G1 X147.434 Y117.914 E11.54867
G1 X147.547 Y118.618 E11.57238
G1 X147.659 Y119.567 E11.60417
G1 X147.69 Y120.294 E11.62837
G1 X147.704 Y121.802 E11.67853
G1 X147.694 Y122.504 E11.70188
G1 X147.64 Y123.458 E11.73366
G1 X147.507 Y124.403 E11.7654
G1 X147.295 Y125.334 E11.79716
G1 X147.006 Y126.244 E11.82891
G1 X146.642 Y127.127 E11.86068
G1 X146.206 Y127.976 E11.89242
G1 X145.699 Y128.785 E11.92418
G1 X145.127 Y129.55 E11.95595
G1 X144.651 Y130.097 E11.98007
G1 X144.062 Y130.707 E12.00827
G1 X143.706 Y131.051 E12.02473
G1 X142.992 Y131.685 E12.05649
G1 X142.228 Y132.257 E12.08824
G1 X141.418 Y132.764 E12.12002
G1 X140.569 Y133.2 E12.15176
G1 X139.686 Y133.564 E12.18353
G1 X138.776 Y133.853 E12.21529
G1 X137.845 Y134.065 E12.24704
G1 X136.805 Y134.207 E12.28195
G1 X135.571 Y134.318 E12.32316
G1 X133.042 Y134.582 E12.40774
G1 X132.024 Y134.724 E12.44192
G1 X131.707 Y134.755 E12.45252
G1 X130.53 Y134.907 E12.49199
G1 X129.239 Y135 E12.53504
G1 X128.336 Y135.012 E12.56507
G1 X124.381 Y135.012 E12.69662
G1 X121.791 Y135.049 E12.78277
G1 X119.256 Y135.156 E12.86716
G1 X116.79 Y135.331 E12.94939
G1 X115.009 Y135.501 E13.00889
G1 X113.73 Y135.635 E13.05166
G1 X112.727 Y135.695 E13.08508
G1 X111.636 Y135.712 E13.12137
G1 X96.443 Y135.712 E13.6267
G1 X95.735 Y135.702 E13.65025
G1 X94.775 Y135.648 E13.68223
G1 X93.727 Y135.543 E13.71726
G1 X92.922 Y135.451 E13.74421
G1 X90.471 Y135.24 E13.82603
G1 X87.919 Y135.095 E13.91105
G1 X85.423 Y135.022 E13.9941
G1 X84.043 Y135.012 E14.04
G1 X78.873 Y135.012 E14.21195
G1 X78.013 Y135.001 E14.24056
G1 X77.06 Y134.947 E14.27231
G1 X76.115 Y134.814 E14.30405
G1 X75.184 Y134.602 E14.33581
G1 X74.274 Y134.313 E14.36756
G1 X73.391 Y133.949 E14.39933
G1 X72.542 Y133.512 E14.43109
G1 X71.733 Y133.006 E14.46282
G1 X70.968 Y132.433 E14.49461
G1 X70.418 Y131.954 E14.51887
G1 X69.849 Y131.406 E14.54515
G1 X69.531 Y131.079 E14.56032
G1 X68.895 Y130.367 E14.59207
G1 X68.32 Y129.604 E14.62385
G1 X67.812 Y128.797 E14.65556
G1 X67.372 Y127.949 E14.68734
G1 X67.005 Y127.067 E14.71911
G1 X66.713 Y126.158 E14.75087
G1 X66.499 Y125.228 E14.78261
G1 X66.362 Y124.283 E14.81437
G1 X66.306 Y123.318 E14.84652
G1 X66.294 Y122.52 E14.87306
G1 X66.295 Y98.706 E15.66512
G0 F6000 X66.695 Y98.711
G1 F1200 X66.705 Y98.009 E15.68847
G1 X66.758 Y97.073 E15.71965
G1 X66.891 Y96.145 E15.75083
G1 X67.103 Y95.231 E15.78204
G1 X67.391 Y94.338 E15.81325
G1 X67.755 Y93.474 E15.84443
G1 X68.191 Y92.643 E15.87564
G1 X68.696 Y91.853 E15.90683
G1 X69.266 Y91.109 E15.938
G1 X69.686 Y90.635 E15.95906
G1 X70.296 Y90.011 E15.98809
G1 X70.598 Y89.724 E16.00195
G1 X71.305 Y89.108 E16.03313
G1 X72.062 Y88.554 E16.06433
G1 X72.863 Y88.066 E16.09553
G1 X73.703 Y87.649 E16.12672
G1 X74.575 Y87.304 E16.15791
G1 X75.474 Y87.035 E16.18912
G1 X76.392 Y86.844 E16.22031
G1 X77.323 Y86.731 E16.2515
G1 X77.963 Y86.7 E16.27281
G1 X78.692 Y86.688 E16.29706
G1 X129.421 Y86.689 E17.98432
G1 X130.123 Y86.699 E18.00767
G1 X131.059 Y86.752 E18.03885
G1 X131.987 Y86.885 E18.07003
G1 X132.901 Y87.097 E18.10124
G1 X133.794 Y87.385 E18.13244
G1 X134.658 Y87.749 E18.16363
G1 X135.489 Y88.185 E18.19484
G1 X136.279 Y88.69 E18.22602
G1 X137.023 Y89.26 E18.2572
G1 X137.603 Y89.781 E18.28313
G1 X138.168 Y90.329 E18.30931
G1 X140.171 Y92.334 E18.40357
G1 X140.671 Y92.849 E18.42744
G1 X141.295 Y93.549 E18.45863
G1 X141.857 Y94.3 E18.48983
G1 X142.354 Y95.095 E18.52102
G1 X142.78 Y95.931 E18.55222
G1 X143.134 Y96.799 E18.5834
G1 X143.412 Y97.695 E18.6146
G1 X143.564 Y98.349 E18.63694
G1 X143.702 Y99.049 E18.66067
G1 X147.039 Y117.978 E19.29996
G1 X147.152 Y118.682 E19.32367
G1 X147.261 Y119.613 E19.35485
G1 X147.29 Y120.298 E19.37765
G1 X147.304 Y121.797 E19.42751
G1 X147.294 Y122.499 E19.45086
G1 X147.241 Y123.435 E19.48204
G1 X147.108 Y124.363 E19.51322
G1 X146.896 Y125.277 E19.54443
G1 X146.608 Y126.17 E19.57564
G1 X146.244 Y127.034 E19.60682
G1 X145.808 Y127.865 E19.63803
G1 X145.303 Y128.655 E19.66922
G1 X144.733 Y129.399 E19.70039
G1 X144.202 Y129.992 E19.72687
G1 X143.784 Y130.419 E19.74674
G1 X143.428 Y130.763 E19.76321
G1 X142.726 Y131.386 E19.79442
G1 X141.974 Y131.946 E19.82561
G1 X141.177 Y132.44 E19.85679
G1 X140.341 Y132.865 E19.88799
G1 X139.471 Y133.217 E19.9192
G1 X138.575 Y133.493 E19.95038
G1 X137.659 Y133.692 E19.98156
G1 X136.769 Y133.809 E20.01142
G1 X135.492 Y133.924 E20.05406
G1 X133.001 Y134.184 E20.13736
G1 X131.968 Y134.328 E20.17205
G1 X131.643 Y134.359 E20.18291
G1 X130.479 Y134.51 E20.22195
G1 X129.233 Y134.6 E20.2635
G1 X128.336 Y134.612 E20.29334
G1 X124.376 Y134.612 E20.42505
G1 X121.768 Y134.649 E20.5118
G1 X119.246 Y134.756 E20.59576
G1 X116.764 Y134.932 E20.67852
G1 X114.928 Y135.107 E20.73986
G1 X113.688 Y135.237 E20.78133
G1 X112.721 Y135.295 E20.81355
G1 X111.636 Y135.312 E20.84964
G1 X96.449 Y135.312 E21.35476
G1 X95.741 Y135.302 E21.37831
G1 X94.814 Y135.25 E21.40919
G1 X93.772 Y135.145 E21.44403
G1 X92.999 Y135.056 E21.46991
G1 X90.457 Y134.838 E21.55476
G1 X87.953 Y134.695 E21.63818
G1 X85.438 Y134.622 E21.72187
G1 X84.046 Y134.612 E21.76817
G1 X78.873 Y134.612 E21.94022
G1 X78.019 Y134.601 E21.96863
G1 X77.083 Y134.547 E21.99981
G1 X76.154 Y134.414 E22.03102
G1 X75.241 Y134.203 E22.06219
G1 X74.348 Y133.914 E22.09341
G1 X73.484 Y133.551 E22.12458
G1 X72.653 Y133.115 E22.15579
G1 X71.863 Y132.609 E22.18699
G1 X71.119 Y132.039 E22.21817
G1 X70.535 Y131.517 E22.24422
G1 X70.136 Y131.127 E22.26278
G1 X69.818 Y130.8 E22.27795
G1 X69.193 Y130.1 E22.30916
G1 X68.631 Y129.35 E22.34033
G1 X68.134 Y128.554 E22.37154
G1 X67.707 Y127.72 E22.40271
G1 X67.352 Y126.851 E22.43393
G1 X67.073 Y125.956 E22.46511
G1 X66.871 Y125.04 E22.49631
G1 X66.748 Y124.11 E22.52751
G1 X66.705 Y123.311 E22.55412
G1 X66.694 Y122.52 E22.58043
G1 X66.695 Y98.711 E23.37232
G0 F6000 X67.095 Y98.717
G1 F1200 X67.105 Y98.015 E23.39567
G1 X67.158 Y97.096 E23.42629
G1 X67.291 Y96.185 E23.45691
G1 X67.502 Y95.289 E23.48753
G1 X67.79 Y94.414 E23.51817
G1 X68.153 Y93.568 E23.54879
G1 X68.588 Y92.757 E23.5794
G1 X69.092 Y91.986 E23.61003
G1 X69.66 Y91.262 E23.64064
G1 X70.148 Y90.728 E23.6647
G1 X70.572 Y90.301 E23.68471
G1 X70.874 Y90.014 E23.69857
G1 X71.568 Y89.41 E23.72917
G1 X72.312 Y88.868 E23.75979
G1 X73.101 Y88.392 E23.79043
G1 X73.927 Y87.987 E23.82103
G1 X74.786 Y87.655 E23.85166
G1 X75.67 Y87.398 E23.88228
G1 X76.573 Y87.22 E23.91289
G1 X77.489 Y87.12 E23.94354
G1 X77.971 Y87.1 E23.95958
G1 X78.692 Y87.088 E23.98357
G1 X129.415 Y87.089 E25.67062
G1 X130.117 Y87.099 E25.69397
G1 X131.036 Y87.152 E25.72459
G1 X131.947 Y87.285 E25.75521
G1 X132.843 Y87.496 E25.78583
G1 X133.718 Y87.784 E25.81647
G1 X134.564 Y88.147 E25.84709
G1 X135.375 Y88.582 E25.87769
G1 X136.146 Y89.086 E25.90833
G1 X136.87 Y89.654 E25.93894
G1 X137.325 Y90.069 E25.95942
G1 X137.885 Y90.612 E25.98536
G1 X139.884 Y92.612 E26.07941
G1 X140.384 Y93.127 E26.10329
G1 X140.996 Y93.815 E26.13391
G1 X141.546 Y94.553 E26.16453
G1 X142.03 Y95.337 E26.19517
G1 X142.444 Y96.159 E26.22578
G1 X142.786 Y97.014 E26.25641
G1 X143.051 Y97.895 E26.28701
G1 X143.172 Y98.428 E26.30519
G1 X143.308 Y99.119 E26.32861
G1 X146.644 Y118.041 E26.96767
G1 X146.757 Y118.745 E26.99138
G1 X146.863 Y119.66 E27.02202
G1 X146.89 Y120.303 E27.04342
G1 X146.904 Y121.791 E27.09292
G1 X146.894 Y122.493 E27.11627
G1 X146.841 Y123.412 E27.14689
G1 X146.708 Y124.323 E27.17751
G1 X146.497 Y125.219 E27.20812
G1 X146.209 Y126.094 E27.23876
G1 X145.846 Y126.94 E27.26938
G1 X145.411 Y127.751 E27.29999
G1 X144.907 Y128.522 E27.33063
G1 X144.064 Y129.553 E27.37492
G1 X143.506 Y130.132 E27.40167
G1 X143.15 Y130.476 E27.41813
G1 X142.461 Y131.086 E27.44874
G1 X141.721 Y131.634 E27.47936
G1 X140.937 Y132.116 E27.50997
G1 X140.113 Y132.529 E27.54063
G1 X139.257 Y132.868 E27.57125
G1 X138.375 Y133.131 E27.60186
G1 X137.474 Y133.317 E27.63246
G1 X136.734 Y133.41 E27.65727
G1 X135.551 Y133.516 E27.69677
G1 X132.933 Y133.79 E27.78432
G1 X131.913 Y133.932 E27.81858
G1 X131.588 Y133.963 E27.82944
G1 X130.428 Y134.113 E27.86834
G1 X129.226 Y134.2 E27.90842
G1 X128.336 Y134.212 E27.93803
G1 X124.37 Y134.212 E28.06994
G1 X121.745 Y134.249 E28.15725
G1 X119.237 Y134.356 E28.24074
G1 X116.697 Y134.536 E28.32544
G1 X114.949 Y134.702 E28.38384
G1 X113.646 Y134.839 E28.42741
G1 X112.714 Y134.896 E28.45847
G1 X111.636 Y134.912 E28.49433
G1 X96.454 Y134.912 E28.99928
G1 X95.746 Y134.902 E29.02283
G1 X94.853 Y134.852 E29.05258
G1 X93.818 Y134.748 E29.08718
G1 X93.012 Y134.656 E29.11416
G1 X90.513 Y134.441 E29.19759
G1 X87.988 Y134.297 E29.2817
G1 X85.407 Y134.222 E29.36759
G1 X84.049 Y134.212 E29.41275
G1 X78.873 Y134.212 E29.58491
G1 X78.025 Y134.201 E29.61312
G1 X77.106 Y134.148 E29.64373
G1 X76.195 Y134.015 E29.67435
G1 X75.298 Y133.804 E29.705
G1 X74.424 Y133.515 E29.73562
G1 X73.578 Y133.152 E29.76624
G1 X72.767 Y132.717 E29.79685
G1 X71.996 Y132.213 E29.82748
G1 X70.962 Y131.368 E29.8719
G1 X70.423 Y130.848 E29.89681
G1 X70.105 Y130.521 E29.91198
G1 X69.492 Y129.834 E29.9426
G1 X68.942 Y129.096 E29.97322
G1 X68.457 Y128.313 E30.00385
G1 X68.042 Y127.491 E30.03448
G1 X67.7 Y126.636 E30.0651
G1 X67.434 Y125.755 E30.09571
G1 X67.245 Y124.854 E30.12633
G1 X67.135 Y123.94 E30.15695
G1 X67.105 Y123.304 E30.17813
G1 X67.094 Y122.52 E30.20421
G1 X67.095 Y98.717 E30.9959
G0 F6000 X67.495 Y98.723
G1 F1200 X67.505 Y98.021 E31.01925
G1 X67.558 Y97.119 E31.0493
G1 X67.69 Y96.226 E31.07932
G1 X67.901 Y95.348 E31.10936
G1 X68.189 Y94.492 E31.1394
G1 X68.551 Y93.664 E31.16945
G1 X68.985 Y92.872 E31.19949
G1 X69.488 Y92.122 E31.22953
G1 X70.269 Y91.183 E31.27015
G1 X70.847 Y90.591 E31.29767
G1 X71.149 Y90.304 E31.31152
G1 X71.831 Y89.712 E31.34156
G1 X72.562 Y89.182 E31.37159
G1 X73.338 Y88.719 E31.40165
G1 X74.151 Y88.326 E31.43168
G1 X74.996 Y88.007 E31.46172
G1 X75.865 Y87.763 E31.49174
G1 X76.753 Y87.598 E31.52178
G1 X77.978 Y87.5 E31.56266
G1 X78.692 Y87.488 E31.58641
G1 X129.409 Y87.489 E33.27326
G1 X130.111 Y87.499 E33.29661
G1 X131.013 Y87.552 E33.32667
G1 X131.906 Y87.684 E33.35669
G1 X132.784 Y87.895 E33.38672
G1 X133.64 Y88.183 E33.41676
G1 X134.468 Y88.545 E33.44682
G1 X135.26 Y88.979 E33.47686
G1 X136.01 Y89.482 E33.50689
G1 X136.713 Y90.048 E33.53691
G1 X137.047 Y90.357 E33.55205
G1 X137.602 Y90.895 E33.57775
G1 X139.597 Y92.891 E33.67162
G1 X140.097 Y93.406 E33.69549
G1 X140.697 Y94.081 E33.72553
G1 X141.235 Y94.807 E33.75558
G1 X141.706 Y95.577 E33.7856
G1 X142.108 Y96.386 E33.81565
G1 X142.436 Y97.227 E33.84567
G1 X142.78 Y98.506 E33.88973
G1 X142.914 Y99.188 E33.91284
G1 X146.249 Y118.104 E34.5517
G1 X146.362 Y118.808 E34.57541
G1 X146.466 Y119.706 E34.60548
