;FLAVOR:Marlin
;TIME:2786
;Filament used: 1.71802m
;Layer height: 0.2
;MINX:68.894
;MINY:84.887
;MINZ:0.2
;MAXX:151.106
;MAXY:135.112
;MAXZ:10
;Generated with Cura_SteamEngine 5.0.0
M140 S50
M105
M190 S50
M104 S200
M105
M109 S200
M82 ;absolute extrusion mode

G28 ;Home
;G29 ;Bed levelling

G92 E0 ;Reset Extruder
G1 Z2.0 F3000 ;Move Z Axis up
G1 X10.1 Y20 Z0.28 F5000.0 ;Move to start position
G1 X10.1 Y200.0 Z0.28 F1500.0 E15 ;Draw the first line
G1 X10.4 Y200.0 Z0.28 F5000.0 ;Move to side a little
G1 X10.4 Y20 Z0.28 F1500.0 E30 ;Draw the second line
G92 E0 ;Reset Extruder
G1 Z2.0 F3000 ;Move Z Axis up
G92 E0
G92 E0
G1 F2400 E-0.8
;LAYER_COUNT:50
;LAYER:0
M107
G1 F300 Z0.6
G0 F6000 X78.808 Y88.235 Z0.6
G1 F300 Z0.2
G0 F6000 X72.501 Y97.965
;TYPE:SKIRT
G1 F2400 E0
G1 F1200 X72.629 Y97.296 E0.02265
G1 X72.851 Y96.35 E0.05497
G1 X73.15 Y95.425 E0.08731
G1 X73.523 Y94.529 E0.11959
G1 X73.97 Y93.666 E0.15191
G1 X74.485 Y92.843 E0.1842
G1 X75.067 Y92.065 E0.21652
G1 X75.653 Y91.397 E0.24607
G1 X76.162 Y90.866 E0.27054
G1 X78.309 Y88.72 E0.3715
G1 X78.808 Y88.235 E0.39465
G1 X79.532 Y87.587 E0.42696
G1 X80.306 Y87.001 E0.45925
G1 X81.126 Y86.481 E0.49155
G1 X81.987 Y86.03 E0.52388
G1 X82.881 Y85.651 E0.55617
G1 X83.804 Y85.347 E0.58849
G1 X84.748 Y85.12 E0.62079
G1 X85.708 Y84.971 E0.6531
G1 X86.816 Y84.899 E0.69003
G1 X87.577 Y84.887 E0.71534
G1 X138.294 Y84.888 E2.4022
G1 X138.995 Y84.898 E2.42551
G1 X139.965 Y84.952 E2.45783
G1 X140.927 Y85.085 E2.49013
G1 X141.875 Y85.298 E2.52244
G1 X142.803 Y85.587 E2.55477
G1 X143.703 Y85.952 E2.58707
G1 X144.57 Y86.389 E2.61937
G1 X145.399 Y86.896 E2.65169
G1 X146.183 Y87.47 E2.684
G1 X146.907 Y88.097 E2.71586
G1 X147.494 Y88.668 E2.7431
G1 X147.781 Y88.965 E2.75683
G1 X148.427 Y89.691 E2.78916
G1 X149.011 Y90.467 E2.82146
G1 X149.529 Y91.289 E2.85377
G1 X149.978 Y92.151 E2.8861
G1 X150.354 Y93.046 E2.91839
G1 X150.655 Y93.97 E2.95071
G1 X150.879 Y94.915 E2.98301
G1 X151.025 Y95.875 E3.01531
G1 X151.094 Y96.923 E3.05024
G1 X151.106 Y97.652 E3.07449
G1 X151.104 Y121.6 E3.871
G1 X151.094 Y122.298 E3.89422
G1 X151.04 Y123.268 E3.92653
G1 X150.906 Y124.23 E3.95884
G1 X150.694 Y125.178 E3.99115
G1 X150.405 Y126.105 E4.02344
G1 X150.04 Y127.006 E4.05578
G1 X149.603 Y127.873 E4.08807
G1 X149.095 Y128.701 E4.12038
G1 X148.521 Y129.485 E4.1527
G1 X148.001 Y130.094 E4.17933
G1 X147.398 Y130.725 E4.20836
G1 X147.057 Y131.057 E4.22419
G1 X146.333 Y131.705 E4.25651
G1 X145.559 Y132.292 E4.28882
G1 X144.739 Y132.813 E4.32113
G1 X143.879 Y133.265 E4.35344
G1 X142.985 Y133.644 E4.38574
G1 X142.063 Y133.949 E4.41804
G1 X141.119 Y134.177 E4.45034
G1 X140.159 Y134.326 E4.48265
G1 X139.036 Y134.4 E4.52008
G1 X138.267 Y134.412 E4.54566
G1 X133.003 Y134.412 E4.72075
G1 X130.394 Y134.449 E4.80753
G1 X127.919 Y134.554 E4.88992
G1 X125.417 Y134.731 E4.97335
G1 X123.65 Y134.899 E5.03238
G1 X122.389 Y135.032 E5.07456
G1 X121.347 Y135.095 E5.10928
G1 X120.239 Y135.112 E5.14613
G1 X105.014 Y135.11 E5.65252
G1 X104.273 Y135.097 E5.67717
G1 X103.317 Y135.042 E5.70902
G1 X102.293 Y134.939 E5.74325
G1 X101.532 Y134.852 E5.76872
G1 X99.046 Y134.639 E5.85171
G1 X96.538 Y134.495 E5.93527
G1 X94.037 Y134.422 E6.01848
G1 X92.663 Y134.412 E6.06419
G1 X88.642 Y134.412 E6.19792
G1 X87.705 Y134.397 E6.22909
G1 X86.428 Y134.305 E6.27168
G1 X85.271 Y134.156 E6.31048
G1 X84.658 Y134.068 E6.33107
G1 X82.204 Y133.789 E6.41322
G1 X80.654 Y133.655 E6.46497
G1 X79.997 Y133.587 E6.48693
G1 X79.036 Y133.448 E6.51923
G1 X78.089 Y133.229 E6.55156
G1 X77.164 Y132.934 E6.58385
G1 X76.266 Y132.563 E6.61617
G1 X75.402 Y132.12 E6.64846
G1 X74.577 Y131.608 E6.68076
G1 X73.796 Y131.029 E6.71309
G1 X73.147 Y130.464 E6.74171
G1 X72.539 Y129.871 E6.76996
G1 X72.187 Y129.504 E6.78687
G1 X71.544 Y128.776 E6.81918
G1 X70.963 Y127.997 E6.8515
G1 X70.448 Y127.174 E6.88379
G1 X70.003 Y126.31 E6.91612
G1 X69.63 Y125.413 E6.94843
G1 X69.332 Y124.489 E6.98072
G1 X69.111 Y123.543 E7.01303
G1 X68.969 Y122.582 E7.04534
G1 X68.904 Y121.507 E7.08116
G1 X68.894 Y120.621 E7.11063
G1 X68.904 Y119.377 E7.15201
G1 X68.952 Y118.407 E7.18431
G1 X69.05 Y117.62 E7.21069
G1 X69.219 Y116.567 E7.24616
G1 X72.501 Y97.965 E7.87442
G0 F6000 X72.894 Y98.04
G1 F1200 X73.022 Y97.371 E7.89707
G1 X73.241 Y96.441 E7.92885
G1 X73.536 Y95.533 E7.9606
G1 X73.907 Y94.653 E7.99237
G1 X74.349 Y93.808 E8.02409
G1 X74.862 Y93.002 E8.05586
G1 X75.439 Y92.241 E8.08763
G1 X75.944 Y91.672 E8.11293
G1 X76.445 Y91.149 E8.13702
G1 X78.587 Y89.007 E8.23777
G1 X79.086 Y88.522 E8.26092
G1 X79.798 Y87.886 E8.29267
G1 X80.561 Y87.312 E8.32443
G1 X81.369 Y86.803 E8.35619
G1 X82.217 Y86.364 E8.38795
G1 X83.098 Y85.997 E8.41969
G1 X84.008 Y85.705 E8.45148
G1 X84.938 Y85.491 E8.48322
G1 X85.883 Y85.355 E8.51497
G1 X86.823 Y85.299 E8.54629
G1 X87.577 Y85.287 E8.57137
G1 X138.289 Y85.288 E10.25806
G1 X138.99 Y85.298 E10.28138
G1 X139.943 Y85.352 E10.31313
G1 X140.888 Y85.485 E10.34487
G1 X141.819 Y85.697 E10.37663
G1 X142.729 Y85.986 E10.40838
G1 X143.612 Y86.35 E10.44015
G1 X144.461 Y86.786 E10.47189
G1 X145.271 Y87.293 E10.50368
G1 X146.035 Y87.865 E10.53542
G1 X146.633 Y88.389 E10.56186
G1 X147.207 Y88.946 E10.58847
G1 X147.494 Y89.243 E10.6022
G1 X148.128 Y89.957 E10.63396
G1 X148.7 Y90.721 E10.66571
G1 X149.206 Y91.531 E10.69747
G1 X149.643 Y92.38 E10.72923
G1 X150.007 Y93.262 E10.76097
G1 X150.296 Y94.172 E10.79272
G1 X150.508 Y95.103 E10.82448
G1 X150.641 Y96.049 E10.85625
G1 X150.694 Y96.931 E10.88564
G1 X150.706 Y97.652 E10.90963
G1 X150.704 Y121.594 E11.70594
G1 X150.694 Y122.292 E11.72916
G1 X150.64 Y123.246 E11.76094
G1 X150.507 Y124.191 E11.79268
G1 X150.295 Y125.122 E11.82444
G1 X150.006 Y126.032 E11.85619
G1 X149.642 Y126.915 E11.88796
G1 X149.205 Y127.764 E11.91972
G1 X148.699 Y128.573 E11.95146
G1 X148.127 Y129.337 E11.9832
G1 X147.577 Y129.965 E12.01096
G1 X147.119 Y130.438 E12.03286
G1 X146.778 Y130.77 E12.04869
G1 X146.066 Y131.407 E12.08047
G1 X145.304 Y131.982 E12.11222
G1 X144.496 Y132.491 E12.14398
G1 X143.649 Y132.931 E12.17573
G1 X142.768 Y133.299 E12.20748
G1 X141.859 Y133.591 E12.23924
G1 X140.929 Y133.806 E12.27098
G1 X139.984 Y133.943 E12.30274
G1 X139.029 Y134 E12.33456
G1 X138.267 Y134.012 E12.35991
G1 X132.997 Y134.012 E12.53519
G1 X130.407 Y134.049 E12.62134
G1 X127.872 Y134.156 E12.70573
G1 X125.394 Y134.332 E12.78836
G1 X123.571 Y134.505 E12.84927
G1 X122.347 Y134.634 E12.8902
G1 X121.34 Y134.695 E12.92376
G1 X120.239 Y134.712 E12.96038
G1 X105.021 Y134.71 E13.46653
G1 X104.28 Y134.697 E13.49118
G1 X103.356 Y134.643 E13.52197
G1 X102.338 Y134.541 E13.556
G1 X101.572 Y134.454 E13.58164
G1 X99.07 Y134.239 E13.66516
G1 X96.573 Y134.095 E13.74835
G1 X94.051 Y134.022 E13.83227
G1 X92.666 Y134.012 E13.87833
G1 X88.642 Y134.012 E14.01217
G1 X87.713 Y133.997 E14.04307
G1 X86.479 Y133.908 E14.08422
G1 X85.328 Y133.76 E14.12282
G1 X84.723 Y133.674 E14.14315
G1 X82.216 Y133.388 E14.22707
G1 X80.695 Y133.257 E14.27785
G1 X80.038 Y133.189 E14.29981
G1 X79.094 Y133.051 E14.33155
G1 X78.164 Y132.835 E14.3633
G1 X77.255 Y132.541 E14.39508
G1 X76.374 Y132.173 E14.42683
G1 X75.528 Y131.732 E14.45856
G1 X74.721 Y131.221 E14.49033
G1 X73.959 Y130.645 E14.5221
G1 X73.42 Y130.172 E14.54595
G1 X72.828 Y129.594 E14.57347
G1 X72.476 Y129.227 E14.59039
G1 X71.844 Y128.511 E14.62215
G1 X71.275 Y127.745 E14.65389
G1 X70.772 Y126.933 E14.68566
G1 X70.338 Y126.082 E14.71743
G1 X69.977 Y125.198 E14.74919
G1 X69.692 Y124.287 E14.78094
G1 X69.483 Y123.356 E14.81267
G1 X69.354 Y122.41 E14.84443
G1 X69.304 Y121.501 E14.87471
G1 X69.294 Y120.624 E14.90388
G1 X69.304 Y119.38 E14.94526
G1 X69.352 Y118.427 E14.97699
G1 X69.445 Y117.683 E15.00193
G1 X69.613 Y116.636 E15.0372
G1 X72.894 Y98.04 E15.66526
G0 F6000 X73.287 Y98.115
G1 F1200 X73.415 Y97.446 E15.68791
G1 X73.63 Y96.533 E15.71911
G1 X73.923 Y95.642 E15.75031
G1 X74.29 Y94.779 E15.7815
G1 X74.729 Y93.95 E15.8127
G1 X75.238 Y93.162 E15.8439
G1 X75.811 Y92.42 E15.87508
G1 X76.234 Y91.947 E15.89618
G1 X76.728 Y91.432 E15.91992
G1 X78.866 Y89.294 E16.02048
G1 X79.365 Y88.809 E16.04363
G1 X80.065 Y88.185 E16.07482
G1 X80.816 Y87.622 E16.10604
G1 X81.611 Y87.125 E16.13722
G1 X82.446 Y86.698 E16.16841
G1 X83.315 Y86.344 E16.19962
G1 X84.21 Y86.065 E16.2308
G1 X85.126 Y85.863 E16.262
G1 X86.056 Y85.74 E16.2932
G1 X86.83 Y85.699 E16.31898
G1 X87.577 Y85.687 E16.34383
G1 X138.283 Y85.688 E18.03032
G1 X138.984 Y85.698 E18.05364
G1 X139.92 Y85.751 E18.08482
G1 X140.849 Y85.884 E18.11603
G1 X141.762 Y86.096 E18.14721
G1 X142.655 Y86.384 E18.17841
G1 X143.519 Y86.748 E18.2096
G1 X144.35 Y87.184 E18.24081
G1 X145.14 Y87.689 E18.27199
G1 X145.884 Y88.259 E18.30317
G1 X146.359 Y88.68 E18.32428
G1 X146.919 Y89.224 E18.35025
G1 X147.206 Y89.521 E18.36398
G1 X147.829 Y90.223 E18.3952
G1 X148.389 Y90.975 E18.42638
G1 X148.883 Y91.772 E18.45757
G1 X149.308 Y92.608 E18.48876
G1 X149.66 Y93.478 E18.51998
G1 X149.936 Y94.374 E18.55116
G1 X150.135 Y95.29 E18.58234
G1 X150.255 Y96.22 E18.61353
G1 X150.294 Y96.939 E18.63748
G1 X150.306 Y97.652 E18.66119
G1 X150.304 Y121.589 E19.45734
G1 X150.294 Y122.287 E19.48056
G1 X150.24 Y123.223 E19.51174
G1 X150.108 Y124.151 E19.54292
G1 X149.896 Y125.065 E19.57413
G1 X149.607 Y125.957 E19.60531
G1 X149.244 Y126.822 E19.63651
G1 X148.808 Y127.652 E19.6677
G1 X148.303 Y128.443 E19.69891
G1 X147.732 Y129.187 E19.7301
G1 X147.282 Y129.695 E19.75267
G1 X146.839 Y130.151 E19.77382
G1 X146.498 Y130.483 E19.78965
G1 X145.799 Y131.108 E19.82084
G1 X145.049 Y131.672 E19.85205
G1 X144.254 Y132.169 E19.88323
G1 X143.419 Y132.597 E19.91444
G1 X142.551 Y132.952 E19.94563
G1 X141.656 Y133.231 E19.97681
G1 X140.74 Y133.434 E20.00802
G1 X139.811 Y133.558 E20.03919
G1 X139.022 Y133.6 E20.06547
G1 X138.267 Y133.612 E20.09058
G1 X132.992 Y133.612 E20.26603
G1 X130.384 Y133.649 E20.35278
G1 X127.863 Y133.756 E20.43671
G1 X125.368 Y133.933 E20.5199
G1 X123.502 Y134.11 E20.58224
G1 X122.305 Y134.236 E20.62227
G1 X121.334 Y134.296 E20.65463
G1 X120.239 Y134.312 E20.69105
G1 X105.028 Y134.31 E21.19697
G1 X104.287 Y134.297 E21.22162
G1 X103.396 Y134.245 E21.25131
G1 X102.384 Y134.144 E21.28514
G1 X101.62 Y134.057 E21.31071
G1 X99.091 Y133.84 E21.39513
G1 X96.572 Y133.695 E21.47906
G1 X94.066 Y133.622 E21.56244
G1 X92.669 Y133.612 E21.60891
G1 X88.445 Y133.61 E21.7494
G1 X87.72 Y133.597 E21.77351
G1 X86.529 Y133.511 E21.81323
G1 X85.384 Y133.364 E21.85163
G1 X84.754 Y133.274 E21.87279
G1 X82.293 Y132.994 E21.95517
G1 X80.737 Y132.86 E22.00712
G1 X80.08 Y132.792 E22.02909
G1 X79.152 Y132.655 E22.06029
G1 X78.239 Y132.441 E22.09148
G1 X77.347 Y132.149 E22.12269
G1 X76.484 Y131.782 E22.15388
G1 X75.655 Y131.343 E22.18508
G1 X74.867 Y130.835 E22.21627
G1 X74.124 Y130.262 E22.24748
G1 X73.537 Y129.733 E22.27376
G1 X73.116 Y129.317 E22.29344
G1 X72.764 Y128.95 E22.31036
G1 X72.145 Y128.246 E22.34153
G1 X71.587 Y127.492 E22.37273
G1 X71.096 Y126.693 E22.40393
G1 X70.674 Y125.855 E22.43513
G1 X70.326 Y124.985 E22.4663
G1 X70.053 Y124.087 E22.49751
G1 X69.857 Y123.17 E22.5287
G1 X69.74 Y122.24 E22.55988
G1 X69.704 Y121.496 E22.58465
G1 X69.694 Y120.628 E22.61352
G1 X69.704 Y119.384 E22.6549
G1 X69.752 Y118.447 E22.68611
G1 X69.84 Y117.746 E22.70961
G1 X70.007 Y116.706 E22.74464
G1 X73.287 Y98.115 E23.37253
G0 F6000 X73.68 Y98.19
G1 F1200 X73.808 Y97.521 E23.39518
G1 X74.02 Y96.625 E23.42581
G1 X74.309 Y95.751 E23.45642
G1 X74.673 Y94.905 E23.48706
G1 X75.109 Y94.094 E23.51768
G1 X75.613 Y93.324 E23.54829
G1 X76.183 Y92.601 E23.57891
G1 X76.525 Y92.222 E23.59589
G1 X77.011 Y91.715 E23.61925
G1 X79.145 Y89.581 E23.71963
G1 X79.644 Y89.096 E23.74277
G1 X80.331 Y88.483 E23.77339
G1 X81.069 Y87.933 E23.80401
G1 X81.852 Y87.449 E23.83462
G1 X82.674 Y87.034 E23.86525
G1 X83.529 Y86.692 E23.89588
G1 X84.411 Y86.426 E23.92652
G1 X85.312 Y86.238 E23.95713
G1 X86.226 Y86.128 E23.98775
G1 X86.838 Y86.099 E24.00813
G1 X87.577 Y86.087 E24.03271
G1 X138.277 Y86.088 E25.719
G1 X138.978 Y86.098 E25.74232
G1 X139.897 Y86.151 E25.77293
G1 X140.808 Y86.284 E25.80356
G1 X141.704 Y86.495 E25.83417
G1 X142.579 Y86.783 E25.86481
G1 X143.425 Y87.146 E25.89543
G1 X144.236 Y87.581 E25.92604
G1 X145.007 Y88.085 E25.95668
G1 X145.731 Y88.654 E25.9873
G1 X146.267 Y89.143 E26.01143
G1 X146.632 Y89.502 E26.02846
G1 X146.919 Y89.799 E26.0422
G1 X147.529 Y90.488 E26.07281
G1 X148.077 Y91.228 E26.10343
G1 X148.559 Y92.012 E26.13404
G1 X148.971 Y92.835 E26.16465
G1 X149.311 Y93.691 E26.19529
G1 X149.574 Y94.573 E26.2259
G1 X149.76 Y95.475 E26.25653
G1 X149.868 Y96.389 E26.28714
G1 X149.894 Y96.947 E26.30572
G1 X149.906 Y97.652 E26.32917
G1 X149.904 Y121.583 E27.12512
G1 X149.894 Y122.281 E27.14834
G1 X149.841 Y123.2 E27.17896
G1 X149.708 Y124.111 E27.20958
G1 X149.497 Y125.007 E27.24019
G1 X149.209 Y125.881 E27.2708
G1 X148.846 Y126.728 E27.30145
G1 X148.411 Y127.539 E27.33206
G1 X147.907 Y128.309 E27.36267
G1 X147.116 Y129.284 E27.40443
G1 X146.56 Y129.865 E27.43117
G1 X146.219 Y130.197 E27.447
G1 X145.533 Y130.81 E27.4776
G1 X144.795 Y131.361 E27.50823
G1 X144.012 Y131.846 E27.53887
G1 X143.191 Y132.261 E27.56947
G1 X142.336 Y132.604 E27.60011
G1 X141.455 Y132.871 E27.63072
G1 X140.554 Y133.06 E27.66134
G1 X139.64 Y133.171 E27.69197
G1 X139.015 Y133.2 E27.71278
G1 X138.267 Y133.212 E27.73766
G1 X132.986 Y133.212 E27.91331
G1 X130.361 Y133.249 E28.00062
G1 X127.853 Y133.356 E28.08411
G1 X125.346 Y133.533 E28.16771
G1 X123.501 Y133.709 E28.22935
G1 X122.263 Y133.839 E28.27075
G1 X121.327 Y133.896 E28.30194
G1 X120.239 Y133.912 E28.33813
G1 X105.035 Y133.91 E28.84382
G1 X104.294 Y133.897 E28.86847
G1 X103.435 Y133.847 E28.89709
G1 X102.429 Y133.747 E28.93071
G1 X101.627 Y133.655 E28.95756
G1 X99.147 Y133.442 E29.04035
G1 X96.607 Y133.297 E29.12497
G1 X94.035 Y133.222 E29.21055
G1 X92.671 Y133.212 E29.25592
G1 X88.642 Y133.212 E29.38992
G1 X87.727 Y133.197 E29.42036
G1 X86.58 Y133.114 E29.45861
G1 X85.441 Y132.968 E29.4968
G1 X84.823 Y132.88 E29.51756
G1 X82.304 Y132.593 E29.60189
G1 X80.778 Y132.462 E29.65283
G1 X80.121 Y132.394 E29.6748
G1 X79.21 Y132.259 E29.70543
G1 X78.314 Y132.046 E29.73606
G1 X77.44 Y131.756 E29.76669
G1 X76.595 Y131.392 E29.79729
G1 X75.785 Y130.955 E29.8279
G1 X75.015 Y130.45 E29.85853
G1 X73.967 Y129.588 E29.90366
G1 X73.405 Y129.04 E29.92977
G1 X73.053 Y128.673 E29.94668
G1 X72.445 Y127.982 E29.9773
G1 X71.9 Y127.24 E30.00792
G1 X71.42 Y126.454 E30.03855
G1 X71.011 Y125.629 E30.06917
G1 X70.675 Y124.772 E30.09979
G1 X70.415 Y123.889 E30.13041
G1 X70.232 Y122.987 E30.16102
G1 X70.129 Y122.072 E30.19164
G1 X70.104 Y121.49 E30.21102
G1 X70.094 Y120.631 E30.23959
G1 X70.104 Y119.387 E30.28097
G1 X70.152 Y118.467 E30.31161
G1 X70.235 Y117.809 E30.33367
G1 X70.401 Y116.775 E30.3685
G1 X73.68 Y98.19 E30.99619
G0 F6000 X74.073 Y98.265
G1 F1200 X74.201 Y97.596 E31.01884
G1 X74.41 Y96.718 E31.04886
G1 X74.695 Y95.861 E31.0789
G1 X75.056 Y95.033 E31.10894
G1 X75.488 Y94.24 E31.13898
G1 X75.988 Y93.488 E31.16901
G1 X76.815 Y92.497 E31.21194
G1 X77.294 Y91.997 E31.23497
G1 X79.424 Y89.868 E31.33514
G1 X79.923 Y89.383 E31.35828
G1 X80.598 Y88.782 E31.38834
G1 X81.323 Y88.244 E31.41837
G1 X82.093 Y87.773 E31.44839
G1 X82.902 Y87.371 E31.47844
G1 X83.743 Y87.042 E31.50847
G1 X84.61 Y86.789 E31.53851
G1 X85.496 Y86.613 E31.56856
G1 X86.845 Y86.499 E31.61358
G1 X87.577 Y86.487 E31.63793
G1 X138.271 Y86.488 E33.32402
G1 X138.972 Y86.498 E33.34734
G1 X139.874 Y86.551 E33.37739
G1 X140.767 Y86.683 E33.40742
G1 X141.646 Y86.894 E33.43748
G1 X142.502 Y87.182 E33.46752
G1 X143.329 Y87.544 E33.49755
G1 X144.121 Y87.978 E33.52759
G1 X144.871 Y88.481 E33.55762
G1 X145.811 Y89.263 E33.59829
G1 X146.344 Y89.78 E33.62299
G1 X146.631 Y90.077 E33.63672
G1 X147.229 Y90.754 E33.66677
G1 X147.765 Y91.48 E33.69678
G1 X148.235 Y92.252 E33.72684
G1 X148.634 Y93.062 E33.75688
G1 X148.961 Y93.904 E33.78692
G1 X149.211 Y94.772 E33.81696
G1 X149.384 Y95.658 E33.84699
G1 X149.494 Y96.956 E33.89031
G1 X149.506 Y97.652 E33.91347
G1 X149.504 Y121.577 E34.70921
G1 X149.494 Y122.275 E34.73243
G1 X149.441 Y123.177 E34.76248
G1 X149.309 Y124.07 E34.79251
G1 X149.098 Y124.948 E34.82254
