;FLAVOR:Marlin
;TIME:2776
;Filament used: 1.71827m
;Layer height: 0.2
;MINX:68.894
;MINY:84.837
;MINZ:0.2
;MAXX:151.106
;MAXY:135.162
;MAXZ:10
;Generated with Cura_SteamEngine 5.0.0
M140 S50
M105
M190 S50
M104 S200
M105
M109 S200
M82 ;absolute extrusion mode

G28 ;Home
;G29 ;Bed levelling

G92 E0 ;Reset Extruder
G1 Z2.0 F3000 ;Move Z Axis up
G1 X10.1 Y20 Z0.28 F5000.0 ;Move to start position
G1 X10.1 Y200.0 Z0.28 F1500.0 E15 ;Draw the first line
G1 X10.4 Y200.0 Z0.28 F5000.0 ;Move to side a little
G1 X10.4 Y20 Z0.28 F1500.0 E30 ;Draw the second line
G92 E0 ;Reset Extruder
G1 Z2.0 F3000 ;Move Z Axis up
G92 E0
G92 E0
G1 F2400 E-0.8
;LAYER_COUNT:50
;LAYER:0
M107
G1 F300 Z0.6
G0 F6000 X78.808 Y88.185 Z0.6
G1 F300 Z0.2
G0 F6000 X72.501 Y97.915
;TYPE:SKIRT
G1 F2400 E0
G1 F1200 X72.629 Y97.246 E0.02265
G1 X72.851 Y96.3 E0.05497
G1 X73.15 Y95.375 E0.08731
G1 X73.523 Y94.479 E0.11959
G1 X73.97 Y93.616 E0.15191
G1 X74.485 Y92.793 E0.1842
G1 X75.067 Y92.015 E0.21652
G1 X75.653 Y91.347 E0.24607
G1 X76.162 Y90.816 E0.27054
G1 X78.309 Y88.67 E0.3715
G1 X78.808 Y88.185 E0.39465
G1 X79.532 Y87.537 E0.42696
G1 X80.306 Y86.951 E0.45925
G1 X81.126 Y86.431 E0.49155
G1 X81.987 Y85.98 E0.52388
G1 X82.881 Y85.601 E0.55617
G1 X83.804 Y85.297 E0.58849
G1 X84.748 Y85.07 E0.62079
G1 X85.708 Y84.921 E0.6531
G1 X86.816 Y84.849 E0.69003
G1 X87.577 Y84.837 E0.71534
G1 X138.126 Y84.837 E2.39661
G1 X138.995 Y84.848 E2.42551
G1 X139.965 Y84.902 E2.45783
G1 X140.927 Y85.035 E2.49013
G1 X141.875 Y85.248 E2.52244
G1 X142.803 Y85.537 E2.55477
G1 X143.703 Y85.902 E2.58707
G1 X144.57 Y86.339 E2.61937
G1 X145.399 Y86.846 E2.65169
G1 X146.183 Y87.42 E2.684
G1 X146.907 Y88.047 E2.71586
G1 X147.494 Y88.618 E2.7431
G1 X147.781 Y88.915 E2.75683
G1 X148.427 Y89.641 E2.78916
G1 X149.011 Y90.417 E2.82146
G1 X149.529 Y91.239 E2.85377
G1 X149.978 Y92.101 E2.8861
G1 X150.354 Y92.996 E2.91839
G1 X150.655 Y93.92 E2.95071
G1 X150.879 Y94.865 E2.98301
G1 X151.025 Y95.825 E3.01531
G1 X151.094 Y96.873 E3.05024
G1 X151.106 Y97.602 E3.07449
G1 X151.104 Y121.508 E3.86961
G1 X151.094 Y122.241 E3.89399
G1 X151.041 Y123.211 E3.9263
G1 X150.908 Y124.173 E3.9586
G1 X150.696 Y125.121 E3.99091
G1 X150.408 Y126.049 E4.02323
G1 X150.043 Y126.949 E4.05553
G1 X149.607 Y127.817 E4.08784
G1 X149.1 Y128.646 E4.12016
G1 X148.526 Y129.43 E4.15247
G1 X147.678 Y130.385 E4.19495
G1 X147.359 Y130.707 E4.21003
G1 X146.647 Y131.368 E4.24234
G1 X145.884 Y131.969 E4.27465
G1 X145.074 Y132.504 E4.30693
G1 X144.222 Y132.972 E4.33926
G1 X143.335 Y133.367 E4.37156
G1 X142.418 Y133.689 E4.40388
G1 X141.478 Y133.934 E4.43619
G1 X140.521 Y134.1 E4.4685
G1 X139.187 Y134.2 E4.51299
G1 X138.417 Y134.212 E4.53861
G1 X134.78 Y134.212 E4.65957
G1 X132.171 Y134.249 E4.74636
G1 X129.693 Y134.354 E4.82885
G1 X127.21 Y134.53 E4.91164
G1 X124.73 Y134.776 E4.99453
G1 X122.608 Y135.044 E5.06567
G1 X121.379 Y135.134 E5.10666
G1 X119.948 Y135.162 E5.15426
G1 X105.147 Y135.162 E5.64654
G1 X104.423 Y135.151 E5.67063
G1 X103.101 Y135.056 E5.71471
G1 X102.172 Y134.937 E5.74586
G1 X99.579 Y134.642 E5.83266
G1 X97.079 Y134.43 E5.91611
G1 X94.647 Y134.294 E5.99713
G1 X90.782 Y134.212 E6.1257
G1 X88.502 Y134.211 E6.20154
G1 X87.806 Y134.201 E6.22469
G1 X86.811 Y134.144 E6.25784
G1 X86.108 Y134.074 E6.28133
G1 X83.561 Y133.857 E6.36636
G1 X80.947 Y133.709 E6.45344
G1 X80.522 Y133.691 E6.46758
G1 X79.554 Y133.61 E6.49989
G1 X78.596 Y133.449 E6.5322
G1 X77.655 Y133.21 E6.56449
G1 X76.736 Y132.894 E6.59682
G1 X75.847 Y132.504 E6.62911
G1 X74.992 Y132.042 E6.66143
G1 X74.179 Y131.511 E6.69373
G1 X73.411 Y130.915 E6.72606
G1 X72.709 Y130.272 E6.75772
G1 X72.386 Y129.951 E6.77287
G1 X71.726 Y129.238 E6.80518
G1 X71.126 Y128.474 E6.83749
G1 X70.592 Y127.663 E6.86979
G1 X70.126 Y126.81 E6.90212
G1 X69.732 Y125.923 E6.9344
G1 X69.412 Y125.005 E6.96673
G1 X69.168 Y124.065 E6.99903
G1 X69.003 Y123.108 E7.03133
G1 X68.905 Y121.767 E7.07605
G1 X68.894 Y120.948 E7.1033
G1 X68.895 Y119.926 E7.13729
G1 X68.905 Y119.248 E7.15984
G1 X68.96 Y118.278 E7.19216
G1 X69.05 Y117.57 E7.21589
G1 X69.219 Y116.517 E7.25137
G1 X72.501 Y97.915 E7.87963
G0 F6000 X72.894 Y97.99
G1 F1200 X73.022 Y97.321 E7.90228
G1 X73.241 Y96.391 E7.93406
G1 X73.536 Y95.483 E7.96581
G1 X73.907 Y94.603 E7.99758
G1 X74.349 Y93.758 E8.02929
G1 X74.862 Y92.952 E8.06107
G1 X75.439 Y92.191 E8.09283
G1 X75.944 Y91.622 E8.11814
G1 X76.445 Y91.099 E8.14223
G1 X78.587 Y88.957 E8.24298
G1 X79.086 Y88.472 E8.26612
G1 X79.798 Y87.836 E8.29788
G1 X80.561 Y87.262 E8.32963
G1 X81.369 Y86.753 E8.3614
G1 X82.217 Y86.314 E8.39316
G1 X83.098 Y85.947 E8.4249
G1 X84.008 Y85.655 E8.45669
G1 X84.938 Y85.441 E8.48843
G1 X85.883 Y85.305 E8.52018
G1 X86.823 Y85.249 E8.5515
G1 X87.577 Y85.237 E8.57658
G1 X138.126 Y85.237 E10.25785
G1 X138.99 Y85.248 E10.28659
G1 X139.943 Y85.302 E10.31834
G1 X140.888 Y85.435 E10.35008
G1 X141.819 Y85.647 E10.38183
G1 X142.729 Y85.936 E10.41359
G1 X143.612 Y86.3 E10.44536
G1 X144.461 Y86.736 E10.4771
G1 X145.271 Y87.243 E10.50888
G1 X146.035 Y87.815 E10.54063
G1 X146.633 Y88.339 E10.56707
G1 X147.207 Y88.896 E10.59367
G1 X147.494 Y89.193 E10.60741
G1 X148.128 Y89.907 E10.63917
G1 X148.7 Y90.671 E10.67091
G1 X149.206 Y91.481 E10.70268
G1 X149.643 Y92.33 E10.73444
G1 X150.007 Y93.212 E10.76617
G1 X150.296 Y94.122 E10.79793
G1 X150.508 Y95.053 E10.82969
G1 X150.641 Y95.999 E10.86146
G1 X150.694 Y96.881 E10.89085
G1 X150.706 Y97.602 E10.91483
G1 X150.704 Y121.503 E11.70978
G1 X150.694 Y122.236 E11.73417
G1 X150.641 Y123.189 E11.76591
G1 X150.508 Y124.134 E11.79765
G1 X150.297 Y125.065 E11.8294
G1 X150.009 Y125.976 E11.86118
G1 X149.645 Y126.858 E11.89292
G1 X149.209 Y127.708 E11.92469
G1 X148.703 Y128.518 E11.95646
G1 X148.132 Y129.282 E11.98818
G1 X147.394 Y130.103 E12.0249
G1 X147.075 Y130.425 E12.03997
G1 X146.375 Y131.075 E12.07174
G1 X145.623 Y131.663 E12.10349
G1 X144.825 Y132.187 E12.13525
G1 X143.986 Y132.642 E12.16699
G1 X143.111 Y133.026 E12.19877
G1 X142.208 Y133.334 E12.2305
G1 X141.281 Y133.566 E12.26229
G1 X140.339 Y133.72 E12.29403
G1 X139.18 Y133.8 E12.33267
G1 X138.417 Y133.812 E12.35806
G1 X134.774 Y133.812 E12.47922
G1 X132.184 Y133.849 E12.56537
G1 X129.649 Y133.956 E12.64976
G1 X127.179 Y134.131 E12.73212
G1 X124.677 Y134.379 E12.81575
G1 X122.558 Y134.647 E12.88679
G1 X121.371 Y134.734 E12.92637
G1 X119.948 Y134.762 E12.97371
G1 X105.153 Y134.762 E13.46579
G1 X104.429 Y134.751 E13.48988
G1 X103.152 Y134.659 E13.53246
G1 X102.201 Y134.537 E13.56435
G1 X99.621 Y134.244 E13.65071
G1 X97.137 Y134.033 E13.73363
G1 X94.649 Y133.893 E13.81651
G1 X90.79 Y133.812 E13.94489
G1 X88.508 Y133.811 E14.02079
G1 X87.812 Y133.801 E14.04394
G1 X86.85 Y133.746 E14.07599
G1 X86.178 Y133.679 E14.09845
G1 X83.582 Y133.458 E14.18511
G1 X80.985 Y133.311 E14.27162
G1 X80.54 Y133.292 E14.28644
G1 X79.588 Y133.211 E14.31821
G1 X78.647 Y133.051 E14.34996
G1 X77.722 Y132.813 E14.38173
G1 X76.821 Y132.498 E14.41347
G1 X75.949 Y132.109 E14.44523
G1 X75.113 Y131.648 E14.47699
G1 X74.318 Y131.119 E14.50875
G1 X73.57 Y130.525 E14.54052
G1 X72.991 Y129.988 E14.56678
G1 X72.668 Y129.667 E14.58193
G1 X72.02 Y128.966 E14.61368
G1 X71.432 Y128.214 E14.64543
G1 X70.91 Y127.414 E14.6772
G1 X70.456 Y126.574 E14.70896
G1 X70.074 Y125.699 E14.74071
G1 X69.767 Y124.795 E14.77247
G1 X69.536 Y123.869 E14.80421
G1 X69.384 Y122.926 E14.83598
G1 X69.305 Y121.761 E14.87481
G1 X69.294 Y120.948 E14.90186
G1 X69.295 Y119.932 E14.93565
G1 X69.305 Y119.254 E14.9582
G1 X69.359 Y118.301 E14.98995
G1 X69.445 Y117.633 E15.01235
G1 X69.613 Y116.586 E15.04762
G1 X72.894 Y97.99 E15.67568
G0 F6000 X73.287 Y98.065
G1 F1200 X73.415 Y97.396 E15.69833
G1 X73.63 Y96.483 E15.72953
G1 X73.923 Y95.592 E15.76073
G1 X74.29 Y94.729 E15.79192
G1 X74.729 Y93.9 E15.82312
G1 X75.238 Y93.112 E15.85432
G1 X75.811 Y92.37 E15.8855
G1 X76.234 Y91.897 E15.90661
G1 X76.728 Y91.382 E15.93034
G1 X78.866 Y89.244 E16.03091
G1 X79.365 Y88.759 E16.05405
G1 X80.065 Y88.135 E16.08524
G1 X80.816 Y87.572 E16.11646
G1 X81.611 Y87.075 E16.14764
G1 X82.446 Y86.648 E16.17883
G1 X83.315 Y86.294 E16.21004
G1 X84.21 Y86.015 E16.24122
G1 X85.126 Y85.813 E16.27242
G1 X86.056 Y85.69 E16.30362
G1 X86.83 Y85.649 E16.3294
G1 X87.577 Y85.637 E16.35425
G1 X138.126 Y85.637 E18.03552
G1 X138.984 Y85.648 E18.06406
G1 X139.92 Y85.701 E18.09524
G1 X140.849 Y85.834 E18.12645
G1 X141.762 Y86.046 E18.15763
G1 X142.655 Y86.334 E18.18884
G1 X143.519 Y86.698 E18.22002
G1 X144.35 Y87.134 E18.25123
G1 X145.14 Y87.639 E18.28242
G1 X145.884 Y88.209 E18.31359
G1 X146.359 Y88.63 E18.3347
G1 X146.919 Y89.174 E18.36067
G1 X147.206 Y89.471 E18.3744
G1 X147.829 Y90.173 E18.40562
G1 X148.389 Y90.925 E18.43681
G1 X148.883 Y91.722 E18.46799
G1 X149.308 Y92.558 E18.49919
G1 X149.66 Y93.428 E18.5304
G1 X149.936 Y94.324 E18.56158
G1 X150.135 Y95.24 E18.59276
G1 X150.255 Y96.17 E18.62395
G1 X150.294 Y96.889 E18.6479
G1 X150.306 Y97.602 E18.67162
G1 X150.304 Y121.497 E19.46637
G1 X150.294 Y122.23 E19.49075
G1 X150.241 Y123.166 E19.52193
G1 X150.109 Y124.095 E19.55314
G1 X149.898 Y125.009 E19.58434
G1 X149.61 Y125.901 E19.61551
G1 X149.247 Y126.766 E19.64671
G1 X148.812 Y127.597 E19.67791
G1 X148.307 Y128.387 E19.7091
G1 X147.737 Y129.132 E19.7403
G1 X147.109 Y129.822 E19.77133
G1 X146.79 Y130.144 E19.7864
G1 X146.103 Y130.781 E19.81756
G1 X145.363 Y131.358 E19.84877
G1 X144.577 Y131.869 E19.87996
G1 X143.75 Y132.312 E19.91116
G1 X142.889 Y132.683 E19.94234
G1 X141.999 Y132.979 E19.97354
G1 X141.087 Y133.198 E20.00473
G1 X140.159 Y133.338 E20.03595
G1 X139.173 Y133.4 E20.06881
G1 X138.417 Y133.412 E20.09396
G1 X134.769 Y133.412 E20.21529
G1 X132.161 Y133.449 E20.30204
G1 X129.639 Y133.556 E20.386
G1 X127.144 Y133.733 E20.46919
G1 X124.627 Y133.982 E20.55331
G1 X122.508 Y134.25 E20.62435
G1 X121.362 Y134.335 E20.66257
G1 X119.948 Y134.362 E20.70961
G1 X105.159 Y134.362 E21.2015
G1 X104.435 Y134.351 E21.22558
G1 X103.203 Y134.263 E21.26666
G1 X102.23 Y134.138 E21.29929
G1 X99.667 Y133.847 E21.38508
G1 X97.155 Y133.634 E21.46893
G1 X94.681 Y133.495 E21.55135
G1 X90.752 Y133.412 E21.68206
G1 X88.514 Y133.411 E21.75649
G1 X87.818 Y133.401 E21.77964
G1 X86.89 Y133.348 E21.81056
G1 X86.183 Y133.278 E21.83419
G1 X83.603 Y133.058 E21.92031
G1 X81.027 Y132.912 E22.00613
G1 X80.557 Y132.892 E22.02177
G1 X79.622 Y132.812 E22.05298
G1 X78.698 Y132.653 E22.08417
G1 X77.791 Y132.415 E22.11536
G1 X76.907 Y132.101 E22.14656
G1 X76.053 Y131.713 E22.17776
G1 X75.235 Y131.254 E22.20895
G1 X74.46 Y130.726 E22.24014
G1 X73.732 Y130.135 E22.27133
G1 X73.273 Y129.704 E22.29227
G1 X72.95 Y129.383 E22.30742
G1 X72.314 Y128.694 E22.33861
G1 X71.738 Y127.954 E22.3698
G1 X71.228 Y127.167 E22.40099
G1 X70.786 Y126.339 E22.43221
G1 X70.417 Y125.477 E22.46339
G1 X70.123 Y124.587 E22.49457
G1 X69.905 Y123.675 E22.52576
G1 X69.766 Y122.747 E22.55696
G1 X69.705 Y121.755 E22.59002
G1 X69.694 Y120.948 E22.61686
G1 X69.695 Y119.938 E22.65046
G1 X69.705 Y119.26 E22.67301
G1 X69.759 Y118.323 E22.70423
G1 X69.84 Y117.696 E22.72525
G1 X70.007 Y116.656 E22.76029
G1 X73.287 Y98.065 E23.38818
G0 F6000 X73.68 Y98.14
G1 F1200 X73.808 Y97.471 E23.41083
G1 X74.02 Y96.575 E23.44146
G1 X74.309 Y95.701 E23.47207
G1 X74.673 Y94.855 E23.5027
G1 X75.109 Y94.044 E23.53333
G1 X75.613 Y93.274 E23.56394
G1 X76.183 Y92.551 E23.59456
G1 X76.525 Y92.172 E23.61154
G1 X77.011 Y91.665 E23.6349
G1 X79.145 Y89.531 E23.73527
G1 X79.644 Y89.046 E23.75842
G1 X80.331 Y88.433 E23.78904
G1 X81.069 Y87.883 E23.81966
G1 X81.852 Y87.399 E23.85027
G1 X82.674 Y86.984 E23.8809
G1 X83.529 Y86.642 E23.91153
G1 X84.411 Y86.376 E23.94217
G1 X85.312 Y86.188 E23.97278
G1 X86.226 Y86.078 E24.0034
G1 X86.838 Y86.049 E24.02378
G1 X87.577 Y86.037 E24.04836
G1 X138.126 Y86.037 E25.72963
G1 X138.978 Y86.048 E25.75797
G1 X139.897 Y86.101 E25.78858
G1 X140.808 Y86.234 E25.8192
G1 X141.704 Y86.445 E25.84982
G1 X142.579 Y86.733 E25.88046
G1 X143.425 Y87.096 E25.91108
G1 X144.236 Y87.531 E25.94169
G1 X145.007 Y88.035 E25.97232
G1 X145.731 Y88.604 E26.00295
G1 X146.267 Y89.093 E26.02708
G1 X146.632 Y89.452 E26.04411
G1 X146.919 Y89.749 E26.05785
G1 X147.529 Y90.438 E26.08845
G1 X148.077 Y91.178 E26.11908
G1 X148.559 Y91.962 E26.14969
G1 X148.971 Y92.785 E26.1803
G1 X149.311 Y93.641 E26.21094
G1 X149.574 Y94.523 E26.24155
G1 X149.76 Y95.425 E26.27218
G1 X149.868 Y96.339 E26.30279
G1 X149.894 Y96.897 E26.32137
G1 X149.906 Y97.602 E26.34482
G1 X149.904 Y121.492 E27.13941
G1 X149.894 Y122.225 E27.16379
G1 X149.841 Y123.144 E27.19441
G1 X149.709 Y124.055 E27.22502
G1 X149.499 Y124.951 E27.25563
G1 X149.211 Y125.826 E27.28627
G1 X148.849 Y126.672 E27.31688
G1 X148.414 Y127.484 E27.34751
G1 X147.911 Y128.255 E27.37813
G1 X147.343 Y128.979 E27.40874
G1 X146.825 Y129.54 E27.43414
G1 X146.506 Y129.862 E27.44921
G1 X145.831 Y130.487 E27.47981
G1 X145.103 Y131.052 E27.51046
G1 X144.329 Y131.551 E27.54109
G1 X143.515 Y131.981 E27.57171
G1 X142.667 Y132.339 E27.60232
G1 X141.791 Y132.621 E27.63293
G1 X140.894 Y132.827 E27.66354
G1 X139.982 Y132.954 E27.69417
G1 X139.166 Y133 E27.72135
G1 X138.417 Y133.012 E27.74626
G1 X134.763 Y133.012 E27.8678
G1 X132.138 Y133.049 E27.95511
G1 X129.63 Y133.156 E28.03861
G1 X127.113 Y133.334 E28.12253
G1 X124.574 Y133.586 E28.20739
G1 X122.458 Y133.853 E28.27833
G1 X121.354 Y133.935 E28.31515
G1 X119.948 Y133.962 E28.36192
G1 X105.165 Y133.962 E28.85361
G1 X104.441 Y133.951 E28.87769
G1 X103.254 Y133.866 E28.91727
G1 X102.26 Y133.738 E28.9506
G1 X99.71 Y133.449 E29.03596
G1 X97.177 Y133.234 E29.12051
G1 X94.711 Y133.095 E29.20266
G1 X90.76 Y133.012 E29.3341
G1 X88.52 Y133.011 E29.4086
G1 X87.824 Y133.001 E29.43176
G1 X86.929 Y132.95 E29.46157
G1 X86.258 Y132.883 E29.484
G1 X83.622 Y132.659 E29.57199
G1 X80.574 Y132.492 E29.67352
G1 X79.656 Y132.413 E29.70416
G1 X78.75 Y132.254 E29.73476
G1 X77.86 Y132.018 E29.76538
G1 X76.994 Y131.705 E29.79601
G1 X76.159 Y131.318 E29.82662
G1 X75.36 Y130.86 E29.85725
G1 X74.604 Y130.334 E29.88788
G1 X73.897 Y129.745 E29.91849
G1 X73.555 Y129.421 E29.93416
G1 X73.232 Y129.1 E29.9493
G1 X72.608 Y128.423 E29.97993
G1 X72.045 Y127.695 E30.01054
G1 X71.547 Y126.92 E30.04118
G1 X71.118 Y126.105 E30.07181
G1 X70.762 Y125.256 E30.10243
G1 X70.48 Y124.38 E30.13304
G1 X70.276 Y123.482 E30.16367
G1 X70.15 Y122.57 E30.19429
G1 X70.105 Y121.748 E30.22167
G1 X70.094 Y120.948 E30.24828
G1 X70.095 Y119.944 E30.28167
G1 X70.105 Y119.266 E30.30422
G1 X70.159 Y118.347 E30.33484
G1 X70.235 Y117.759 E30.35456
G1 X70.401 Y116.725 E30.38939
G1 X73.68 Y98.14 E31.01708
G0 F6000 X74.073 Y98.215
G1 F1200 X74.201 Y97.546 E31.03974
G1 X74.41 Y96.668 E31.06975
G1 X74.695 Y95.811 E31.09979
G1 X75.056 Y94.983 E31.12984
G1 X75.488 Y94.19 E31.15987
G1 X75.988 Y93.438 E31.18991
G1 X76.815 Y92.447 E31.23284
G1 X77.294 Y91.947 E31.25587
G1 X79.424 Y89.818 E31.35603
G1 X79.923 Y89.333 E31.37918
G1 X80.598 Y88.732 E31.40924
G1 X81.323 Y88.194 E31.43926
G1 X82.093 Y87.723 E31.46929
G1 X82.902 Y87.321 E31.49933
G1 X83.743 Y86.992 E31.52937
G1 X84.61 Y86.739 E31.55941
G1 X85.496 Y86.563 E31.58945
G1 X86.845 Y86.449 E31.63448
G1 X87.577 Y86.437 E31.65883
G1 X138.126 Y86.437 E33.3401
G1 X138.972 Y86.448 E33.36824
G1 X139.874 Y86.501 E33.39829
G1 X140.767 Y86.633 E33.42831
G1 X141.646 Y86.844 E33.45838
G1 X142.502 Y87.132 E33.48842
G1 X143.329 Y87.494 E33.51844
G1 X144.121 Y87.928 E33.54848
G1 X144.871 Y88.431 E33.57852
G1 X145.811 Y89.213 E33.61919
G1 X146.344 Y89.73 E33.64388
G1 X146.631 Y90.027 E33.65762
G1 X147.229 Y90.704 E33.68766
G1 X147.765 Y91.43 E33.71768
G1 X148.235 Y92.202 E33.74774
G1 X148.634 Y93.012 E33.77777
G1 X148.961 Y93.854 E33.80781
G1 X149.211 Y94.722 E33.83786
G1 X149.384 Y95.608 E33.86788
G1 X149.494 Y96.906 E33.91121
G1 X149.506 Y97.602 E33.93436
G1 X149.504 Y121.486 E34.72875
G1 X149.494 Y122.219 E34.75313
G1 X149.442 Y123.121 E34.78318
G1 X149.31 Y124.014 E34.8132
G1 X149.1 Y124.892 E34.84323
G1 X148.812 Y125.749 E34.8733
G1 X148.451 Y126.576 E34.90331
G1 X148.017 Y127.368 E34.93335
G1 X147.515 Y128.119 E34.96339
G1 X146.949 Y128.823 E34.99344
G1 X146.541 Y129.259 E35.0133
G1 X146.222 Y129.581 E35.02837
