;FLAVOR:Marlin
;TIME:2785
;Filament used: 1.71907m
;Layer height: 0.2
;MINX:68.894
;MINY:84.838
;MINZ:0.2
;MAXX:151.105
;MAXY:135.162
;MAXZ:10
;Generated with Cura_SteamEngine 5.0.0
M140 S50
M105
M190 S50
M104 S200
M105
M109 S200
M82 ;absolute extrusion mode

G28 ;Home
;G29 ;Bed levelling

G92 E0 ;Reset Extruder
G1 Z2.0 F3000 ;Move Z Axis up
G1 X10.1 Y20 Z0.28 F5000.0 ;Move to start position
G1 X10.1 Y200.0 Z0.28 F1500.0 E15 ;Draw the first line
G1 X10.4 Y200.0 Z0.28 F5000.0 ;Move to side a little
G1 X10.4 Y20 Z0.28 F1500.0 E30 ;Draw the second line
G92 E0 ;Reset Extruder
G1 Z2.0 F3000 ;Move Z Axis up
G92 E0
G92 E0
G1 F2400 E-0.8
;LAYER_COUNT:50
;LAYER:0
M107
G1 F300 Z0.6
G0 F6000 X73.778 Y87.455 Z0.6
G1 F300 Z0.2
G0 F6000 X68.895 Y97.65
;TYPE:SKIRT
G1 F2400 E0
G1 F1200 X68.905 Y96.948 E0.02335
G1 X68.959 Y95.978 E0.05566
G1 X69.092 Y95.016 E0.08796
G1 X69.304 Y94.068 E0.12027
G1 X69.594 Y93.141 E0.15258
G1 X69.958 Y92.24 E0.1849
G1 X70.396 Y91.373 E0.21721
G1 X70.903 Y90.545 E0.2495
G1 X71.477 Y89.761 E0.28182
G1 X72.103 Y89.038 E0.31362
G1 X72.745 Y88.381 E0.34418
G1 X73.047 Y88.094 E0.35803
G1 X73.778 Y87.455 E0.39033
G1 X74.56 Y86.877 E0.42267
G1 X75.386 Y86.366 E0.45498
G1 X76.251 Y85.925 E0.48727
G1 X77.15 Y85.556 E0.51959
G1 X78.076 Y85.263 E0.55189
G1 X79.023 Y85.046 E0.58421
G1 X79.984 Y84.908 E0.6165
G1 X80.947 Y84.85 E0.64859
G1 X81.692 Y84.838 E0.67337
G1 X132.432 Y84.839 E2.36099
G1 X133.134 Y84.849 E2.38434
G1 X134.104 Y84.903 E2.41665
G1 X135.066 Y85.036 E2.44895
G1 X136.014 Y85.248 E2.48126
G1 X136.941 Y85.538 E2.51357
G1 X137.842 Y85.902 E2.54589
G1 X138.709 Y86.34 E2.57819
G1 X139.537 Y86.847 E2.61049
G1 X140.321 Y87.421 E2.6428
G1 X141.158 Y88.155 E2.67983
G1 X141.734 Y88.713 E2.7065
G1 X143.745 Y90.726 E2.80114
G1 X144.245 Y91.241 E2.82502
G1 X144.893 Y91.966 E2.85736
G1 X145.478 Y92.741 E2.88965
G1 X145.998 Y93.561 E2.92195
G1 X146.449 Y94.422 E2.95428
G1 X146.827 Y95.316 E2.98656
G1 X147.131 Y96.239 E3.01888
G1 X147.349 Y97.142 E3.04978
G1 X147.49 Y97.86 E3.07411
G1 X150.829 Y116.801 E3.71381
G1 X150.942 Y117.505 E3.73752
G1 X151.056 Y118.47 E3.76984
G1 X151.089 Y119.173 E3.79325
G1 X151.105 Y120.276 E3.82994
G1 X151.095 Y121.665 E3.87614
G1 X151.048 Y122.635 E3.90844
G1 X150.921 Y123.598 E3.94075
G1 X150.716 Y124.548 E3.97307
G1 X150.433 Y125.477 E4.00537
G1 X150.075 Y126.38 E4.03768
G1 X149.643 Y127.25 E4.06999
G1 X149.142 Y128.082 E4.10229
G1 X148.574 Y128.87 E4.1346
G1 X147.652 Y129.911 E4.18085
G1 X147.331 Y130.233 E4.19597
G1 X146.617 Y130.892 E4.22829
G1 X145.852 Y131.49 E4.26058
G1 X145.04 Y132.023 E4.29289
G1 X144.187 Y132.488 E4.3252
G1 X143.299 Y132.881 E4.3575
G1 X142.381 Y133.199 E4.38981
G1 X141.44 Y133.441 E4.42213
G1 X140.483 Y133.605 E4.45442
G1 X139.576 Y133.687 E4.48471
G1 X137.065 Y133.815 E4.56834
G1 X134.527 Y134.014 E4.65301
G1 X133.18 Y134.147 E4.69803
G1 X132.292 Y134.201 E4.72762
G1 X131.629 Y134.213 E4.74967
G1 X129.155 Y134.213 E4.83196
G1 X126.546 Y134.25 E4.91874
G1 X124.068 Y134.355 E5.00124
G1 X121.585 Y134.531 E5.08403
G1 X119.1 Y134.778 E5.16709
G1 X116.988 Y135.044 E5.23789
G1 X115.757 Y135.134 E5.27894
G1 X114.314 Y135.162 E5.32694
G1 X99.523 Y135.161 E5.81889
G1 X98.812 Y135.15 E5.84255
G1 X97.499 Y135.056 E5.88633
G1 X96.579 Y134.938 E5.91718
G1 X93.983 Y134.644 E6.00407
G1 X91.542 Y134.436 E6.08556
G1 X89.016 Y134.292 E6.16971
G1 X86.525 Y134.221 E6.25259
G1 X85.198 Y134.212 E6.29673
G1 X81.723 Y134.212 E6.41231
G1 X80.857 Y134.201 E6.44111
G1 X79.888 Y134.147 E6.47339
G1 X78.925 Y134.013 E6.50573
G1 X77.977 Y133.801 E6.53804
G1 X77.05 Y133.512 E6.57034
G1 X76.15 Y133.147 E6.60264
G1 X75.283 Y132.709 E6.63495
G1 X74.454 Y132.202 E6.66727
G1 X73.671 Y131.628 E6.69956
G1 X72.722 Y130.785 E6.74178
G1 X72.399 Y130.465 E6.7569
G1 X71.738 Y129.753 E6.78921
G1 X71.137 Y128.99 E6.82152
G1 X70.601 Y128.179 E6.85385
G1 X70.134 Y127.328 E6.88613
G1 X69.739 Y126.441 E6.91843
G1 X69.417 Y125.524 E6.95075
G1 X69.172 Y124.584 E6.98306
G1 X69.006 Y123.627 E7.01537
G1 X68.905 Y122.267 E7.06073
G1 X68.894 Y121.443 E7.08814
G1 X68.895 Y97.65 E7.87949
G0 F6000 X69.295 Y97.656
G1 F1200 X69.305 Y96.954 E7.90285
G1 X69.359 Y96 E7.93463
G1 X69.492 Y95.055 E7.96637
G1 X69.704 Y94.124 E7.99812
G1 X69.993 Y93.214 E8.02988
G1 X70.357 Y92.331 E8.06165
G1 X70.793 Y91.482 E8.09339
G1 X71.3 Y90.673 E8.12515
G1 X71.872 Y89.908 E8.15692
G1 X72.394 Y89.311 E8.18329
G1 X72.564 Y89.13 E8.19155
G1 X73.021 Y88.671 E8.21309
G1 X73.323 Y88.384 E8.22695
G1 X74.042 Y87.756 E8.2587
G1 X74.811 Y87.19 E8.29046
G1 X75.625 Y86.691 E8.32222
G1 X76.477 Y86.261 E8.35396
G1 X77.363 Y85.905 E8.38572
G1 X78.275 Y85.623 E8.41747
G1 X79.208 Y85.419 E8.44923
G1 X80.155 Y85.294 E8.481
G1 X80.955 Y85.25 E8.50765
G1 X81.692 Y85.238 E8.53217
G1 X132.426 Y85.239 E10.21959
G1 X133.128 Y85.249 E10.24294
G1 X134.082 Y85.303 E10.27472
G1 X135.027 Y85.436 E10.30646
G1 X135.958 Y85.648 E10.33822
G1 X136.868 Y85.937 E10.36997
G1 X137.751 Y86.301 E10.40174
G1 X138.6 Y86.737 E10.43348
G1 X139.409 Y87.244 E10.46524
G1 X140.174 Y87.816 E10.49701
G1 X140.881 Y88.443 E10.52844
G1 X141.451 Y88.996 E10.55485
G1 X143.458 Y91.005 E10.6493
G1 X143.958 Y91.52 E10.67318
G1 X144.594 Y92.232 E10.70493
G1 X145.168 Y92.995 E10.73669
G1 X145.676 Y93.804 E10.76846
G1 X146.115 Y94.652 E10.80022
G1 X146.481 Y95.533 E10.83195
G1 X146.772 Y96.443 E10.86373
G1 X146.957 Y97.22 E10.89029
G1 X147.096 Y97.93 E10.91435
G1 X150.434 Y116.864 E11.55381
G1 X150.547 Y117.568 E11.57753
G1 X150.659 Y118.517 E11.60931
G1 X150.689 Y119.179 E11.63135
G1 X150.705 Y120.273 E11.66774
G1 X150.695 Y121.662 E11.71394
G1 X150.648 Y122.616 E11.74571
G1 X150.521 Y123.562 E11.77746
G1 X150.316 Y124.495 E11.80923
G1 X150.034 Y125.407 E11.84098
G1 X149.676 Y126.292 E11.87273
G1 X149.245 Y127.144 E11.90449
G1 X148.745 Y127.957 E11.93623
G1 X148.178 Y128.725 E11.96799
G1 X147.369 Y129.628 E12.00831
G1 X147.048 Y129.95 E12.02343
G1 X146.346 Y130.598 E12.05521
G1 X145.592 Y131.184 E12.08697
G1 X144.792 Y131.705 E12.11872
G1 X143.952 Y132.158 E12.15046
G1 X143.076 Y132.538 E12.18222
G1 X142.171 Y132.844 E12.214
G1 X141.245 Y133.074 E12.24573
G1 X140.302 Y133.224 E12.27749
G1 X139.556 Y133.287 E12.30239
G1 X137.05 Y133.415 E12.38585
G1 X134.502 Y133.615 E12.47086
G1 X133.14 Y133.749 E12.51638
G1 X132.283 Y133.801 E12.54493
G1 X131.629 Y133.813 E12.56669
G1 X129.149 Y133.813 E12.64917
G1 X126.559 Y133.85 E12.73533
G1 X124.024 Y133.957 E12.81972
G1 X121.554 Y134.132 E12.90207
G1 X119.047 Y134.381 E12.98587
G1 X116.938 Y134.647 E13.05657
G1 X115.749 Y134.735 E13.09622
G1 X114.314 Y134.762 E13.14396
G1 X99.53 Y134.761 E13.63568
G1 X98.819 Y134.75 E13.65933
G1 X97.549 Y134.659 E13.70168
G1 X96.598 Y134.537 E13.73357
G1 X94.061 Y134.249 E13.81849
G1 X91.563 Y134.037 E13.90187
G1 X89.015 Y133.891 E13.98676
G1 X86.54 Y133.821 E14.06911
G1 X85.201 Y133.812 E14.11365
G1 X81.723 Y133.812 E14.22933
G1 X80.863 Y133.801 E14.25793
G1 X79.91 Y133.747 E14.28968
G1 X78.965 Y133.614 E14.32142
G1 X78.034 Y133.402 E14.35318
G1 X77.124 Y133.113 E14.38493
G1 X76.241 Y132.749 E14.4167
G1 X75.392 Y132.312 E14.44846
G1 X74.583 Y131.806 E14.4802
G1 X73.818 Y131.233 E14.51199
G1 X73.004 Y130.501 E14.5484
G1 X72.681 Y130.181 E14.56352
G1 X72.031 Y129.481 E14.59529
G1 X71.442 Y128.729 E14.62706
G1 X70.919 Y127.931 E14.6588
G1 X70.464 Y127.091 E14.69057
G1 X70.08 Y126.217 E14.72232
G1 X69.772 Y125.313 E14.75409
G1 X69.54 Y124.387 E14.78584
G1 X69.386 Y123.445 E14.81758
G1 X69.305 Y122.26 E14.85709
G1 X69.294 Y121.443 E14.88426
G1 X69.295 Y97.656 E15.67542
G0 F6000 X69.695 Y97.661
G1 F1200 X69.705 Y96.959 E15.69877
G1 X69.758 Y96.023 E15.72996
G1 X69.891 Y95.095 E15.76114
G1 X70.103 Y94.181 E15.79234
G1 X70.391 Y93.288 E15.82355
G1 X70.755 Y92.424 E15.85473
G1 X71.191 Y91.593 E15.88595
G1 X71.696 Y90.803 E15.91713
G1 X72.266 Y90.059 E15.9483
G1 X72.686 Y89.585 E15.96937
G1 X73.296 Y88.961 E15.99839
G1 X73.598 Y88.674 E16.01225
G1 X74.305 Y88.058 E16.04344
G1 X75.062 Y87.504 E16.07464
G1 X75.863 Y87.016 E16.10583
G1 X76.703 Y86.599 E16.13703
G1 X77.575 Y86.254 E16.16822
G1 X78.474 Y85.985 E16.19943
G1 X79.392 Y85.794 E16.23061
G1 X80.323 Y85.681 E16.26181
G1 X80.963 Y85.65 E16.28312
G1 X81.692 Y85.638 E16.30737
G1 X132.421 Y85.639 E17.99462
G1 X133.123 Y85.649 E18.01797
G1 X134.059 Y85.702 E18.04915
G1 X134.987 Y85.835 E18.08033
G1 X135.901 Y86.047 E18.11154
G1 X136.794 Y86.335 E18.14275
G1 X137.658 Y86.699 E18.17393
G1 X138.489 Y87.135 E18.20514
G1 X139.279 Y87.64 E18.23633
G1 X140.023 Y88.21 E18.2675
G1 X140.603 Y88.731 E18.29343
G1 X141.168 Y89.279 E18.31961
G1 X143.171 Y91.284 E18.41387
G1 X143.671 Y91.799 E18.43775
G1 X144.295 Y92.499 E18.46894
G1 X144.857 Y93.25 E18.50013
G1 X145.354 Y94.045 E18.53132
G1 X145.78 Y94.881 E18.56253
G1 X146.134 Y95.749 E18.5937
G1 X146.412 Y96.645 E18.62491
G1 X146.564 Y97.299 E18.64724
G1 X146.702 Y97.999 E18.67097
G1 X150.039 Y116.928 E19.31026
G1 X150.152 Y117.632 E19.33397
G1 X150.261 Y118.563 E19.36515
G1 X150.289 Y119.186 E19.38589
G1 X150.305 Y120.27 E19.42195
G1 X150.295 Y121.659 E19.46815
G1 X150.248 Y122.596 E19.49935
G1 X150.122 Y123.525 E19.53053
G1 X149.917 Y124.44 E19.56172
G1 X149.634 Y125.335 E19.59294
G1 X149.277 Y126.202 E19.62413
G1 X148.847 Y127.035 E19.65531
G1 X148.347 Y127.829 E19.68652
G1 X147.782 Y128.578 E19.71772
G1 X147.085 Y129.346 E19.75222
G1 X146.764 Y129.668 E19.76734
G1 X146.074 Y130.303 E19.79853
G1 X145.333 Y130.878 E19.82972
G1 X144.545 Y131.387 E19.86092
G1 X143.717 Y131.827 E19.89211
G1 X142.854 Y132.195 E19.92331
G1 X141.963 Y132.488 E19.95451
G1 X141.051 Y132.704 E19.98568
G1 X140.123 Y132.842 E20.01689
G1 X139.535 Y132.888 E20.0365
G1 X136.997 Y133.018 E20.12103
G1 X134.485 Y133.215 E20.20484
G1 X133.101 Y133.351 E20.25109
G1 X132.274 Y133.401 E20.27865
G1 X131.629 Y133.413 E20.3001
G1 X129.144 Y133.413 E20.38275
G1 X126.536 Y133.45 E20.4695
G1 X124.014 Y133.557 E20.55346
G1 X121.519 Y133.734 E20.63665
G1 X118.997 Y133.984 E20.72095
G1 X116.888 Y134.25 E20.79165
G1 X115.741 Y134.335 E20.8299
G1 X114.314 Y134.362 E20.87737
G1 X99.536 Y134.361 E21.36889
G1 X98.825 Y134.35 E21.39254
G1 X97.6 Y134.262 E21.43339
G1 X96.697 Y134.147 E21.46367
G1 X94.068 Y133.848 E21.55167
G1 X91.584 Y133.637 E21.63459
G1 X89.085 Y133.494 E21.71784
G1 X86.507 Y133.421 E21.80362
G1 X85.204 Y133.412 E21.84696
G1 X81.723 Y133.412 E21.96274
G1 X80.869 Y133.401 E21.99114
G1 X79.933 Y133.347 E22.02233
G1 X79.004 Y133.214 E22.05354
G1 X78.091 Y133.003 E22.08471
G1 X77.198 Y132.714 E22.11593
G1 X76.334 Y132.351 E22.1471
G1 X75.503 Y131.915 E22.17831
G1 X74.713 Y131.409 E22.20951
G1 X73.969 Y130.839 E22.24068
G1 X73.285 Y130.216 E22.27146
G1 X72.962 Y129.896 E22.28658
G1 X72.325 Y129.209 E22.31774
G1 X71.748 Y128.469 E22.34895
G1 X71.237 Y127.683 E22.38013
G1 X70.794 Y126.856 E22.41134
G1 X70.423 Y125.994 E22.44255
G1 X70.127 Y125.104 E22.47374
G1 X69.908 Y124.192 E22.50494
G1 X69.768 Y123.265 E22.53612
G1 X69.705 Y122.254 E22.56981
G1 X69.694 Y121.443 E22.59679
G1 X69.695 Y97.661 E23.38778
G0 F6000 X70.095 Y97.667
G1 F1200 X70.105 Y96.965 E23.41113
G1 X70.158 Y96.046 E23.44175
G1 X70.291 Y95.135 E23.47237
G1 X70.502 Y94.239 E23.50299
G1 X70.79 Y93.364 E23.53363
G1 X71.153 Y92.518 E23.56424
G1 X71.588 Y91.707 E23.59485
G1 X72.092 Y90.936 E23.62549
G1 X72.66 Y90.212 E23.6561
G1 X73.148 Y89.678 E23.68016
G1 X73.572 Y89.251 E23.70017
G1 X73.874 Y88.964 E23.71403
G1 X74.568 Y88.36 E23.74463
G1 X75.312 Y87.818 E23.77524
G1 X76.101 Y87.342 E23.80589
G1 X76.927 Y86.937 E23.83649
G1 X77.786 Y86.605 E23.86712
G1 X78.67 Y86.348 E23.89774
G1 X79.573 Y86.17 E23.92835
G1 X80.489 Y86.07 E23.959
G1 X80.971 Y86.05 E23.97504
G1 X81.692 Y86.038 E23.99903
G1 X132.415 Y86.039 E25.68608
G1 X133.117 Y86.049 E25.70943
G1 X134.036 Y86.102 E25.74005
G1 X134.947 Y86.235 E25.77067
G1 X135.843 Y86.446 E25.80129
G1 X136.718 Y86.734 E25.83192
G1 X137.564 Y87.097 E25.86254
G1 X138.375 Y87.532 E25.89315
G1 X139.146 Y88.036 E25.92379
G1 X139.87 Y88.604 E25.9544
G1 X140.325 Y89.019 E25.97488
G1 X140.885 Y89.562 E26.00082
G1 X142.884 Y91.562 E26.09487
G1 X143.384 Y92.077 E26.11875
G1 X143.996 Y92.765 E26.14937
G1 X144.546 Y93.503 E26.17999
G1 X145.03 Y94.287 E26.21063
G1 X145.444 Y95.109 E26.24124
G1 X145.786 Y95.964 E26.27187
G1 X146.051 Y96.845 E26.30247
G1 X146.172 Y97.378 E26.32065
G1 X146.308 Y98.069 E26.34407
G1 X149.644 Y116.991 E26.98313
G1 X149.757 Y117.695 E27.00684
G1 X149.863 Y118.61 E27.03748
G1 X149.889 Y119.193 E27.05689
G1 X149.905 Y120.267 E27.09261
G1 X149.895 Y121.656 E27.13881
G1 X149.848 Y122.576 E27.16945
G1 X149.722 Y123.488 E27.20007
G1 X149.517 Y124.385 E27.23068
G1 X149.235 Y125.262 E27.26132
G1 X148.878 Y126.11 E27.29192
G1 X148.449 Y126.925 E27.32255
G1 X147.951 Y127.699 E27.35316
G1 X147.387 Y128.427 E27.38379
G1 X146.802 Y129.064 E27.41256
G1 X146.481 Y129.386 E27.42768
G1 X145.803 Y130.009 E27.45831
G1 X145.074 Y130.571 E27.48892
G1 X144.299 Y131.067 E27.51952
G1 X143.483 Y131.495 E27.55017
G1 X142.634 Y131.85 E27.58078
G1 X141.757 Y132.13 E27.6114
G1 X140.859 Y132.333 E27.64202
G1 X139.515 Y132.488 E27.68702
G1 X137.019 Y132.616 E27.77014
G1 X134.415 Y132.82 E27.85702
G1 X133.062 Y132.953 E27.90224
G1 X132.265 Y133.001 E27.92879
G1 X131.629 Y133.013 E27.94995
G1 X129.138 Y133.013 E28.0328
G1 X126.513 Y133.05 E28.12012
G1 X124.005 Y133.157 E28.20361
G1 X121.488 Y133.335 E28.28753
G1 X118.981 Y133.584 E28.37133
G1 X116.838 Y133.854 E28.44317
G1 X115.732 Y133.935 E28.48005
G1 X114.314 Y133.962 E28.52722
G1 X99.542 Y133.961 E29.01854
G1 X98.831 Y133.95 E29.04219
G1 X97.651 Y133.865 E29.08154
G1 X96.726 Y133.747 E29.11256
G1 X94.146 Y133.454 E29.19892
G1 X91.607 Y133.238 E29.28367
G1 X89.083 Y133.094 E29.36776
G1 X86.52 Y133.021 E29.45304
G1 X85.207 Y133.012 E29.49671
G1 X81.723 Y133.012 E29.61259
G1 X80.875 Y133.001 E29.64079
G1 X79.956 Y132.948 E29.67141
G1 X79.045 Y132.815 E29.70203
G1 X78.148 Y132.604 E29.73268
G1 X77.274 Y132.315 E29.7633
G1 X76.428 Y131.952 E29.79392
G1 X75.617 Y131.517 E29.82453
G1 X74.846 Y131.013 E29.85516
G1 X74.122 Y130.445 E29.88577
G1 X73.567 Y129.932 E29.91091
G1 X73.244 Y129.612 E29.92603
G1 X72.618 Y128.936 E29.95667
G1 X72.054 Y128.209 E29.98728
G1 X71.555 Y127.435 E30.01791
G1 X71.125 Y126.621 E30.04853
G1 X70.767 Y125.773 E30.07914
G1 X70.485 Y124.897 E30.10975
G1 X70.279 Y123.999 E30.14039
G1 X70.152 Y123.088 E30.17098
G1 X70.105 Y122.248 E30.19897
G1 X70.094 Y121.443 E30.22574
G1 X70.095 Y97.667 E31.01654
G0 F6000 X70.495 Y97.673
G1 F1200 X70.505 Y96.971 E31.03989
G1 X70.558 Y96.069 E31.06994
G1 X70.69 Y95.176 E31.09996
G1 X70.901 Y94.298 E31.13
G1 X71.189 Y93.442 E31.16004
G1 X71.551 Y92.614 E31.19009
G1 X71.985 Y91.822 E31.22013
G1 X72.488 Y91.072 E31.25017
G1 X73.269 Y90.133 E31.29079
G1 X73.847 Y89.541 E31.31831
G1 X74.149 Y89.254 E31.33216
G1 X74.831 Y88.662 E31.3622
G1 X75.562 Y88.132 E31.39223
G1 X76.338 Y87.669 E31.42229
G1 X77.151 Y87.276 E31.45232
G1 X77.996 Y86.957 E31.48236
G1 X78.865 Y86.713 E31.51238
G1 X79.753 Y86.548 E31.54242
G1 X80.978 Y86.45 E31.5833
G1 X81.692 Y86.438 E31.60705
G1 X132.409 Y86.439 E33.2939
G1 X133.111 Y86.449 E33.31725
G1 X134.013 Y86.502 E33.34731
G1 X134.906 Y86.634 E33.37733
G1 X135.784 Y86.845 E33.40736
G1 X136.64 Y87.133 E33.4374
G1 X137.468 Y87.495 E33.46746
G1 X138.26 Y87.929 E33.4975
G1 X139.01 Y88.432 E33.52753
G1 X139.713 Y88.998 E33.55755
G1 X140.047 Y89.307 E33.57269
G1 X140.602 Y89.845 E33.59839
G1 X142.597 Y91.841 E33.69226
G1 X143.097 Y92.356 E33.71613
G1 X143.697 Y93.031 E33.74617
G1 X144.235 Y93.757 E33.77622
G1 X144.706 Y94.527 E33.80624
G1 X145.108 Y95.336 E33.83629
G1 X145.436 Y96.177 E33.86631
G1 X145.78 Y97.456 E33.91037
G1 X145.914 Y98.138 E33.93348
G1 X149.249 Y117.054 E34.57233
G1 X149.362 Y117.758 E34.59605
G1 X149.466 Y118.656 E34.62612
G1 X149.489 Y119.2 E34.64423
G1 X149.505 Y120.264 E34.67962
G1 X149.495 Y121.653 E34.72582
G1 X149.448 Y122.555 E34.75586
G1 X149.322 Y123.45 E34.78592
G1 X149.118 Y124.329 E34.81593
G1 X148.836 Y125.187 E34.84597
G1 X148.479 Y126.017 E34.87602
G1 X148.051 Y126.812 E34.90605
G1 X147.554 Y127.566 E34.93609
