;FLAVOR:Marlin
;TIME:14483
;Filament used: 10.6044m
;Layer height: 0.2
;MINX:21.485
;MINY:16.432
;MINZ:0.2
;MAXX:198.515
;MAXY:203.568
;MAXZ:2
;Generated with Cura_SteamEngine 5.0.0
M140 S50
M105
M190 S50
M104 S200
M105
M109 S200
M82 ;absolute extrusion mode

G28 ;Home
;G29 ;Bed levelling

G92 E0 ;Reset Extruder
G1 Z2.0 F3000 ;Move Z Axis up
G1 X10.1 Y20 Z0.28 F5000.0 ;Move to start position
G1 X10.1 Y200.0 Z0.28 F1500.0 E15 ;Draw the first line
G1 X10.4 Y200.0 Z0.28 F5000.0 ;Move to side a little
G1 X10.4 Y20 Z0.28 F1500.0 E30 ;Draw the second line
G92 E0 ;Reset Extruder
G1 Z2.0 F3000 ;Move Z Axis up
G92 E0
G92 E0
G1 F2400 E-0.8
;LAYER_COUNT:10
;LAYER:0
M107
G1 F300 Z0.6
G0 F6000 X67.232 Y25.262 Z0.6
G1 F300 Z0.2
G0 F6000 X66.533 Y29.771
;TYPE:SKIRT
G1 F2400 E0
G1 F1200 X66.543 Y29.069 E0.02335
G1 X66.597 Y28.099 E0.05566
G1 X66.73 Y27.137 E0.08796
G1 X66.942 Y26.189 E0.12027
G1 X67.232 Y25.262 E0.15258
G1 X67.596 Y24.361 E0.1849
G1 X68.034 Y23.494 E0.21721
G1 X68.541 Y22.666 E0.2495
G1 X69.115 Y21.882 E0.28182
G1 X69.818 Y21.077 E0.31736
G1 X70.424 Y20.453 E0.34629
G1 X71.082 Y19.809 E0.37692
G1 X71.804 Y19.159 E0.40923
G1 X72.577 Y18.57 E0.44155
G1 X73.395 Y18.047 E0.47384
G1 X74.254 Y17.593 E0.50616
G1 X75.147 Y17.211 E0.53846
G1 X76.068 Y16.903 E0.57076
G1 X77.012 Y16.673 E0.60308
G1 X77.972 Y16.521 E0.63541
G1 X79.125 Y16.444 E0.67384
G1 X79.894 Y16.432 E0.69942
G1 X173.325 Y16.432 E3.80695
G1 X174.195 Y16.443 E3.83589
G1 X175.165 Y16.497 E3.8682
G1 X176.127 Y16.63 E3.9005
G1 X177.075 Y16.842 E3.93281
G1 X178.002 Y17.132 E3.96512
G1 X178.903 Y17.496 E3.99744
G1 X179.77 Y17.934 E4.02974
G1 X180.598 Y18.441 E4.06204
G1 X181.382 Y19.015 E4.09435
G1 X182.166 Y19.698 E4.12894
G1 X182.767 Y20.28 E4.15676
G1 X183.433 Y20.959 E4.1884
G1 X184.084 Y21.68 E4.22071
G1 X184.674 Y22.452 E4.25302
G1 X185.198 Y23.27 E4.28533
G1 X185.653 Y24.128 E4.31764
G1 X186.036 Y25.021 E4.34995
G1 X186.344 Y25.942 E4.38225
G1 X186.575 Y26.886 E4.41458
G1 X186.738 Y27.927 E4.44962
G1 X186.756 Y28.09 E4.45508
G1 X186.827 Y29.334 E4.49652
G1 X186.831 Y30.376 E4.53118
G1 X186.869 Y33.058 E4.62039
G1 X186.974 Y35.531 E4.70272
G1 X187.15 Y38.019 E4.78567
G1 X187.394 Y40.473 E4.8677
G1 X187.715 Y42.982 E4.95183
G1 X188.103 Y45.452 E5.03499
G1 X188.552 Y47.868 E5.11672
G1 X189.079 Y50.325 E5.2003
G1 X189.677 Y52.76 E5.28369
G1 X190.336 Y55.154 E5.36628
G1 X191.061 Y57.522 E5.44865
G1 X191.859 Y59.887 E5.53167
G1 X193.097 Y63.196 E5.64917
G1 X193.399 Y64.119 E5.68147
G1 X193.625 Y65.064 E5.71379
G1 X193.716 Y65.589 E5.73151
G1 X193.812 Y66.231 E5.7531
G1 X194.231 Y68.776 E5.83889
G1 X194.699 Y71.19 E5.92068
G1 X195.248 Y73.65 E6.00451
G1 X195.849 Y76.029 E6.08612
G1 X196.541 Y78.466 E6.17038
G1 X197.292 Y80.855 E6.25367
G1 X197.625 Y81.823 E6.28772
G1 X197.912 Y82.694 E6.31822
G1 X198.178 Y83.628 E6.35052
G1 X198.366 Y84.581 E6.38283
G1 X198.475 Y85.547 E6.41516
G1 X198.503 Y86.176 E6.4361
G1 X198.515 Y86.945 E6.46168
G1 X198.512 Y104.369 E7.04121
G1 X198.497 Y105.097 E7.06543
G1 X198.438 Y106.067 E7.09775
G1 X198.237 Y107.333 E7.14038
G1 X197.994 Y108.465 E7.17889
G1 X197.488 Y110.99 E7.26454
G1 X197.07 Y113.422 E7.34662
G1 X196.717 Y115.909 E7.43017
G1 X196.436 Y118.388 E7.51315
G1 X196.224 Y120.889 E7.59663
G1 X196.083 Y123.37 E7.67928
G1 X196.037 Y124.414 E7.71404
G1 X195.954 Y125.382 E7.74635
G1 X195.783 Y126.381 E7.78006
G1 X195.521 Y127.597 E7.82143
G1 X195.011 Y130.14 E7.9077
G1 X194.591 Y132.594 E7.9905
G1 X194.239 Y135.072 E8.07375
G1 X193.957 Y137.552 E8.15677
G1 X193.746 Y140.046 E8.24001
G1 X193.607 Y142.491 E8.32147
G1 X193.526 Y146.358 E8.45011
G1 X193.525 Y163.389 E9.01656
G1 X193.515 Y164.091 E9.03992
G1 X193.461 Y165.061 E9.07223
G1 X193.328 Y166.023 E9.10453
G1 X193.116 Y166.971 E9.13684
G1 X192.826 Y167.898 E9.16914
G1 X192.462 Y168.799 E9.20146
G1 X192.024 Y169.666 E9.23377
G1 X191.517 Y170.494 E9.26606
G1 X190.943 Y171.278 E9.29838
G1 X190.248 Y172.074 E9.33353
G1 X189.644 Y172.696 E9.36236
G1 X188.97 Y173.355 E9.39372
G1 X188.249 Y174.005 E9.426
G1 X187.476 Y174.594 E9.45833
G1 X186.657 Y175.116 E9.49063
G1 X185.798 Y175.57 E9.52294
G1 X184.905 Y175.951 E9.55524
G1 X183.983 Y176.258 E9.58756
G1 X183.039 Y176.488 E9.61987
G1 X182.08 Y176.64 E9.65217
G1 X180.933 Y176.716 E9.6904
G1 X180.164 Y176.728 E9.71598
G1 X131.725 Y176.728 E11.32707
G1 X129.116 Y176.765 E11.41385
G1 X126.638 Y176.87 E11.49635
G1 X124.155 Y177.046 E11.57914
G1 X121.699 Y177.29 E11.66123
G1 X119.19 Y177.611 E11.74536
G1 X116.72 Y177.999 E11.82852
G1 X114.304 Y178.448 E11.91025
G1 X111.847 Y178.975 E11.99383
G1 X109.412 Y179.573 E12.07722
G1 X107.018 Y180.232 E12.15981
G1 X104.65 Y180.957 E12.24218
G1 X102.236 Y181.772 E12.32692
G1 X99.931 Y182.621 E12.40862
G1 X97.599 Y183.558 E12.49221
G1 X95.349 Y184.536 E12.57381
G1 X93.047 Y185.617 E12.6584
G1 X90.848 Y186.724 E12.74028
G1 X88.582 Y187.947 E12.82592
G1 X87.529 Y188.544 E12.86618
G1 X69.378 Y199.023 E13.56327
G1 X68.787 Y199.353 E13.58579
G1 X67.92 Y199.791 E13.61809
G1 X67.02 Y200.156 E13.6504
G1 X66.32 Y200.383 E13.67487
G1 X65.436 Y200.638 E13.70547
G1 X56.831 Y202.993 E14.0022
G1 X56.161 Y203.167 E14.02522
G1 X55.212 Y203.372 E14.05752
G1 X54.249 Y203.499 E14.08982
G1 X53.439 Y203.543 E14.1168
G1 X52.133 Y203.568 E14.16025
G1 X34.824 Y203.567 E14.73595
G1 X34.122 Y203.557 E14.7593
G1 X33.152 Y203.503 E14.79161
G1 X32.19 Y203.37 E14.82391
G1 X31.242 Y203.158 E14.85622
G1 X30.315 Y202.868 E14.88853
G1 X29.414 Y202.504 E14.92085
G1 X28.547 Y202.066 E14.95316
G1 X27.719 Y201.559 E14.98545
G1 X26.935 Y200.985 E15.01777
G1 X26.132 Y200.284 E15.05322
G1 X25.504 Y199.674 E15.08234
G1 X24.856 Y199.011 E15.11317
G1 X24.206 Y198.289 E15.14548
G1 X23.618 Y197.516 E15.17779
G1 X23.096 Y196.697 E15.21009
G1 X22.642 Y195.838 E15.24241
G1 X22.261 Y194.945 E15.2747
G1 X21.954 Y194.023 E15.30702
G1 X21.724 Y193.079 E15.33933
G1 X21.573 Y192.119 E15.37166
G1 X21.497 Y190.975 E15.40979
G1 X21.485 Y190.206 E15.43537
G1 X21.486 Y170.357 E16.09555
G1 X21.496 Y169.655 E16.1189
G1 X21.55 Y168.685 E16.15121
G1 X21.683 Y167.723 E16.18351
G1 X21.895 Y166.775 E16.21582
G1 X22.185 Y165.848 E16.24813
G1 X22.549 Y164.947 E16.28045
G1 X22.987 Y164.08 E16.31276
G1 X23.494 Y163.252 E16.34505
G1 X24.068 Y162.468 E16.37737
G1 X24.763 Y161.671 E16.41254
G1 X25.367 Y161.05 E16.44135
G1 X26.047 Y160.385 E16.47299
G1 X26.769 Y159.735 E16.5053
G1 X27.354 Y159.28 E16.52995
G1 X28.836 Y158.202 E16.5909
G1 X30.878 Y156.651 E16.67619
G1 X32.814 Y155.095 E16.7588
G1 X34.728 Y153.466 E16.84239
G1 X36.558 Y151.814 E16.92439
G1 X38.403 Y150.053 E17.00922
G1 X40.12 Y148.319 E17.09038
G1 X41.854 Y146.466 E17.17479
G1 X43.476 Y144.629 E17.2563
G1 X45.095 Y142.69 E17.34032
G1 X46.627 Y140.746 E17.42264
G1 X48.125 Y138.728 E17.50623
G1 X49.545 Y136.699 E17.5886
G1 X50.935 Y134.588 E17.67266
G1 X52.23 Y132.495 E17.75453
G1 X53.479 Y130.342 E17.83731
G1 X54.683 Y128.125 E17.92122
G1 X55.803 Y125.917 E18.00357
G1 X56.861 Y123.674 E18.08605
G1 X57.875 Y121.356 E18.1702
G1 X58.803 Y119.064 E18.25245
G1 X59.672 Y116.728 E18.33535
G1 X60.483 Y114.342 E18.41916
G1 X61.22 Y111.958 E18.50216
G1 X61.877 Y109.594 E18.58376
G1 X62.492 Y107.108 E18.66894
G1 X63.01 Y104.735 E18.74973
G1 X63.477 Y102.255 E18.83366
G1 X63.868 Y99.805 E18.91618
G1 X64.193 Y97.312 E18.9998
G1 X64.443 Y94.86 E19.08178
G1 X64.627 Y92.346 E19.16562
G1 X64.739 Y89.879 E19.24775
G1 X64.782 Y87.033 E19.34242
G1 X64.783 Y72.524 E19.82499
G1 X64.794 Y71.817 E19.84851
G1 X64.85 Y70.848 E19.88079
G1 X64.965 Y69.993 E19.90949
G1 X65.467 Y67.088 E20.00754
G1 X65.818 Y64.616 E20.09058
G1 X66.102 Y62.11 E20.17447
G1 X66.311 Y59.656 E20.25638
G1 X66.449 Y57.205 E20.33803
G1 X66.532 Y53.318 E20.46734
G1 X66.533 Y29.771 E21.25052
G0 F6000 X66.933 Y29.777
G1 F1200 X66.943 Y29.075 E21.27387
G1 X66.997 Y28.121 E21.30565
G1 X67.13 Y27.176 E21.33739
G1 X67.342 Y26.245 E21.36915
G1 X67.631 Y25.335 E21.40091
G1 X67.995 Y24.452 E21.43267
G1 X68.431 Y23.603 E21.46442
G1 X68.938 Y22.794 E21.49617
G1 X69.51 Y22.029 E21.52794
G1 X70.107 Y21.354 E21.55791
G1 X70.704 Y20.739 E21.58642
G1 X71.362 Y20.095 E21.61704
G1 X72.072 Y19.456 E21.64882
G1 X72.833 Y18.879 E21.68058
G1 X73.639 Y18.368 E21.71232
G1 X74.485 Y17.926 E21.74407
G1 X75.365 Y17.556 E21.77582
G1 X76.273 Y17.261 E21.80757
G1 X77.203 Y17.043 E21.83934
G1 X78.148 Y16.904 E21.87111
G1 X79.132 Y16.844 E21.9039
G1 X79.894 Y16.832 E21.92925
G1 X173.325 Y16.832 E25.03678
G1 X174.189 Y16.843 E25.06551
G1 X175.143 Y16.897 E25.0973
G1 X176.088 Y17.03 E25.12904
G1 X177.019 Y17.242 E25.16079
G1 X177.929 Y17.531 E25.19255
G1 X178.812 Y17.895 E25.22432
G1 X179.661 Y18.331 E25.25606
G1 X180.47 Y18.838 E25.28781
G1 X181.235 Y19.41 E25.31959
G1 X181.89 Y19.987 E25.34862
G1 X182.482 Y20.56 E25.37602
G1 X183.148 Y21.239 E25.40765
G1 X183.787 Y21.948 E25.4394
G1 X184.365 Y22.708 E25.47116
G1 X184.877 Y23.514 E25.50292
G1 X185.32 Y24.36 E25.53468
G1 X185.691 Y25.24 E25.56644
G1 X185.987 Y26.148 E25.59821
G1 X186.205 Y27.077 E25.62995
G1 X186.34 Y27.971 E25.66002
G1 X186.358 Y28.134 E25.66547
G1 X186.427 Y29.336 E25.70552
G1 X186.432 Y30.435 E25.74207
G1 X186.469 Y33.045 E25.82889
G1 X186.576 Y35.578 E25.91321
G1 X186.751 Y38.048 E25.99557
G1 X186.997 Y40.527 E26.07842
G1 X187.317 Y43.028 E26.16229
G1 X187.708 Y45.516 E26.24605
G1 X188.168 Y47.988 E26.32968
G1 X188.678 Y50.368 E26.41064
G1 X189.289 Y52.855 E26.49582
G1 X189.954 Y55.272 E26.57919
G1 X190.686 Y57.661 E26.6623
G1 X191.484 Y60.028 E26.74538
G1 X192.722 Y63.336 E26.86286
G1 X193.019 Y64.244 E26.89463
G1 X193.239 Y65.173 E26.92638
G1 X193.32 Y65.648 E26.94241
G1 X193.416 Y66.289 E26.96397
G1 X193.831 Y68.811 E27.04898
G1 X194.317 Y71.315 E27.13382
G1 X194.855 Y73.73 E27.21611
G1 X195.462 Y76.131 E27.29848
G1 X196.151 Y78.557 E27.38236
G1 X196.919 Y81 E27.46753
G1 X197.245 Y81.948 E27.50088
G1 X197.532 Y82.819 E27.53138
G1 X197.793 Y83.738 E27.56315
G1 X197.976 Y84.675 E27.59491
G1 X198.079 Y85.624 E27.62666
G1 X198.103 Y86.183 E27.64527
G1 X198.115 Y86.945 E27.67061
G1 X198.113 Y104.361 E28.24987
G1 X198.098 Y105.089 E28.27409
G1 X198.038 Y106.042 E28.30585
G1 X197.846 Y107.249 E28.3465
G1 X197.603 Y108.38 E28.38498
G1 X197.095 Y110.915 E28.47097
G1 X196.675 Y113.364 E28.55361
G1 X196.317 Y115.883 E28.63823
G1 X196.038 Y118.342 E28.72055
G1 X195.827 Y120.831 E28.80363
G1 X195.679 Y123.436 E28.89041
G1 X195.637 Y124.397 E28.9224
G1 X195.555 Y125.348 E28.95415
G1 X195.392 Y126.296 E28.98614
G1 X195.133 Y127.499 E29.02707
G1 X194.618 Y130.065 E29.11412
G1 X194.196 Y132.536 E29.1975
G1 X193.839 Y135.043 E29.28172
G1 X193.559 Y137.51 E29.3643
G1 X193.349 Y139.988 E29.44701
G1 X193.207 Y142.489 E29.53033
G1 X193.126 Y146.35 E29.65878
G1 X193.125 Y163.383 E30.2253
G1 X193.115 Y164.085 E30.24865
G1 X193.061 Y165.039 E30.28043
G1 X192.928 Y165.984 E30.31217
G1 X192.716 Y166.915 E30.34393
G1 X192.427 Y167.825 E30.37568
G1 X192.063 Y168.708 E30.40745
G1 X191.627 Y169.557 E30.43919
G1 X191.12 Y170.366 E30.47095
G1 X190.548 Y171.131 E30.50272
G1 X189.959 Y171.798 E30.53231
G1 X189.365 Y172.41 E30.56068
G1 X188.691 Y173.069 E30.59203
G1 X187.981 Y173.708 E30.6238
G1 X187.22 Y174.284 E30.65555
G1 X186.413 Y174.795 E30.68732
G1 X185.567 Y175.237 E30.71906
G1 X184.686 Y175.606 E30.75083
G1 X183.778 Y175.9 E30.78258
G1 X182.848 Y176.118 E30.81435
G1 X181.904 Y176.256 E30.84608
G1 X180.926 Y176.316 E30.87867
G1 X180.164 Y176.328 E30.90401
G1 X131.719 Y176.328 E32.5153
G1 X129.129 Y176.365 E32.60145
G1 X126.594 Y176.472 E32.68584
G1 X124.124 Y176.647 E32.7682
G1 X121.645 Y176.893 E32.85106
G1 X119.144 Y177.213 E32.93492
G1 X116.656 Y177.604 E33.01869
G1 X114.184 Y178.064 E33.10232
G1 X111.804 Y178.574 E33.18327
G1 X109.317 Y179.185 E33.26845
G1 X106.9 Y179.85 E33.35183
G1 X104.51 Y180.582 E33.43497
G1 X102.118 Y181.389 E33.51893
G1 X99.78 Y182.251 E33.60181
G1 X97.469 Y183.179 E33.68464
G1 X95.156 Y184.185 E33.76853
G1 X92.891 Y185.248 E33.85175
G1 X90.643 Y186.379 E33.93545
G1 X88.393 Y187.594 E34.0205
G1 X87.329 Y188.198 E34.06119
G1 X69.183 Y198.673 E34.75807
G1 X68.592 Y199.003 E34.78058
G1 X67.739 Y199.434 E34.81237
G1 X66.854 Y199.791 E34.84411
G1 X66.208 Y199.999 E34.86668
G1 X65.331 Y200.252 E34.89704
G1 X56.731 Y202.606 E35.1936
G1 X56.061 Y202.78 E35.21662
G1 X55.127 Y202.981 E35.2484
G1 X54.18 Y203.103 E35.28016
G1 X53.431 Y203.144 E35.30511
G1 X52.133 Y203.168 E35.34828
G1 X34.83 Y203.167 E35.92378
G1 X34.128 Y203.157 E35.94714
G1 X33.174 Y203.103 E35.97892
G1 X32.229 Y202.97 E36.01066
G1 X31.298 Y202.758 E36.04241
G1 X30.388 Y202.469 E36.07417
G1 X29.505 Y202.105 E36.10594
G1 X28.656 Y201.669 E36.13768
G1 X27.847 Y201.162 E36.16944
G1 X27.082 Y200.59 E36.20121
G1 X26.409 Y199.995 E36.23108
G1 X25.79 Y199.394 E36.25978
G1 X25.142 Y198.731 E36.29061
G1 X24.504 Y198.021 E36.32236
G1 X23.928 Y197.26 E36.35411
G1 X23.417 Y196.453 E36.38588
G1 X22.975 Y195.607 E36.41762
G1 X22.606 Y194.726 E36.44939
G1 X22.312 Y193.818 E36.48114
G1 X22.095 Y192.888 E36.5129
G1 X21.956 Y191.944 E36.54463
G1 X21.897 Y190.968 E36.57716
G1 X21.885 Y190.206 E36.6025
G1 X21.886 Y170.363 E37.26248
G1 X21.896 Y169.661 E37.28583
G1 X21.95 Y168.707 E37.31762
G1 X22.083 Y167.762 E37.34936
G1 X22.295 Y166.831 E37.38111
G1 X22.584 Y165.921 E37.41287
G1 X22.948 Y165.038 E37.44464
G1 X23.384 Y164.189 E37.47638
G1 X23.891 Y163.38 E37.50813
G1 X24.463 Y162.615 E37.53991
G1 X25.053 Y161.948 E37.56952
G1 X25.646 Y161.336 E37.59787
G1 X26.326 Y160.671 E37.6295
G1 X27.036 Y160.032 E37.66127
G1 X27.589 Y159.603 E37.68455
G1 X29.112 Y158.494 E37.74721
G1 X31.125 Y156.966 E37.83127
G1 X33.079 Y155.396 E37.91464
G1 X34.973 Y153.784 E37.99736
G1 X36.838 Y152.1 E38.08093
G1 X38.662 Y150.358 E38.16482
G1 X40.413 Y148.59 E38.24759
G1 X42.147 Y146.738 E38.33197
G1 X43.797 Y144.869 E38.41489
G1 X45.4 Y142.949 E38.49808
G1 X46.946 Y140.987 E38.58116
G1 X48.446 Y138.967 E38.66485
G1 X49.874 Y136.927 E38.74767
G1 X51.266 Y134.813 E38.83185
G1 X52.575 Y132.697 E38.91461
G1 X53.842 Y130.511 E38.99865
G1 X55.027 Y128.332 E39.08114
G1 X56.17 Y126.075 E39.16529
G1 X57.232 Y123.827 E39.24798
G1 X58.236 Y121.531 E39.33133
G1 X59.178 Y119.206 E39.41477
G1 X60.05 Y116.86 E39.49801
G1 X60.857 Y114.484 E39.58147
G1 X61.601 Y112.077 E39.66526
G1 X62.265 Y109.692 E39.74761
G1 X62.876 Y107.218 E39.83236
G1 X63.407 Y104.789 E39.91506
G1 X63.872 Y102.321 E39.99859
G1 X64.265 Y99.853 E40.08171
G1 X64.59 Y97.367 E40.1651
G1 X64.842 Y94.893 E40.24781
G1 X65.027 Y92.357 E40.33238
G1 X65.138 Y89.903 E40.41409
G1 X65.182 Y87.039 E40.50935
G1 X65.183 Y72.531 E40.99189
G1 X65.194 Y71.824 E41.01541
G1 X65.249 Y70.87 E41.04719
G1 X65.359 Y70.061 E41.07435
G1 X65.862 Y67.146 E41.17273
G1 X66.218 Y64.645 E41.25676
G1 X66.497 Y62.188 E41.339
G1 X66.71 Y59.679 E41.42275
G1 X66.85 Y57.206 E41.50514
G1 X66.932 Y53.327 E41.63418
G1 X66.933 Y29.777 E42.41746
G0 F6000 X67.333 Y29.782
G1 F1200 X67.343 Y29.08 E42.44081
G1 X67.396 Y28.144 E42.47199
G1 X67.529 Y27.216 E42.50317
G1 X67.741 Y26.302 E42.53438
G1 X68.029 Y25.409 E42.56558
G1 X68.393 Y24.545 E42.59677
G1 X68.829 Y23.714 E42.62798
G1 X69.334 Y22.924 E42.65916
G1 X69.904 Y22.18 E42.69034
G1 X70.396 Y21.63 E42.71488
G1 X70.984 Y21.025 E42.74294
G1 X71.642 Y20.381 E42.77357
G1 X72.34 Y19.754 E42.80477
G1 X73.088 Y19.189 E42.83595
G1 X73.882 Y18.689 E42.86716
G1 X74.715 Y18.259 E42.89834
G1 X75.583 Y17.902 E42.92955
G1 X76.477 Y17.62 E42.96073
G1 X77.392 Y17.415 E42.99192
G1 X78.322 Y17.289 E43.02314
G1 X79.139 Y17.244 E43.05035
G1 X79.894 Y17.232 E43.07546
G1 X173.325 Y17.232 E46.18299
G1 X174.184 Y17.243 E46.21156
G1 X175.12 Y17.296 E46.24275
G1 X176.048 Y17.429 E46.27393
G1 X176.962 Y17.641 E46.30513
G1 X177.855 Y17.929 E46.33634
G1 X178.719 Y18.293 E46.36752
G1 X179.55 Y18.729 E46.39874
G1 X180.34 Y19.234 E46.42992
G1 X181.084 Y19.804 E46.4611
G1 X181.614 Y20.277 E46.48472
G1 X182.196 Y20.84 E46.51165
G1 X182.862 Y21.519 E46.54329
G1 X183.49 Y22.216 E46.57449
G1 X184.056 Y22.964 E46.60569
G1 X184.556 Y23.758 E46.6369
G1 X184.986 Y24.591 E46.66808
G1 X185.345 Y25.457 E46.69926
G1 X185.628 Y26.351 E46.73045
