;FLAVOR:Marlin
;TIME:14669
;Filament used: 10.6711m
;Layer height: 0.2
;MINX:21.485
;MINY:15.932
;MINZ:0.2
;MAXX:198.515
;MAXY:204.068
;MAXZ:2.4
;Generated with Cura_SteamEngine 5.0.0
M140 S50
M105
M190 S50
M104 S200
M105
M109 S200
M82 ;absolute extrusion mode

G28 ;Home
;G29 ;Bed levelling

G92 E0 ;Reset Extruder
G1 Z2.0 F3000 ;Move Z Axis up
G1 X10.1 Y20 Z0.28 F5000.0 ;Move to start position
G1 X10.1 Y200.0 Z0.28 F1500.0 E15 ;Draw the first line
G1 X10.4 Y200.0 Z0.28 F5000.0 ;Move to side a little
G1 X10.4 Y20 Z0.28 F1500.0 E30 ;Draw the second line
G92 E0 ;Reset Extruder
G1 Z2.0 F3000 ;Move Z Axis up
G92 E0
G92 E0
G1 F2400 E-0.8
;LAYER_COUNT:10
;LAYER:0
M107
G1 F300 Z0.6
G0 F6000 X35.177 Y22.166 Z0.6
G1 F300 Z0.2
G0 F6000 X33.169 Y29.271
;TYPE:SKIRT
G1 F2400 E0
G1 F1200 X33.179 Y28.569 E0.02335
G1 X33.233 Y27.599 E0.05566
G1 X33.366 Y26.637 E0.08796
G1 X33.578 Y25.689 E0.12027
G1 X33.868 Y24.762 E0.15258
G1 X34.232 Y23.861 E0.1849
G1 X34.67 Y22.994 E0.21721
G1 X35.177 Y22.166 E0.2495
G1 X35.751 Y21.382 E0.28182
G1 X36.454 Y20.577 E0.31736
G1 X37.06 Y19.953 E0.34629
G1 X37.718 Y19.309 E0.37692
G1 X38.44 Y18.659 E0.40923
G1 X39.213 Y18.07 E0.44155
G1 X40.031 Y17.547 E0.47384
G1 X40.89 Y17.093 E0.50616
G1 X41.783 Y16.711 E0.53846
G1 X42.704 Y16.403 E0.57076
G1 X43.648 Y16.173 E0.60308
G1 X44.608 Y16.021 E0.63541
G1 X45.761 Y15.944 E0.67384
G1 X46.53 Y15.932 E0.69942
G1 X140.129 Y15.933 E3.81254
G1 X140.831 Y15.943 E3.83589
G1 X141.801 Y15.997 E3.8682
G1 X142.763 Y16.13 E3.9005
G1 X143.711 Y16.342 E3.93281
G1 X144.638 Y16.632 E3.96512
G1 X145.539 Y16.996 E3.99744
G1 X146.406 Y17.434 E4.02974
G1 X147.234 Y17.941 E4.06204
G1 X148.018 Y18.515 E4.09435
G1 X148.802 Y19.198 E4.12894
G1 X149.403 Y19.78 E4.15676
G1 X150.069 Y20.459 E4.1884
G1 X150.72 Y21.18 E4.22071
G1 X151.31 Y21.952 E4.25302
G1 X151.834 Y22.77 E4.28533
G1 X152.289 Y23.628 E4.31764
G1 X152.672 Y24.521 E4.34995
G1 X152.98 Y25.442 E4.38225
G1 X153.211 Y26.386 E4.41458
G1 X153.374 Y27.427 E4.44962
G1 X153.392 Y27.59 E4.45508
G1 X153.463 Y28.883 E4.49815
G1 X153.468 Y53.803 E5.32699
G1 X153.505 Y56.416 E5.41391
G1 X153.61 Y58.889 E5.49623
G1 X153.786 Y61.377 E5.57919
G1 X154.03 Y63.831 E5.66121
G1 X154.347 Y66.308 E5.74427
G1 X154.867 Y69.547 E5.85338
G1 X155.023 Y70.418 E5.88281
G1 X155.155 Y71.38 E5.91511
G1 X155.206 Y72.277 E5.94499
G1 X155.218 Y73.029 E5.97001
G1 X155.218 Y87.559 E6.45328
G1 X155.255 Y90.168 E6.54006
G1 X155.36 Y92.643 E6.62245
G1 X155.534 Y95.099 E6.70434
G1 X155.783 Y97.613 E6.78837
G1 X156.101 Y100.098 E6.87169
G1 X156.488 Y102.558 E6.95452
G1 X156.942 Y104.999 E7.0371
G1 X157.47 Y107.453 E7.12059
G1 X158.053 Y109.835 E7.20215
G1 X158.722 Y112.265 E7.28598
G1 X159.453 Y114.655 E7.36911
G1 X160.25 Y117.015 E7.45196
G1 X161.12 Y119.375 E7.53562
G1 X162.037 Y121.658 E7.61745
G1 X163.051 Y123.988 E7.70196
G1 X164.094 Y126.213 E7.78369
G1 X165.224 Y128.457 E7.86726
G1 X166.402 Y130.637 E7.94967
G1 X167.647 Y132.797 E8.0326
G1 X168.97 Y134.947 E8.11656
G1 X170.316 Y137.004 E8.19832
G1 X171.757 Y139.072 E8.28215
G1 X173.223 Y141.056 E8.3642
G1 X174.766 Y143.026 E8.44743
G1 X176.364 Y144.95 E8.53062
G1 X178.019 Y146.831 E8.61395
G1 X179.722 Y148.663 E8.69714
G1 X181.46 Y150.427 E8.7795
G1 X183.267 Y152.161 E8.8628
G1 X185.1 Y153.821 E8.94505
G1 X187.029 Y155.474 E9.02954
G1 X188.928 Y157.008 E9.11074
G1 X190.925 Y158.53 E9.19425
G1 X192.142 Y159.408 E9.24416
G1 X192.732 Y159.845 E9.26858
G1 X193.488 Y160.455 E9.30089
G1 X193.848 Y160.783 E9.31709
G1 X194.497 Y161.412 E9.34715
G1 X195.155 Y162.087 E9.3785
G1 X195.803 Y162.81 E9.41079
G1 X196.391 Y163.584 E9.44312
G1 X196.912 Y164.403 E9.47541
G1 X197.365 Y165.263 E9.50774
G1 X197.745 Y166.157 E9.54005
G1 X198.05 Y167.079 E9.57235
G1 X198.279 Y168.023 E9.60466
G1 X198.429 Y168.983 E9.63697
G1 X198.503 Y170.112 E9.6746
G1 X198.515 Y170.881 E9.70018
G1 X198.514 Y190.729 E10.36033
G1 X198.504 Y191.431 E10.38368
G1 X198.45 Y192.401 E10.41599
G1 X198.317 Y193.363 E10.4483
G1 X198.105 Y194.311 E10.4806
G1 X197.815 Y195.238 E10.51291
G1 X197.451 Y196.139 E10.54523
G1 X197.013 Y197.006 E10.57754
G1 X196.506 Y197.834 E10.60983
G1 X195.932 Y198.618 E10.64215
G1 X195.237 Y199.414 E10.67729
G1 X194.64 Y200.03 E10.70583
G1 X193.967 Y200.689 E10.73715
G1 X193.245 Y201.34 E10.76949
G1 X192.473 Y201.929 E10.80179
G1 X191.654 Y202.452 E10.83411
G1 X190.796 Y202.906 E10.86639
G1 X189.903 Y203.288 E10.8987
G1 X188.981 Y203.596 E10.93103
G1 X188.038 Y203.826 E10.96331
G1 X187.078 Y203.979 E10.99564
G1 X185.922 Y204.056 E11.03418
G1 X185.153 Y204.068 E11.05976
G1 X167.395 Y204.067 E11.65039
G1 X166.736 Y204.058 E11.67231
G1 X165.766 Y204.005 E11.70462
G1 X164.804 Y203.872 E11.73692
G1 X164.009 Y203.7 E11.76398
G1 X162.741 Y203.378 E11.80749
G1 X154.453 Y201.106 E12.09332
G1 X153.718 Y200.895 E12.11875
G1 X152.796 Y200.589 E12.15106
G1 X151.903 Y200.208 E12.18336
G1 X151.218 Y199.854 E12.209
G1 X150.41 Y199.401 E12.23981
G1 X132.523 Y189.075 E12.92675
G1 X130.309 Y187.838 E13.0111
G1 X128.073 Y186.67 E13.09501
G1 X125.835 Y185.581 E13.17779
G1 X123.55 Y184.549 E13.26118
G1 X121.279 Y183.598 E13.34307
G1 X118.909 Y182.684 E13.42756
G1 X116.576 Y181.861 E13.50984
G1 X114.216 Y181.101 E13.5923
G1 X111.813 Y180.402 E13.67554
G1 X109.385 Y179.769 E13.75899
G1 X107.001 Y179.219 E13.84037
G1 X104.475 Y178.712 E13.92606
G1 X102.062 Y178.298 E14.00749
G1 X99.598 Y177.946 E14.09027
G1 X97.119 Y177.664 E14.17326
G1 X94.639 Y177.452 E14.25604
G1 X92.128 Y177.309 E14.33969
G1 X89.628 Y177.237 E14.42288
G1 X88.289 Y177.228 E14.46742
G1 X39.981 Y177.228 E16.07415
G1 X39.111 Y177.217 E16.10308
G1 X38.141 Y177.163 E16.1354
G1 X37.179 Y177.03 E16.1677
G1 X36.231 Y176.818 E16.20001
G1 X35.304 Y176.528 E16.23231
G1 X34.403 Y176.164 E16.26463
G1 X33.536 Y175.726 E16.29694
G1 X32.708 Y175.219 E16.32923
G1 X31.924 Y174.645 E16.36155
G1 X31.121 Y173.944 E16.397
G1 X30.493 Y173.334 E16.42612
G1 X29.845 Y172.671 E16.45696
G1 X29.195 Y171.949 E16.48927
G1 X28.607 Y171.176 E16.52157
G1 X28.085 Y170.357 E16.55387
G1 X27.631 Y169.498 E16.58619
G1 X27.25 Y168.605 E16.61848
G1 X26.943 Y167.683 E16.6508
G1 X26.713 Y166.739 E16.68312
G1 X26.562 Y165.779 E16.71544
G1 X26.486 Y164.635 E16.75357
G1 X26.474 Y163.866 E16.77915
G1 X26.474 Y146.823 E17.34601
G1 X26.437 Y144.212 E17.43286
G1 X26.332 Y141.739 E17.51518
G1 X26.158 Y139.282 E17.59711
G1 X25.906 Y136.738 E17.68214
G1 X25.595 Y134.314 E17.76342
G1 X25.204 Y131.824 E17.84725
G1 X24.753 Y129.396 E17.92939
G1 X24.483 Y128.155 E17.97163
G1 X24.198 Y126.786 E18.01814
G1 X24.039 Y125.828 E18.05044
G1 X23.964 Y124.951 E18.07972
G1 X23.819 Y121.95 E18.17965
G1 X23.624 Y119.462 E18.26265
G1 X23.358 Y116.979 E18.34571
G1 X23.022 Y114.496 E18.42905
G1 X22.623 Y112.074 E18.51069
G1 X22.142 Y109.588 E18.59491
G1 X21.94 Y108.68 E18.62584
G1 X21.743 Y107.735 E18.65795
G1 X21.584 Y106.777 E18.69025
G1 X21.497 Y105.539 E18.73153
G1 X21.485 Y104.771 E18.75707
G1 X21.487 Y87.391 E19.33514
G1 X21.499 Y86.68 E19.35879
G1 X21.555 Y85.71 E19.3911
G1 X21.691 Y84.748 E19.42342
G1 X21.906 Y83.801 E19.45572
G1 X22.116 Y83.108 E19.4798
G1 X22.492 Y81.994 E19.51891
G1 X23.272 Y79.571 E19.60357
G1 X23.978 Y77.139 E19.6878
G1 X24.608 Y74.72 E19.77094
G1 X25.166 Y72.297 E19.85363
G1 X25.653 Y69.868 E19.93603
G1 X26.091 Y67.321 E20.02199
G1 X26.299 Y65.997 E20.06656
G1 X26.49 Y65.045 E20.09886
G1 X26.875 Y63.774 E20.14303
G1 X27.117 Y63.119 E20.16625
G1 X27.713 Y61.574 E20.22133
G1 X28.534 Y59.248 E20.30337
G1 X29.307 Y56.844 E20.38736
G1 X29.995 Y54.477 E20.46935
G1 X30.631 Y52.037 E20.55321
G1 X31.191 Y49.599 E20.63641
G1 X31.682 Y47.158 E20.71923
G1 X32.098 Y44.73 E20.80116
G1 X32.451 Y42.252 E20.88441
G1 X32.736 Y39.74 E20.9685
G1 X32.944 Y37.294 E21.05014
G1 X33.088 Y34.773 E21.13413
G1 X33.159 Y32.281 E21.21705
G1 X33.169 Y29.271 E21.31716
G1 F2400 E20.51716
G0 F6000 X33.489 Y34.771
G1 F2400 E21.31716
G1 F1200 X33.559 Y32.295 E21.39955
G1 X33.569 Y29.277 E21.49993
G1 X33.579 Y28.575 E21.52328
G1 X33.633 Y27.621 E21.55506
G1 X33.766 Y26.676 E21.5868
G1 X33.978 Y25.745 E21.61856
G1 X34.267 Y24.835 E21.65031
G1 X34.631 Y23.952 E21.68208
G1 X35.067 Y23.103 E21.71382
G1 X35.574 Y22.294 E21.74558
G1 X36.146 Y21.529 E21.77735
G1 X36.743 Y20.854 E21.80732
G1 X37.34 Y20.239 E21.83583
G1 X37.998 Y19.595 E21.86645
G1 X38.708 Y18.956 E21.89822
G1 X39.469 Y18.379 E21.92998
G1 X40.275 Y17.868 E21.96172
G1 X41.121 Y17.426 E21.99347
G1 X42.001 Y17.056 E22.02522
G1 X42.909 Y16.761 E22.05698
G1 X43.839 Y16.543 E22.08875
G1 X44.784 Y16.404 E22.12052
G1 X45.768 Y16.344 E22.1533
G1 X46.53 Y16.332 E22.17865
G1 X140.123 Y16.333 E25.29157
G1 X140.825 Y16.343 E25.31492
G1 X141.779 Y16.397 E25.3467
G1 X142.724 Y16.53 E25.37844
G1 X143.655 Y16.742 E25.4102
G1 X144.565 Y17.031 E25.44195
G1 X145.448 Y17.395 E25.47372
G1 X146.297 Y17.831 E25.50546
G1 X147.106 Y18.338 E25.53722
G1 X147.871 Y18.91 E25.56899
G1 X148.526 Y19.487 E25.59802
G1 X149.118 Y20.06 E25.62543
G1 X149.784 Y20.739 E25.65706
G1 X150.423 Y21.448 E25.6888
G1 X151.001 Y22.208 E25.72056
G1 X151.513 Y23.014 E25.75232
G1 X151.956 Y23.86 E25.78408
G1 X152.327 Y24.74 E25.81585
G1 X152.623 Y25.648 E25.84761
G1 X152.841 Y26.577 E25.87935
G1 X152.976 Y27.471 E25.90942
G1 X152.994 Y27.634 E25.91488
G1 X153.063 Y28.883 E25.95648
G1 X153.068 Y53.809 E26.78552
G1 X153.105 Y56.403 E26.87181
G1 X153.212 Y58.936 E26.95613
G1 X153.387 Y61.406 E27.03849
G1 X153.633 Y63.885 E27.12135
G1 X153.951 Y66.366 E27.20454
G1 X154.474 Y69.624 E27.31429
G1 X154.629 Y70.489 E27.34352
G1 X154.758 Y71.435 E27.37527
G1 X154.806 Y72.285 E27.40359
G1 X154.818 Y73.029 E27.42834
G1 X154.818 Y87.565 E27.91181
G1 X154.855 Y90.155 E27.99796
G1 X154.962 Y92.69 E28.08235
G1 X155.138 Y95.163 E28.16481
G1 X155.383 Y97.636 E28.24746
G1 X155.704 Y100.145 E28.33159
G1 X156.092 Y102.617 E28.41482
G1 X156.551 Y105.085 E28.49831
G1 X157.076 Y107.527 E28.58139
G1 X157.674 Y109.964 E28.66485
G1 X158.339 Y112.383 E28.74829
G1 X159.068 Y114.762 E28.83105
G1 X159.871 Y117.145 E28.91469
G1 X160.745 Y119.514 E28.99867
G1 X161.675 Y121.831 E29.08171
G1 X162.674 Y124.125 E29.16493
G1 X163.739 Y126.398 E29.24842
G1 X164.873 Y128.648 E29.33222
G1 X166.046 Y130.821 E29.41435
G1 X167.309 Y133.011 E29.49844
G1 X168.622 Y135.145 E29.58177
G1 X169.986 Y137.229 E29.66461
G1 X171.423 Y139.291 E29.74821
G1 X172.92 Y141.317 E29.83199
G1 X174.473 Y143.3 E29.91577
G1 X176.056 Y145.207 E29.9982
G1 X177.724 Y147.103 E30.08219
G1 X179.427 Y148.934 E30.16536
G1 X181.163 Y150.696 E30.24763
G1 X183.004 Y152.462 E30.33248
G1 X184.837 Y154.123 E30.41475
G1 X186.763 Y155.773 E30.4991
G1 X188.68 Y157.321 E30.58106
G1 X190.712 Y158.871 E30.66606
G1 X191.904 Y159.729 E30.71491
G1 X192.494 Y160.166 E30.73933
G1 X193.572 Y161.073 E30.78618
G1 X194.21 Y161.691 E30.81573
G1 X194.868 Y162.366 E30.84708
G1 X195.505 Y163.077 E30.87883
G1 X196.081 Y163.839 E30.9106
G1 X196.591 Y164.647 E30.94238
G1 X197.031 Y165.494 E30.97413
G1 X197.399 Y166.375 E31.00588
G1 X197.692 Y167.283 E31.03761
G1 X197.908 Y168.213 E31.06937
G1 X198.045 Y169.158 E31.10113
G1 X198.103 Y170.119 E31.13315
G1 X198.115 Y170.881 E31.1585
G1 X198.114 Y190.723 E31.81845
G1 X198.104 Y191.425 E31.8418
G1 X198.05 Y192.379 E31.87358
G1 X197.917 Y193.324 E31.90532
G1 X197.705 Y194.255 E31.93708
G1 X197.416 Y195.165 E31.96883
G1 X197.052 Y196.048 E32.0006
G1 X196.616 Y196.897 E32.03234
G1 X196.109 Y197.706 E32.0641
G1 X195.537 Y198.471 E32.09587
G1 X194.948 Y199.138 E32.12546
G1 X194.36 Y199.744 E32.15355
G1 X193.687 Y200.403 E32.18488
G1 X192.977 Y201.042 E32.21665
G1 X192.217 Y201.619 E32.24838
G1 X191.411 Y202.131 E32.28014
G1 X190.564 Y202.573 E32.31192
G1 X189.684 Y202.943 E32.34367
G1 X188.776 Y203.238 E32.37542
G1 X187.847 Y203.456 E32.40716
G1 X186.902 Y203.596 E32.43894
G1 X185.915 Y203.656 E32.47182
G1 X185.153 Y203.668 E32.49717
G1 X167.4 Y203.667 E33.08764
G1 X166.741 Y203.658 E33.10956
G1 X165.788 Y203.605 E33.14131
G1 X164.842 Y203.472 E33.17308
G1 X164.107 Y203.312 E33.1981
G1 X162.847 Y202.992 E33.24134
G1 X154.563 Y200.721 E33.52703
G1 X153.828 Y200.51 E33.55246
G1 X152.923 Y200.209 E33.58418
G1 X152.045 Y199.832 E33.61596
G1 X151.414 Y199.505 E33.6396
G1 X150.61 Y199.055 E33.67025
G1 X132.712 Y188.722 E34.35762
G1 X130.469 Y187.469 E34.44308
G1 X128.269 Y186.32 E34.52563
G1 X126.038 Y185.235 E34.60814
G1 X123.69 Y184.174 E34.69384
G1 X121.429 Y183.227 E34.77537
G1 X119.05 Y182.31 E34.86017
G1 X116.695 Y181.478 E34.94324
G1 X114.335 Y180.719 E35.02569
G1 X111.92 Y180.016 E35.10935
G1 X109.504 Y179.387 E35.19239
G1 X107.032 Y178.816 E35.27677
G1 X104.585 Y178.325 E35.35978
G1 X102.115 Y177.902 E35.44313
G1 X99.668 Y177.552 E35.52534
G1 X97.162 Y177.267 E35.60923
G1 X94.66 Y177.053 E35.69275
G1 X92.128 Y176.909 E35.7771
G1 X89.641 Y176.837 E35.85986
G1 X88.292 Y176.828 E35.90473
G1 X39.981 Y176.828 E37.51156
G1 X39.117 Y176.817 E37.54029
G1 X38.163 Y176.763 E37.57208
G1 X37.218 Y176.63 E37.60382
G1 X36.287 Y176.418 E37.63557
G1 X35.377 Y176.129 E37.66733
G1 X34.494 Y175.765 E37.6991
G1 X33.645 Y175.329 E37.73084
G1 X32.836 Y174.822 E37.7626
G1 X32.071 Y174.25 E37.79437
G1 X31.398 Y173.655 E37.82424
G1 X30.779 Y173.054 E37.85294
G1 X30.131 Y172.391 E37.88377
G1 X29.493 Y171.681 E37.91552
G1 X28.917 Y170.92 E37.94727
G1 X28.406 Y170.113 E37.97903
G1 X27.964 Y169.267 E38.01078
G1 X27.595 Y168.386 E38.04255
G1 X27.301 Y167.478 E38.07429
G1 X27.084 Y166.548 E38.10606
G1 X26.945 Y165.604 E38.13779
G1 X26.886 Y164.628 E38.17031
G1 X26.874 Y163.866 E38.19566
G1 X26.874 Y146.817 E38.76271
G1 X26.837 Y144.225 E38.84893
G1 X26.73 Y141.692 E38.93326
G1 X26.554 Y139.218 E39.01575
G1 X26.31 Y136.749 E39.09827
G1 X25.988 Y134.232 E39.18267
G1 X25.6 Y131.765 E39.26573
G1 X25.142 Y129.304 E39.34899
G1 X24.874 Y128.073 E39.39089
G1 X24.589 Y126.704 E39.4374
G1 X24.434 Y125.762 E39.46915
G1 X24.363 Y124.931 E39.49689
G1 X24.217 Y121.901 E39.59779
G1 X24.022 Y119.421 E39.68053
G1 X23.758 Y116.954 E39.76305
G1 X23.419 Y114.449 E39.84712
G1 X23.011 Y111.97 E39.93068
G1 X22.538 Y109.531 E40.01332
G1 X22.332 Y108.598 E40.0451
G1 X22.135 Y107.653 E40.0772
G1 X21.979 Y106.711 E40.10896
G1 X21.897 Y105.532 E40.14827
G1 X21.885 Y104.771 E40.17358
G1 X21.887 Y87.398 E40.75141
G1 X21.899 Y86.687 E40.77506
G1 X21.955 Y85.733 E40.80685
G1 X22.09 Y84.788 E40.8386
G1 X22.305 Y83.858 E40.87034
G1 X22.495 Y83.236 E40.89198
G1 X22.872 Y82.117 E40.93125
G1 X23.664 Y79.658 E41.01717
G1 X24.355 Y77.28 E41.09954
G1 X24.997 Y74.813 E41.18432
G1 X25.556 Y72.386 E41.26716
G1 X26.053 Y69.909 E41.35119
G1 X26.476 Y67.443 E41.4344
G1 X26.694 Y66.06 E41.48097
G1 X26.882 Y65.123 E41.51276
G1 X27.251 Y63.911 E41.55489
G1 X27.49 Y63.263 E41.57787
G1 X28.087 Y61.715 E41.63305
G1 X28.916 Y59.366 E41.7159
G1 X29.689 Y56.963 E41.79986
G1 X30.381 Y54.585 E41.88223
G1 X31.02 Y52.13 E41.96661
G1 X31.581 Y49.689 E42.04991
G1 X32.073 Y47.239 E42.13302
G1 X32.494 Y44.782 E42.21594
G1 X32.851 Y42.279 E42.30003
G1 X33.13 Y39.823 E42.38224
G1 X33.343 Y37.317 E42.46589
G1 X33.489 Y34.771 E42.55071
G1 F2400 E41.75071
G0 F6000 X33.531 Y39.83
G1 F2400 E42.55071
G1 F1200 X33.744 Y37.338 E42.6339
G1 X33.886 Y34.84 E42.71711
G1 X33.959 Y32.263 E42.80286
G1 X33.969 Y29.282 E42.90201
G1 X33.979 Y28.58 E42.92536
G1 X34.032 Y27.644 E42.95654
G1 X34.165 Y26.716 E42.98772
G1 X34.377 Y25.802 E43.01893
G1 X34.665 Y24.909 E43.05014
G1 X35.029 Y24.045 E43.08132
G1 X35.465 Y23.214 E43.11253
G1 X35.97 Y22.424 E43.14372
G1 X36.54 Y21.68 E43.17489
G1 X37.032 Y21.13 E43.19943
G1 X37.62 Y20.525 E43.2275
G1 X38.278 Y19.881 E43.25812
G1 X38.976 Y19.254 E43.28932
G1 X39.724 Y18.689 E43.3205
G1 X40.518 Y18.189 E43.35171
G1 X41.351 Y17.759 E43.38289
G1 X42.219 Y17.402 E43.41411
G1 X43.113 Y17.12 E43.44529
G1 X44.028 Y16.915 E43.47647
G1 X44.958 Y16.789 E43.50769
G1 X45.775 Y16.744 E43.5349
G1 X46.53 Y16.732 E43.56002
G1 X140.118 Y16.733 E46.67277
G1 X140.82 Y16.743 E46.69612
G1 X141.756 Y16.796 E46.7273
G1 X142.684 Y16.929 E46.75848
G1 X143.598 Y17.141 E46.78969
G1 X144.491 Y17.429 E46.82089
G1 X145.355 Y17.793 E46.85208
G1 X146.186 Y18.229 E46.88329
