;FLAVOR:Marlin
;TIME:2670
;Filament used: 1.53447m
;Layer height: 0.16
;MINX:88.012
;MINY:88.012
;MINZ:0.2
;MAXX:131.987
;MAXY:131.987
;MAXZ:19.4
;Generated with Cura_SteamEngine 5.0.0
M140 S50
M105
M190 S50
M104 S200
M105
M109 S200
M82 ;absolute extrusion mode

G28 ;Home
;G29 ;Bed levelling

G92 E0 ;Reset Extruder
G1 Z2.0 F3000 ;Move Z Axis up
G1 X10.1 Y20 Z0.28 F5000.0 ;Move to start position
G1 X10.1 Y200.0 Z0.28 F1500.0 E15 ;Draw the first line
G1 X10.4 Y200.0 Z0.28 F5000.0 ;Move to side a little
G1 X10.4 Y20 Z0.28 F1500.0 E30 ;Draw the second line
G92 E0 ;Reset Extruder
G1 Z2.0 F3000 ;Move Z Axis up
G92 E0
G92 E0
G1 F2400 E-0.8
;LAYER_COUNT:101
;LAYER:0
M107
G1 F300 Z0.6
G0 F6000 X94.278 Y94.629 Z0.6
G1 F300 Z0.2
G0 F6000 X88.012 Y109.776
;TYPE:SKIRT
G1 F2400 E0
G1 F1200 X88.035 Y109.02 E0.02516
G1 X88.078 Y108.326 E0.04828
G1 X88.146 Y107.597 E0.07263
G1 X88.223 Y106.979 E0.09335
G1 X88.321 Y106.335 E0.11501
G1 X88.415 Y105.816 E0.13256
G1 X88.576 Y105.064 E0.15814
G1 X88.759 Y104.33 E0.1833
G1 X88.927 Y103.726 E0.20415
G1 X89.061 Y103.289 E0.21935
G1 X89.302 Y102.585 E0.2441
G1 X89.535 Y101.967 E0.26607
G1 X89.818 Y101.282 E0.29072
G1 X90.092 Y100.674 E0.3129
G1 X90.38 Y100.079 E0.33488
G1 X90.629 Y99.6 E0.35284
G1 X91.031 Y98.879 E0.3803
G1 X91.312 Y98.412 E0.39842
G1 X91.599 Y97.96 E0.41623
G1 X92.108 Y97.223 E0.44602
G1 X92.616 Y96.543 E0.47425
G1 X93.178 Y95.847 E0.50401
G1 X93.719 Y95.227 E0.53138
G1 X94.278 Y94.629 E0.5586
G1 X94.636 Y94.272 E0.57542
G1 X95.051 Y93.878 E0.59445
G1 X95.45 Y93.517 E0.61235
G1 X96.022 Y93.032 E0.63729
G1 X96.623 Y92.554 E0.66283
G1 X97.217 Y92.111 E0.68748
G1 X97.627 Y91.825 E0.7041
G1 X98.11 Y91.505 E0.72337
G1 X98.792 Y91.084 E0.75003
G1 X99.109 Y90.898 E0.76226
G1 X99.883 Y90.477 E0.79156
G1 X100.338 Y90.25 E0.80847
G1 X100.888 Y89.991 E0.82869
G1 X101.521 Y89.716 E0.85165
G1 X102.154 Y89.462 E0.87433
G1 X102.797 Y89.225 E0.89713
G1 X103.149 Y89.107 E0.90947
G1 X103.788 Y88.913 E0.93168
G1 X104.662 Y88.674 E0.96182
G1 X105.521 Y88.473 E0.99116
G1 X106.143 Y88.352 E1.01224
G1 X107.106 Y88.206 E1.04463
G1 X108.006 Y88.107 E1.07475
G1 X108.824 Y88.045 E1.10203
G1 X109.424 Y88.021 E1.12201
G1 X110.26 Y88.012 E1.14981
G1 X110.918 Y88.03 E1.17171
G1 X111.473 Y88.061 E1.19019
G1 X112.282 Y88.131 E1.2172
G1 X112.724 Y88.184 E1.23201
G1 X113.404 Y88.279 E1.25485
G1 X114.08 Y88.394 E1.27765
G1 X114.521 Y88.482 E1.29261
G1 X115.235 Y88.648 E1.31699
G1 X116.031 Y88.859 E1.34438
G1 X116.723 Y89.065 E1.36839
G1 X117.124 Y89.198 E1.38245
G1 X117.741 Y89.422 E1.40428
G1 X118.339 Y89.658 E1.42566
G1 X118.985 Y89.936 E1.44905
G1 X119.591 Y90.218 E1.47128
G1 X120.136 Y90.488 E1.49151
G1 X120.731 Y90.809 E1.514
G1 X121.104 Y91.021 E1.52827
G1 X121.61 Y91.326 E1.54792
G1 X122.053 Y91.608 E1.56538
G1 X122.769 Y92.102 E1.59432
G1 X123.449 Y92.609 E1.62253
G1 X124.117 Y93.146 E1.65103
G1 X124.644 Y93.602 E1.67421
G1 X125.242 Y94.157 E1.70135
G1 X125.758 Y94.67 E1.72555
G1 X126.252 Y95.191 E1.74943
G1 X126.585 Y95.565 E1.76609
G1 X126.944 Y95.988 E1.78454
G1 X127.22 Y96.329 E1.79913
G1 X127.591 Y96.813 E1.81941
G1 X127.983 Y97.352 E1.84158
G1 X128.405 Y97.972 E1.86652
G1 X128.712 Y98.456 E1.88559
G1 X128.998 Y98.931 E1.90403
G1 X129.254 Y99.38 E1.92122
G1 X129.642 Y100.122 E1.94907
G1 X129.984 Y100.835 E1.97537
G1 X130.25 Y101.429 E1.99702
G1 X130.58 Y102.259 E2.02672
G1 X130.759 Y102.753 E2.0442
G1 X131.009 Y103.526 E2.07122
G1 X131.242 Y104.34 E2.09938
G1 X131.392 Y104.919 E2.11928
G1 X131.47 Y105.255 E2.13075
G1 X131.617 Y105.993 E2.15578
G1 X131.738 Y106.723 E2.18039
G1 X131.834 Y107.434 E2.20425
G1 X131.898 Y108.05 E2.22485
G1 X131.946 Y108.677 E2.24576
G1 X131.972 Y109.195 E2.26301
G1 X131.987 Y109.787 E2.28271
G1 X131.987 Y110.282 E2.29918
G1 X131.968 Y110.946 E2.32127
G1 X131.938 Y111.478 E2.33899
G1 X131.87 Y112.275 E2.3656
G1 X131.816 Y112.725 E2.38067
G1 X131.721 Y113.405 E2.40351
G1 X131.6 Y114.111 E2.42733
G1 X131.511 Y114.551 E2.44226
G1 X131.356 Y115.216 E2.46497
G1 X131.148 Y116.006 E2.49214
G1 X130.937 Y116.717 E2.51681
G1 X130.802 Y117.124 E2.53107
G1 X130.571 Y117.758 E2.55352
G1 X130.303 Y118.434 E2.5777
G1 X130.04 Y119.047 E2.59989
G1 X129.856 Y119.444 E2.61444
G1 X129.588 Y119.986 E2.63455
G1 X129.148 Y120.808 E2.66556
G1 X128.986 Y121.093 E2.67647
G1 X128.685 Y121.593 E2.69588
G1 X128.397 Y122.046 E2.71373
G1 X127.896 Y122.773 E2.7431
G1 X127.39 Y123.451 E2.77123
G1 X126.861 Y124.108 E2.79929
G1 X126.403 Y124.638 E2.82259
G1 X125.843 Y125.242 E2.84998
G1 X125.33 Y125.758 E2.87418
G1 X124.766 Y126.29 E2.89997
G1 X124.233 Y126.76 E2.92361
G1 X123.402 Y127.429 E2.95909
G1 X122.662 Y127.971 E2.9896
G1 X121.989 Y128.428 E3.01665
G1 X121.142 Y128.956 E3.04985
G1 X120.373 Y129.39 E3.07922
G1 X119.773 Y129.697 E3.10164
G1 X119.436 Y129.86 E3.11409
G1 X118.923 Y130.093 E3.13283
G1 X118.294 Y130.361 E3.15557
G1 X117.677 Y130.603 E3.17761
G1 X117.234 Y130.763 E3.19328
G1 X116.477 Y131.008 E3.21974
G1 X115.664 Y131.241 E3.24787
G1 X115.081 Y131.392 E3.2679
G1 X114.745 Y131.47 E3.27937
G1 X114.009 Y131.617 E3.30434
G1 X113.274 Y131.739 E3.32912
G1 X112.655 Y131.825 E3.3499
G1 X112.137 Y131.883 E3.36724
G1 X111.409 Y131.942 E3.39153
G1 X110.784 Y131.973 E3.41234
G1 X110.175 Y131.987 E3.43261
G1 X109.677 Y131.986 E3.44917
G1 X109.039 Y131.967 E3.4704
G1 X108.523 Y131.938 E3.48759
G1 X107.718 Y131.869 E3.51446
G1 X107.276 Y131.816 E3.52927
G1 X106.596 Y131.721 E3.5521
G1 X105.92 Y131.606 E3.57491
G1 X105.479 Y131.518 E3.58987
G1 X104.765 Y131.352 E3.61425
G1 X103.969 Y131.141 E3.64164
G1 X103.217 Y130.915 E3.66775
G1 X102.604 Y130.708 E3.68927
G1 X101.635 Y130.332 E3.72384
G1 X100.79 Y129.961 E3.75454
G1 X100.032 Y129.596 E3.78252
G1 X99.157 Y129.127 E3.81554
G1 X98.403 Y128.682 E3.84466
G1 X97.95 Y128.394 E3.86251
G1 X97.217 Y127.888 E3.89214
G1 X96.54 Y127.382 E3.92025
G1 X95.861 Y126.834 E3.94927
G1 X95.255 Y126.307 E3.97598
G1 X94.643 Y125.736 E4.00382
G1 X94.275 Y125.367 E4.02115
G1 X93.883 Y124.954 E4.04009
G1 X93.519 Y124.552 E4.05813
G1 X93.034 Y123.981 E4.08305
G1 X92.593 Y123.427 E4.1066
G1 X92.204 Y122.91 E4.12812
G1 X91.888 Y122.465 E4.14627
G1 X91.499 Y121.881 E4.16961
G1 X91.065 Y121.177 E4.19712
G1 X90.895 Y120.887 E4.2083
G1 X90.469 Y120.102 E4.238
G1 X90.25 Y119.662 E4.25435
G1 X89.991 Y119.112 E4.27457
G1 X89.716 Y118.479 E4.29752
G1 X89.462 Y117.846 E4.32021
G1 X89.225 Y117.203 E4.343
G1 X89.107 Y116.851 E4.35535
G1 X88.913 Y116.212 E4.37756
G1 X88.674 Y115.338 E4.4077
G1 X88.484 Y114.534 E4.43518
G1 X88.333 Y113.728 E4.46245
G1 X88.247 Y113.184 E4.48077
G1 X88.176 Y112.657 E4.49846
G1 X88.118 Y112.14 E4.51576
G1 X88.059 Y111.409 E4.54015
G1 X88.028 Y110.785 E4.56093
G1 X88.013 Y110.226 E4.57953
G1 X88.012 Y109.776 E4.5945
G0 F6000 X88.412 Y109.775
G1 F1200 X88.434 Y109.045 E4.61879
G1 X88.477 Y108.351 E4.64191
G1 X88.542 Y107.647 E4.66543
G1 X88.619 Y107.029 E4.68614
G1 X88.715 Y106.406 E4.70711
G1 X88.809 Y105.887 E4.72465
G1 X88.965 Y105.161 E4.74935
G1 X89.148 Y104.427 E4.77451
G1 X89.31 Y103.843 E4.79467
G1 X89.444 Y103.406 E4.80987
G1 X89.676 Y102.726 E4.83377
G1 X89.909 Y102.108 E4.85573
G1 X90.183 Y101.446 E4.87956
G1 X90.457 Y100.838 E4.90174
G1 X90.735 Y100.264 E4.92296
G1 X91.203 Y99.384 E4.95611
G1 X91.65 Y98.626 E4.98538
G1 X91.937 Y98.174 E5.00318
G1 X92.428 Y97.462 E5.03195
G1 X92.936 Y96.782 E5.06018
G1 X93.479 Y96.11 E5.08892
G1 X94.02 Y95.49 E5.11629
G1 X94.56 Y94.913 E5.14257
G1 X94.918 Y94.556 E5.15939
G1 X95.32 Y94.174 E5.17783
G1 X95.719 Y93.813 E5.19573
G1 X96.271 Y93.345 E5.2198
G1 X96.872 Y92.867 E5.24534
G1 X97.446 Y92.439 E5.26915
G1 X97.856 Y92.153 E5.28578
G1 X98.323 Y91.844 E5.3044
G1 X98.995 Y91.429 E5.33067
G1 X99.785 Y90.98 E5.36089
G1 X100.508 Y90.612 E5.38788
G1 X101.058 Y90.353 E5.4081
G1 X101.67 Y90.087 E5.43029
G1 X102.303 Y89.833 E5.45298
G1 X102.925 Y89.604 E5.47502
G1 X103.277 Y89.486 E5.48737
G1 X103.893 Y89.299 E5.50878
G1 X104.767 Y89.06 E5.53892
G1 X105.597 Y88.866 E5.56727
G1 X106.219 Y88.745 E5.58834
G1 X107.15 Y88.603 E5.61967
G1 X108.05 Y88.504 E5.64978
G1 X108.84 Y88.445 E5.67613
G1 X109.44 Y88.421 E5.6961
G1 X110.26 Y88.412 E5.72338
G1 X110.896 Y88.43 E5.74454
G1 X111.451 Y88.461 E5.76303
G1 X112.242 Y88.529 E5.78943
G1 X113.348 Y88.676 E5.82654
G1 X114.002 Y88.786 E5.8486
G1 X114.443 Y88.874 E5.86356
G1 X115.133 Y89.035 E5.88712
G1 X115.929 Y89.246 E5.91451
G1 X116.597 Y89.445 E5.9377
G1 X116.998 Y89.578 E5.95175
G1 X117.594 Y89.794 E5.97283
G1 X118.192 Y90.03 E5.99422
G1 X118.817 Y90.298 E6.01683
G1 X119.423 Y90.58 E6.03906
G1 X119.949 Y90.842 E6.05861
G1 X120.533 Y91.157 E6.08068
G1 X120.906 Y91.369 E6.09495
G1 X121.395 Y91.663 E6.11393
G1 X121.838 Y91.945 E6.13139
G1 X122.53 Y92.423 E6.15937
G1 X123.21 Y92.93 E6.18758
G1 X123.855 Y93.448 E6.21509
G1 X124.382 Y93.904 E6.23827
G1 X124.96 Y94.441 E6.26451
G1 X125.476 Y94.954 E6.28871
G1 X125.953 Y95.457 E6.31177
G1 X126.286 Y95.831 E6.32842
G1 X126.633 Y96.24 E6.34626
G1 X126.909 Y96.581 E6.36085
G1 X127.268 Y97.048 E6.38045
G1 X127.66 Y97.587 E6.40261
G1 X128.067 Y98.186 E6.4267
G1 X128.374 Y98.67 E6.44576
G1 X128.65 Y99.13 E6.4636
G1 X128.906 Y99.579 E6.4808
G1 X129.282 Y100.295 E6.50769
G1 X129.624 Y101.008 E6.53399
G1 X129.88 Y101.582 E6.5549
G1 X130.204 Y102.395 E6.58401
G1 X130.383 Y102.889 E6.60148
G1 X130.625 Y103.636 E6.6276
G1 X130.858 Y104.45 E6.65576
G1 X131.003 Y105.009 E6.67497
G1 X131.081 Y105.345 E6.68644
G1 X131.223 Y106.059 E6.71065
G1 X131.344 Y106.789 E6.73527
G1 X131.436 Y107.475 E6.75829
G1 X131.5 Y108.091 E6.77888
G1 X131.547 Y108.698 E6.79913
G1 X131.573 Y109.216 E6.81638
G1 X131.587 Y109.787 E6.83538
G1 X131.587 Y110.282 E6.85185
G1 X131.569 Y110.924 E6.87321
G1 X131.539 Y111.456 E6.89093
G1 X131.472 Y112.234 E6.9169
G1 X131.324 Y113.349 E6.95431
G1 X131.208 Y114.032 E6.97735
G1 X131.119 Y114.472 E6.99228
G1 X130.969 Y115.115 E7.01425
G1 X130.761 Y115.905 E7.04142
G1 X130.557 Y116.591 E7.06522
G1 X130.422 Y116.998 E7.07948
G1 X130.2 Y117.61 E7.10114
G1 X129.932 Y118.286 E7.12532
G1 X129.677 Y118.879 E7.14679
G1 X129.493 Y119.276 E7.16134
G1 X129.234 Y119.799 E7.18076
G1 X128.8 Y120.61 E7.21135
G1 X128.638 Y120.895 E7.22225
G1 X128.347 Y121.378 E7.24101
G1 X128.059 Y121.831 E7.25886
G1 X127.575 Y122.533 E7.28722
G1 X127.069 Y123.211 E7.31536
G1 X126.559 Y123.847 E7.34247
G1 X126.101 Y124.377 E7.36577
G1 X125.559 Y124.96 E7.39225
G1 X125.046 Y125.476 E7.41645
G1 X124.502 Y125.989 E7.44132
G1 X123.969 Y126.459 E7.46495
G1 X123.165 Y127.106 E7.49928
G1 X122.425 Y127.648 E7.52979
G1 X121.776 Y128.09 E7.5559
G1 X120.939 Y128.611 E7.58869
G1 X120.188 Y129.035 E7.61738
G1 X119.599 Y129.337 E7.63939
G1 X119.262 Y129.5 E7.65185
G1 X118.767 Y129.725 E7.66993
G1 X118.138 Y129.993 E7.69267
G1 X117.542 Y130.227 E7.71397
G1 X117.099 Y130.387 E7.72963
G1 X116.367 Y130.624 E7.75522
G1 X115.554 Y130.857 E7.78335
G1 X114.991 Y131.003 E7.8027
G1 X114.655 Y131.081 E7.81417
G1 X113.944 Y131.222 E7.83828
G1 X113.209 Y131.344 E7.86306
G1 X112.611 Y131.427 E7.88314
G1 X112.093 Y131.485 E7.90048
G1 X111.389 Y131.542 E7.92397
G1 X110.764 Y131.573 E7.94478
G1 X110.176 Y131.587 E7.96434
G1 X109.678 Y131.586 E7.98091
G1 X109.061 Y131.568 E8.00144
G1 X108.545 Y131.539 E8.01863
G1 X107.758 Y131.471 E8.0449
G1 X106.652 Y131.324 E8.08201
G1 X105.998 Y131.214 E8.10407
G1 X105.557 Y131.126 E8.11902
G1 X104.867 Y130.965 E8.14259
G1 X104.071 Y130.754 E8.16998
G1 X103.345 Y130.536 E8.19519
G1 X102.732 Y130.329 E8.21671
G1 X101.796 Y129.966 E8.2501
G1 X100.951 Y129.595 E8.28079
G1 X100.218 Y129.242 E8.30785
G1 X99.355 Y128.78 E8.34041
G1 X98.618 Y128.344 E8.36889
G1 X98.165 Y128.056 E8.38675
G1 X97.456 Y127.567 E8.41539
G1 X96.779 Y127.061 E8.4435
G1 X96.123 Y126.532 E8.47153
G1 X95.517 Y126.005 E8.49824
G1 X94.926 Y125.453 E8.52514
G1 X94.558 Y125.084 E8.54248
G1 X94.179 Y124.686 E8.56075
G1 X93.815 Y124.284 E8.57879
G1 X93.347 Y123.732 E8.60286
G1 X92.906 Y123.178 E8.62641
G1 X92.53 Y122.678 E8.64722
G1 X92.214 Y122.233 E8.66537
G1 X91.838 Y121.669 E8.68792
G1 X91.41 Y120.975 E8.71504
G1 X90.972 Y120.202 E8.74459
G1 X90.612 Y119.492 E8.77107
G1 X90.353 Y118.942 E8.79129
G1 X90.087 Y118.33 E8.81348
G1 X89.833 Y117.697 E8.83617
G1 X89.604 Y117.075 E8.85821
G1 X89.486 Y116.723 E8.87056
G1 X89.299 Y116.107 E8.89197
G1 X89.06 Y115.233 E8.92211
G1 X88.876 Y114.455 E8.9487
G1 X88.728 Y113.665 E8.97543
G1 X88.642 Y113.121 E8.99375
G1 X88.573 Y112.612 E9.01083
G1 X88.515 Y112.095 E9.02814
G1 X88.458 Y111.39 E9.05166
G1 X88.427 Y110.766 E9.07244
G1 X88.413 Y110.225 E9.09044
G1 X88.412 Y109.775 E9.10541
G0 F6000 X88.812 Y109.774
G1 F1200 X88.833 Y109.07 E9.12883
G1 X88.876 Y108.376 E9.15196
G1 X88.939 Y107.696 E9.17467
G1 X89.016 Y107.078 E9.19539
G1 X89.108 Y106.478 E9.21558
G1 X89.202 Y105.959 E9.23312
G1 X89.353 Y105.258 E9.25697
G1 X89.536 Y104.524 E9.28213
G1 X89.692 Y103.96 E9.30159
G1 X89.826 Y103.523 E9.3168
G1 X90.05 Y102.867 E9.33985
G1 X90.283 Y102.249 E9.36182
G1 X90.547 Y101.611 E9.38478
G1 X90.821 Y101.003 E9.40696
G1 X91.09 Y100.448 E9.42748
G1 X91.55 Y99.582 E9.46009
G1 X91.988 Y98.841 E9.48872
G1 X92.275 Y98.389 E9.50653
G1 X92.749 Y97.702 E9.53429
G1 X93.257 Y97.022 E9.56252
G1 X93.781 Y96.373 E9.59026
G1 X94.322 Y95.753 E9.61763
G1 X94.843 Y95.196 E9.643
G1 X95.201 Y94.839 E9.65981
G1 X95.588 Y94.471 E9.67758
G1 X95.987 Y94.11 E9.69547
G1 X96.52 Y93.658 E9.71872
G1 X97.121 Y93.18 E9.74426
G1 X97.675 Y92.767 E9.76724
G1 X98.085 Y92.481 E9.78387
G1 X98.535 Y92.183 E9.80182
G1 X99.197 Y91.774 E9.8277
G1 X99.971 Y91.334 E9.85731
G1 X100.679 Y90.974 E9.88373
G1 X101.229 Y90.715 E9.90395
G1 X101.819 Y90.458 E9.92535
G1 X102.452 Y90.204 E9.94804
G1 X103.052 Y89.983 E9.96931
G1 X103.404 Y89.865 E9.98165
G1 X103.999 Y89.685 E10.00233
G1 X104.873 Y89.446 E10.03247
G1 X105.674 Y89.258 E10.05983
G1 X106.296 Y89.137 E10.08091
G1 X107.193 Y89.001 E10.11108
G1 X108.093 Y88.902 E10.1412
G1 X108.856 Y88.845 E10.16665
G1 X109.896 Y88.812 E10.20125
G1 X110.26 Y88.812 E10.21336
G1 X110.873 Y88.829 E10.23376
G1 X111.428 Y88.86 E10.25224
G1 X112.201 Y88.927 E10.27805
G1 X113.293 Y89.072 E10.31469
G1 X113.924 Y89.179 E10.33598
G1 X114.365 Y89.267 E10.35093
G1 X115.03 Y89.421 E10.37364
G1 X115.826 Y89.632 E10.40103
G1 X116.471 Y89.824 E10.42341
G1 X116.872 Y89.957 E10.43746
G1 X117.447 Y90.166 E10.45781
G1 X118.045 Y90.402 E10.47919
G1 X118.648 Y90.661 E10.50102
G1 X119.254 Y90.943 E10.52325
G1 X119.761 Y91.195 E10.54208
G1 X120.335 Y91.505 E10.56378
G1 X120.708 Y91.717 E10.57805
G1 X121.18 Y92.001 E10.59637
G1 X121.623 Y92.283 E10.61384
G1 X122.291 Y92.743 E10.64081
G1 X122.971 Y93.25 E10.66902
G1 X123.594 Y93.751 E10.69561
G1 X124.121 Y94.207 E10.71879
G1 X124.678 Y94.724 E10.74407
G1 X125.194 Y95.237 E10.76827
G1 X125.654 Y95.723 E10.79053
G1 X125.987 Y96.097 E10.80718
G1 X126.322 Y96.492 E10.82441
G1 X126.598 Y96.833 E10.839
G1 X126.944 Y97.283 E10.85788
G1 X127.336 Y97.822 E10.88005
G1 X127.729 Y98.4 E10.90329
G1 X128.036 Y98.884 E10.92236
G1 X128.303 Y99.328 E10.93959
G1 X128.559 Y99.777 E10.95678
G1 X128.921 Y100.468 E10.98273
G1 X129.263 Y101.181 E11.00903
G1 X129.51 Y101.735 E11.0292
G1 X129.828 Y102.532 E11.05774
G1 X130.007 Y103.026 E11.07522
G1 X130.24 Y103.746 E11.10039
G1 X130.473 Y104.56 E11.12855
G1 X130.613 Y105.1 E11.1471
G1 X130.691 Y105.436 E11.15858
G1 X130.828 Y106.124 E11.18191
G1 X130.949 Y106.854 E11.20652
G1 X131.038 Y107.516 E11.22874
G1 X131.102 Y108.132 E11.24933
G1 X131.147 Y108.718 E11.26888
G1 X131.173 Y109.236 E11.28613
G1 X131.187 Y109.787 E11.30446
G1 X131.187 Y110.282 E11.32093
G1 X131.17 Y110.901 E11.34152
G1 X131.14 Y111.433 E11.35925
G1 X131.074 Y112.194 E11.38465
G1 X130.928 Y113.294 E11.42156
G1 X130.816 Y113.953 E11.44379
G1 X130.727 Y114.393 E11.45872
G1 X130.582 Y115.013 E11.4799
G1 X130.374 Y115.803 E11.50707
G1 X130.178 Y116.465 E11.53004
G1 X130.043 Y116.872 E11.5443
G1 X129.828 Y117.463 E11.56521
G1 X129.56 Y118.139 E11.5894
G1 X129.314 Y118.711 E11.61011
G1 X129.13 Y119.108 E11.62466
G1 X128.88 Y119.613 E11.64341
G1 X128.452 Y120.413 E11.67358
G1 X128.01 Y121.164 E11.70257
G1 X127.722 Y121.617 E11.72042
