;FLAVOR:Marlin
;TIME:2348
;Filament used: 1.32438m
;Layer height: 0.16
;MINX:88.011
;MINY:88.014
;MINZ:0.2
;MAXX:131.987
;MAXY:131.986
;MAXZ:16.4
;Generated with Cura_SteamEngine 5.0.0
M140 S50
M105
M190 S50
M104 S200
M105
M109 S200
M82 ;absolute extrusion mode

G28 ;Home
;G29 ;Bed levelling

G92 E0 ;Reset Extruder
G1 Z2.0 F3000 ;Move Z Axis up
G1 X10.1 Y20 Z0.28 F5000.0 ;Move to start position
G1 X10.1 Y200.0 Z0.28 F1500.0 E15 ;Draw the first line
G1 X10.4 Y200.0 Z0.28 F5000.0 ;Move to side a little
G1 X10.4 Y20 Z0.28 F1500.0 E30 ;Draw the second line
G92 E0 ;Reset Extruder
G1 Z2.0 F3000 ;Move Z Axis up
G92 E0
G92 E0
G1 F2400 E-0.8
;LAYER_COUNT:86
;LAYER:0
M107
G1 F300 Z0.6
G0 F6000 X94.66 Y94.248 Z0.6
G1 F300 Z0.2
G0 F6000 X88.011 Y109.833
;TYPE:SKIRT
G1 F2400 E0
G1 F1200 X88.033 Y109.055 E0.02589
G1 X88.074 Y108.379 E0.04841
G1 X88.131 Y107.732 E0.07001
G1 X88.198 Y107.155 E0.08933
G1 X88.309 Y106.407 E0.11449
G1 X88.424 Y105.774 E0.13588
G1 X88.582 Y105.038 E0.16092
G1 X88.74 Y104.402 E0.18272
G1 X88.986 Y103.527 E0.21295
G1 X89.242 Y102.754 E0.24003
G1 X89.509 Y102.033 E0.2656
G1 X89.768 Y101.394 E0.28854
G1 X89.96 Y100.956 E0.30444
G1 X90.209 Y100.424 E0.32398
G1 X90.467 Y99.907 E0.3432
G1 X90.715 Y99.436 E0.3609
G1 X90.916 Y99.075 E0.37464
G1 X91.22 Y98.561 E0.39451
G1 X91.505 Y98.105 E0.41239
G1 X91.989 Y97.389 E0.44114
G1 X92.467 Y96.736 E0.46805
G1 X92.9 Y96.181 E0.49146
G1 X93.256 Y95.751 E0.51003
G1 X93.765 Y95.175 E0.5356
G1 X94.255 Y94.656 E0.55934
G1 X94.66 Y94.248 E0.57846
G1 X94.966 Y93.954 E0.59257
G1 X95.44 Y93.523 E0.61388
G1 X95.844 Y93.175 E0.63162
G1 X96.229 Y92.857 E0.64822
G1 X96.596 Y92.567 E0.66378
G1 X97.332 Y92.03 E0.69408
G1 X98.051 Y91.547 E0.72289
G1 X98.626 Y91.184 E0.74551
G1 X99.01 Y90.957 E0.76035
G1 X99.633 Y90.614 E0.784
G1 X100.312 Y90.266 E0.80938
G1 X100.917 Y89.977 E0.83168
G1 X101.31 Y89.803 E0.84597
G1 X101.896 Y89.562 E0.86705
G1 X102.483 Y89.339 E0.88793
G1 X103.129 Y89.115 E0.91067
G1 X103.675 Y88.943 E0.92971
G1 X104.349 Y88.753 E0.953
G1 X104.931 Y88.607 E0.97296
G1 X105.483 Y88.482 E0.99179
G1 X105.937 Y88.391 E1.00719
G1 X106.518 Y88.29 E1.0268
G1 X107.062 Y88.209 E1.04509
G1 X107.813 Y88.121 E1.07024
G1 X108.468 Y88.066 E1.0921
G1 X109.24 Y88.027 E1.11781
G1 X109.952 Y88.014 E1.1415
G1 X110.606 Y88.02 E1.16325
G1 X111.063 Y88.037 E1.17846
G1 X111.746 Y88.082 E1.20123
G1 X112.343 Y88.139 E1.22117
G1 X113.048 Y88.228 E1.24481
G1 X113.75 Y88.338 E1.26844
G1 X114.407 Y88.46 E1.29067
G1 X114.904 Y88.567 E1.30758
G1 X115.768 Y88.781 E1.33718
G1 X116.319 Y88.938 E1.35624
G1 X116.807 Y89.09 E1.37324
G1 X117.632 Y89.381 E1.40233
G1 X118.412 Y89.689 E1.43023
G1 X119.085 Y89.979 E1.4546
G1 X119.578 Y90.21 E1.47271
G1 X120.19 Y90.519 E1.49551
G1 X120.768 Y90.832 E1.51737
G1 X121.293 Y91.134 E1.53752
G1 X121.657 Y91.356 E1.5517
G1 X122.192 Y91.702 E1.57289
G1 X122.693 Y92.046 E1.5931
G1 X123.424 Y92.581 E1.62323
G1 X124.108 Y93.137 E1.65255
G1 X124.731 Y93.682 E1.68008
G1 X125.214 Y94.129 E1.70197
G1 X125.585 Y94.492 E1.71923
G1 X126.134 Y95.066 E1.74565
G1 X126.627 Y95.618 E1.77027
G1 X127.022 Y96.084 E1.79058
G1 X127.297 Y96.426 E1.80518
G1 X127.719 Y96.984 E1.82845
G1 X128.085 Y97.499 E1.84946
G1 X128.45 Y98.044 E1.87128
G1 X128.767 Y98.547 E1.89106
G1 X129.114 Y99.134 E1.91374
G1 X129.384 Y99.623 E1.93231
G1 X129.669 Y100.173 E1.95292
G1 X129.905 Y100.659 E1.97089
G1 X130.12 Y101.127 E1.98802
G1 X130.473 Y101.969 E2.01838
G1 X130.705 Y102.605 E2.0409
G1 X130.956 Y103.353 E2.06714
G1 X131.149 Y103.988 E2.08922
G1 X131.363 Y104.798 E2.11708
G1 X131.463 Y105.223 E2.1316
G1 X131.574 Y105.748 E2.14945
G1 X131.663 Y106.222 E2.16549
G1 X131.793 Y107.069 E2.19399
G1 X131.917 Y108.281 E2.23451
G1 X131.961 Y108.911 E2.25552
G1 X131.987 Y109.787 E2.28467
G1 X131.987 Y110.252 E2.30013
G1 X131.975 Y110.782 E2.31777
G1 X131.954 Y111.249 E2.33331
G1 X131.89 Y112.052 E2.36011
G1 X131.798 Y112.861 E2.38719
G1 X131.671 Y113.706 E2.41561
G1 X131.535 Y114.43 E2.44011
G1 X131.374 Y115.16 E2.46497
G1 X131.159 Y115.977 E2.49307
G1 X131.017 Y116.462 E2.50988
G1 X130.75 Y117.265 E2.53803
G1 X130.471 Y118.014 E2.56461
G1 X130.23 Y118.61 E2.58599
G1 X130.05 Y119.023 E2.60098
G1 X129.791 Y119.577 E2.62132
G1 X129.542 Y120.076 E2.63987
G1 X129.299 Y120.538 E2.65723
G1 X129.089 Y120.916 E2.67161
G1 X128.777 Y121.445 E2.69204
G1 X128.491 Y121.902 E2.70997
G1 X128.047 Y122.565 E2.73651
G1 X127.757 Y122.964 E2.75291
G1 X127.335 Y123.521 E2.77615
G1 X126.894 Y124.068 E2.79952
G1 X126.478 Y124.554 E2.8208
G1 X125.947 Y125.135 E2.84698
G1 X125.487 Y125.605 E2.86885
G1 X124.901 Y126.17 E2.89593
G1 X124.17 Y126.814 E2.92833
G1 X123.771 Y127.143 E2.94553
G1 X123.404 Y127.433 E2.96109
G1 X122.671 Y127.968 E2.99127
G1 X121.951 Y128.452 E3.02013
G1 X121.261 Y128.882 E3.04717
G1 X120.692 Y129.21 E3.06901
G1 X119.993 Y129.582 E3.09535
G1 X119.326 Y129.909 E3.12006
G1 X118.641 Y130.219 E3.14506
G1 X118.196 Y130.403 E3.16108
G1 X117.615 Y130.625 E3.18177
G1 X117.023 Y130.834 E3.20265
G1 X116.359 Y131.047 E3.22584
G1 X115.817 Y131.203 E3.2446
G1 X114.946 Y131.424 E3.27449
G1 X114.063 Y131.609 E3.30449
G1 X113.482 Y131.71 E3.32411
G1 X112.938 Y131.791 E3.3424
G1 X112.187 Y131.879 E3.36755
G1 X111.532 Y131.934 E3.38941
G1 X110.76 Y131.973 E3.41512
G1 X110.048 Y131.986 E3.43881
G1 X109.394 Y131.98 E3.46056
G1 X108.937 Y131.963 E3.47577
G1 X108.254 Y131.918 E3.49854
G1 X107.657 Y131.861 E3.51848
G1 X107.015 Y131.781 E3.54
G1 X106.38 Y131.685 E3.56136
G1 X105.666 Y131.555 E3.5855
G1 X105.07 Y131.427 E3.60577
G1 X104.231 Y131.22 E3.63452
G1 X103.687 Y131.064 E3.65334
G1 X103.187 Y130.908 E3.67076
G1 X102.368 Y130.619 E3.69965
G1 X101.588 Y130.311 E3.72754
G1 X100.892 Y130.01 E3.75276
G1 X100.37 Y129.764 E3.77195
G1 X99.799 Y129.476 E3.79322
G1 X99.328 Y129.222 E3.81102
G1 X98.835 Y128.941 E3.82989
G1 X98.379 Y128.666 E3.84761
G1 X97.785 Y128.283 E3.87111
G1 X97.298 Y127.948 E3.89077
G1 X96.571 Y127.414 E3.92077
G1 X95.95 Y126.917 E3.94723
G1 X95.598 Y126.611 E3.96274
G1 X94.989 Y126.062 E3.99001
G1 X94.477 Y125.572 E4.01358
G1 X94.178 Y125.268 E4.02777
G1 X93.749 Y124.808 E4.04869
G1 X93.331 Y124.335 E4.06968
G1 X92.98 Y123.919 E4.08779
G1 X92.704 Y123.576 E4.10243
G1 X92.292 Y123.033 E4.1251
G1 X91.74 Y122.248 E4.15702
G1 X91.334 Y121.616 E4.182
G1 X90.949 Y120.974 E4.2069
G1 X90.582 Y120.315 E4.23199
G1 X90.322 Y119.811 E4.25085
G1 X90.022 Y119.185 E4.27394
G1 X89.759 Y118.592 E4.29551
G1 X89.45 Y117.829 E4.32289
G1 X89.28 Y117.353 E4.3397
G1 X89.045 Y116.65 E4.36436
G1 X88.854 Y116.02 E4.38625
G1 X88.633 Y115.189 E4.41485
G1 X88.545 Y114.819 E4.4275
G1 X88.423 Y114.244 E4.44705
G1 X88.332 Y113.754 E4.46363
G1 X88.206 Y112.904 E4.49221
G1 X88.111 Y112.05 E4.52079
G1 X88.05 Y111.247 E4.54757
G1 X88.013 Y110.199 E4.58245
G1 X88.011 Y109.833 E4.59463
G0 F6000 X88.411 Y109.831
G1 F1200 X88.432 Y109.079 E4.61965
G1 X88.473 Y108.403 E4.64217
G1 X88.528 Y107.778 E4.66304
G1 X88.595 Y107.201 E4.68236
G1 X88.703 Y106.478 E4.70667
G1 X88.818 Y105.845 E4.72807
G1 X88.97 Y105.134 E4.75226
G1 X89.128 Y104.498 E4.77405
G1 X89.37 Y103.64 E4.8037
G1 X89.617 Y102.893 E4.82987
G1 X89.884 Y102.172 E4.85544
G1 X90.134 Y101.554 E4.87762
G1 X90.326 Y101.116 E4.89352
G1 X90.567 Y100.603 E4.91237
G1 X90.825 Y100.086 E4.93159
G1 X91.065 Y99.63 E4.94873
G1 X91.266 Y99.269 E4.96247
G1 X91.559 Y98.773 E4.98163
G1 X91.844 Y98.317 E4.99952
G1 X92.312 Y97.625 E5.0273
G1 X92.79 Y96.972 E5.05422
G1 X93.208 Y96.436 E5.07683
G1 X93.564 Y96.006 E5.09539
G1 X94.056 Y95.45 E5.12009
G1 X94.546 Y94.931 E5.14383
G1 X94.937 Y94.536 E5.16231
G1 X95.243 Y94.242 E5.17643
G1 X95.701 Y93.826 E5.19701
G1 X96.477 Y93.17 E5.2308
G1 X96.844 Y92.88 E5.24636
G1 X97.555 Y92.362 E5.27562
G1 X98.274 Y91.879 E5.30443
G1 X98.83 Y91.528 E5.3263
G1 X99.214 Y91.301 E5.34113
G1 X99.815 Y90.97 E5.36395
G1 X100.494 Y90.622 E5.38933
G1 X101.079 Y90.343 E5.41089
G1 X101.472 Y90.169 E5.42518
G1 X102.038 Y89.936 E5.44554
G1 X102.625 Y89.713 E5.46643
G1 X103.249 Y89.497 E5.48839
G1 X103.795 Y89.325 E5.50743
G1 X104.446 Y89.141 E5.52993
G1 X105.028 Y88.995 E5.54989
G1 X105.562 Y88.874 E5.5681
G1 X106.016 Y88.783 E5.5835
G1 X106.577 Y88.685 E5.60244
G1 X107.121 Y88.604 E5.62073
G1 X107.846 Y88.52 E5.64501
G1 X108.501 Y88.465 E5.66687
G1 X109.247 Y88.427 E5.69171
G1 X109.959 Y88.414 E5.7154
G1 X110.591 Y88.42 E5.73642
G1 X111.048 Y88.437 E5.75163
G1 X111.708 Y88.481 E5.77363
G1 X112.305 Y88.538 E5.79358
G1 X112.986 Y88.623 E5.8164
G1 X113.688 Y88.733 E5.84004
G1 X114.322 Y88.851 E5.86149
G1 X114.819 Y88.958 E5.87839
G1 X115.668 Y89.168 E5.90748
G1 X116.2 Y89.32 E5.92589
G1 X116.688 Y89.472 E5.94289
G1 X117.485 Y89.753 E5.97099
G1 X118.265 Y90.061 E5.99889
G1 X118.915 Y90.341 E6.02243
G1 X119.408 Y90.572 E6.04053
G1 X120 Y90.87 E6.06258
G1 X120.578 Y91.183 E6.08444
G1 X121.085 Y91.475 E6.1039
G1 X121.449 Y91.697 E6.11808
G1 X121.966 Y92.032 E6.13857
G1 X122.467 Y92.376 E6.15878
G1 X123.183 Y92.901 E6.18831
G1 X123.845 Y93.438 E6.21666
G1 X124.468 Y93.983 E6.24419
G1 X124.935 Y94.415 E6.26535
G1 X125.306 Y94.778 E6.28262
G1 X125.836 Y95.332 E6.30812
G1 X126.329 Y95.884 E6.33273
G1 X126.71 Y96.334 E6.35234
G1 X126.985 Y96.676 E6.36694
G1 X127.393 Y97.216 E6.38945
G1 X127.759 Y97.731 E6.41047
G1 X128.111 Y98.257 E6.43152
G1 X128.428 Y98.76 E6.45129
G1 X128.764 Y99.328 E6.47324
G1 X129.034 Y99.817 E6.49182
G1 X129.309 Y100.347 E6.51168
G1 X129.545 Y100.833 E6.52965
G1 X129.916 Y101.665 E6.55995
G1 X130.163 Y102.279 E6.58196
G1 X130.326 Y102.732 E6.59797
G1 X130.577 Y103.48 E6.62421
G1 X130.763 Y104.093 E6.64552
G1 X130.974 Y104.89 E6.67294
G1 X131.074 Y105.315 E6.68746
G1 X131.181 Y105.822 E6.7047
G1 X131.27 Y106.296 E6.72074
G1 X131.397 Y107.122 E6.74853
G1 X131.519 Y108.319 E6.78855
G1 X131.561 Y108.928 E6.80886
G1 X131.587 Y109.787 E6.83744
G1 X131.587 Y110.252 E6.85291
G1 X131.575 Y110.764 E6.86994
G1 X131.554 Y111.231 E6.88549
G1 X131.493 Y112.007 E6.91138
G1 X131.401 Y112.816 E6.93846
G1 X131.278 Y113.633 E6.96594
G1 X131.142 Y114.357 E6.99044
G1 X130.986 Y115.061 E7.01442
G1 X130.775 Y115.864 E7.04204
G1 X130.633 Y116.349 E7.05885
G1 X130.375 Y117.125 E7.08605
G1 X130.096 Y117.874 E7.11263
G1 X129.864 Y118.45 E7.13328
G1 X129.684 Y118.863 E7.14827
G1 X129.434 Y119.398 E7.16791
G1 X129.185 Y119.897 E7.18646
G1 X128.739 Y120.721 E7.21762
G1 X128.438 Y121.233 E7.23737
G1 X128.152 Y121.69 E7.2553
G1 X127.718 Y122.337 E7.28122
G1 X127.439 Y122.722 E7.29703
G1 X127.017 Y123.279 E7.32027
G1 X126.591 Y123.808 E7.34286
G1 X126.175 Y124.294 E7.36414
G1 X125.661 Y124.855 E7.38945
G1 X125.201 Y125.325 E7.41132
G1 X124.627 Y125.878 E7.43783
G1 X123.908 Y126.511 E7.46969
G1 X123.523 Y126.83 E7.48632
G1 X123.156 Y127.12 E7.50188
G1 X122.448 Y127.636 E7.53102
G1 X121.728 Y128.12 E7.55987
G1 X121.061 Y128.536 E7.58602
G1 X120.492 Y128.864 E7.60786
G1 X119.817 Y129.223 E7.63329
G1 X119.15 Y129.55 E7.658
G1 X118.488 Y129.849 E7.68216
G1 X118.043 Y130.033 E7.69817
G1 X117.482 Y130.248 E7.71816
G1 X116.89 Y130.457 E7.73904
G1 X116.248 Y130.662 E7.76145
G1 X115.706 Y130.818 E7.78021
G1 X115.208 Y130.95 E7.79735
G1 X114.438 Y131.126 E7.82362
G1 X113.984 Y131.217 E7.83902
G1 X113.423 Y131.315 E7.85796
G1 X112.879 Y131.396 E7.87625
G1 X112.154 Y131.48 E7.90053
G1 X111.499 Y131.535 E7.92239
G1 X110.753 Y131.573 E7.94723
G1 X110.041 Y131.586 E7.97092
G1 X109.409 Y131.58 E7.99194
G1 X108.952 Y131.563 E8.00715
G1 X108.292 Y131.519 E8.02915
G1 X107.695 Y131.462 E8.0491
G1 X107.075 Y131.386 E8.06987
G1 X106.44 Y131.29 E8.09123
G1 X105.75 Y131.164 E8.11456
G1 X105.154 Y131.036 E8.13484
G1 X104.332 Y130.833 E8.163
G1 X103.807 Y130.683 E8.18116
G1 X103.307 Y130.527 E8.19858
G1 X102.515 Y130.247 E8.22652
G1 X101.735 Y129.939 E8.25441
G1 X101.062 Y129.648 E8.2788
G1 X100.54 Y129.402 E8.29799
G1 X99.989 Y129.124 E8.31852
G1 X99.518 Y128.87 E8.33632
G1 X99.042 Y128.598 E8.35455
G1 X98.586 Y128.323 E8.37226
G1 X98.012 Y127.953 E8.39498
G1 X97.525 Y127.618 E8.41464
G1 X96.811 Y127.094 E8.44409
G1 X96.206 Y126.609 E8.46988
G1 X95.866 Y126.314 E8.48486
G1 X95.257 Y125.765 E8.51213
G1 X94.762 Y125.292 E8.5349
G1 X94.463 Y124.988 E8.54908
G1 X94.049 Y124.543 E8.5693
G1 X93.631 Y124.07 E8.59029
G1 X93.291 Y123.668 E8.6078
G1 X93.015 Y123.325 E8.62244
G1 X92.618 Y122.8 E8.64434
G1 X92.073 Y122.027 E8.67579
G1 X91.677 Y121.41 E8.70018
G1 X91.292 Y120.768 E8.72508
G1 X90.938 Y120.131 E8.74932
G1 X90.678 Y119.627 E8.76818
G1 X90.388 Y119.023 E8.79046
G1 X90.125 Y118.43 E8.81204
G1 X89.824 Y117.686 E8.83873
G1 X89.659 Y117.226 E8.85499
G1 X89.424 Y116.523 E8.87964
G1 X89.239 Y115.915 E8.90078
G1 X89.022 Y115.097 E8.92893
G1 X88.934 Y114.727 E8.94158
G1 X88.817 Y114.171 E8.96047
G1 X88.726 Y113.681 E8.97705
G1 X88.604 Y112.859 E9.00469
G1 X88.509 Y112.005 E9.03327
G1 X88.449 Y111.23 E9.05912
G1 X88.413 Y110.197 E9.0935
G1 X88.411 Y109.831 E9.10567
G0 F6000 X88.811 Y109.829
G1 F1200 X88.831 Y109.103 E9.12983
G1 X88.872 Y108.427 E9.15235
G1 X88.925 Y107.824 E9.17249
G1 X88.992 Y107.247 E9.19181
G1 X89.096 Y106.55 E9.21525
G1 X89.211 Y105.917 E9.23665
G1 X89.358 Y105.231 E9.25998
G1 X89.516 Y104.595 E9.28178
G1 X89.754 Y103.753 E9.31088
G1 X89.993 Y103.032 E9.33614
G1 X90.26 Y102.311 E9.36171
G1 X90.5 Y101.715 E9.38308
G1 X90.692 Y101.277 E9.39899
G1 X90.924 Y100.781 E9.4172
G1 X91.182 Y100.264 E9.43642
G1 X91.615 Y99.464 E9.46668
G1 X91.898 Y98.985 E9.48518
G1 X92.183 Y98.529 E9.50307
G1 X92.635 Y97.862 E9.52986
G1 X93.113 Y97.209 E9.55678
G1 X93.516 Y96.691 E9.57861
G1 X93.872 Y96.261 E9.59718
G1 X94.347 Y95.724 E9.62102
G1 X94.837 Y95.205 E9.64476
G1 X95.214 Y94.825 E9.66256
G1 X95.52 Y94.531 E9.67668
G1 X95.962 Y94.129 E9.69655
G1 X96.725 Y93.484 E9.72978
G1 X97.092 Y93.194 E9.74534
G1 X97.778 Y92.694 E9.77357
G1 X98.497 Y92.211 E9.80238
G1 X99.033 Y91.873 E9.82346
G1 X99.417 Y91.646 E9.83829
G1 X99.998 Y91.326 E9.86035
G1 X100.677 Y90.978 E9.88573
G1 X101.241 Y90.709 E9.90651
G1 X101.634 Y90.535 E9.92081
G1 X102.181 Y90.31 E9.94048
G1 X102.768 Y90.087 E9.96137
G1 X103.369 Y89.878 E9.98253
G1 X103.915 Y89.706 E10.00157
G1 X104.543 Y89.529 E10.02327
G1 X105.125 Y89.383 E10.04323
G1 X105.64 Y89.267 E10.06079
G1 X106.094 Y89.176 E10.07619
G1 X106.636 Y89.081 E10.09449
G1 X107.18 Y89 E10.11278
G1 X107.88 Y88.919 E10.13622
G1 X108.535 Y88.864 E10.15808
G1 X109.254 Y88.827 E10.18203
G1 X109.966 Y88.814 E10.20571
G1 X110.576 Y88.82 E10.226
G1 X111.033 Y88.837 E10.24121
G1 X111.669 Y88.879 E10.26241
G1 X112.266 Y88.936 E10.28236
G1 X112.924 Y89.019 E10.30442
G1 X113.626 Y89.129 E10.32805
G1 X114.238 Y89.242 E10.34875
G1 X115.178 Y89.454 E10.3808
G1 X115.568 Y89.555 E10.3942
G1 X116.081 Y89.702 E10.41195
G1 X116.569 Y89.854 E10.42895
G1 X117.338 Y90.125 E10.45607
G1 X118.118 Y90.433 E10.48396
G1 X118.745 Y90.703 E10.50667
G1 X119.238 Y90.934 E10.52477
G1 X119.809 Y91.222 E10.54604
G1 X120.387 Y91.535 E10.56791
G1 X120.877 Y91.817 E10.58671
G1 X121.241 Y92.039 E10.60089
G1 X121.739 Y92.362 E10.62063
G1 X122.24 Y92.706 E10.64085
G1 X122.943 Y93.221 E10.66983
G1 X123.582 Y93.739 E10.69719
G1 X124.205 Y94.284 E10.72472
G1 X124.655 Y94.701 E10.74513
G1 X125.026 Y95.064 E10.76239
G1 X125.537 Y95.599 E10.787
G1 X126.03 Y96.151 E10.81161
G1 X126.398 Y96.585 E10.83054
G1 X126.673 Y96.927 E10.84513
G1 X127.067 Y97.448 E10.86686
G1 X127.433 Y97.963 E10.88787
G1 X127.773 Y98.47 E10.90818
G1 X128.09 Y98.973 E10.92795
G1 X128.414 Y99.521 E10.94913
G1 X128.684 Y100.01 E10.9677
G1 X128.949 Y100.522 E10.98688
G1 X129.185 Y101.008 E11.00485
G1 X129.549 Y101.824 E11.03457
G1 X129.79 Y102.423 E11.05604
G1 X129.947 Y102.86 E11.07149
G1 X130.198 Y103.608 E11.09773
G1 X130.378 Y104.199 E11.11828
G1 X130.585 Y104.982 E11.14521
G1 X130.685 Y105.407 E11.15974
G1 X130.788 Y105.896 E11.17636
G1 X130.877 Y106.37 E11.1924
G1 X131 Y107.175 E11.21948
G1 X131.047 Y107.584 E11.23318
G1 X131.121 Y108.357 E11.259
G1 X131.161 Y108.945 E11.27861
G1 X131.187 Y109.787 E11.30662
G1 X131.187 Y110.252 E11.32209
G1 X131.176 Y110.746 E11.33852
G1 X131.155 Y111.213 E11.35407
G1 X131.096 Y111.962 E11.37906
G1 X131.004 Y112.771 E11.40614
G1 X130.885 Y113.559 E11.43265
