;FLAVOR:Marlin
;TIME:14497
;Filament used: 10.6039m
;Layer height: 0.2
;MINX:21.485
;MINY:16.432
;MINZ:0.2
;MAXX:198.515
;MAXY:203.568
;MAXZ:2
;Generated with Cura_SteamEngine 5.0.0
M140 S50
M105
M190 S50
M104 S200
M105
M109 S200
M82 ;absolute extrusion mode

G28 ;Home
;G29 ;Bed levelling

G92 E0 ;Reset Extruder
G1 Z2.0 F3000 ;Move Z Axis up
G1 X10.1 Y20 Z0.28 F5000.0 ;Move to start position
G1 X10.1 Y200.0 Z0.28 F1500.0 E15 ;Draw the first line
G1 X10.4 Y200.0 Z0.28 F5000.0 ;Move to side a little
G1 X10.4 Y20 Z0.28 F1500.0 E30 ;Draw the second line
G92 E0 ;Reset Extruder
G1 Z2.0 F3000 ;Move Z Axis up
G92 E0
G92 E0
G1 F2400 E-0.8
;LAYER_COUNT:10
;LAYER:0
M107
G1 F300 Z0.6
G0 F6000 X35.132 Y22.733 Z0.6
G1 F300 Z0.2
G0 F6000 X33.178 Y29.15
;TYPE:SKIRT
G1 F2400 E0
G1 F1200 X33.225 Y28.18 E0.0323
G1 X33.352 Y27.217 E0.06461
G1 X33.558 Y26.268 E0.09691
G1 X33.841 Y25.338 E0.12924
G1 X34.199 Y24.436 E0.16152
G1 X34.63 Y23.565 E0.19384
G1 X35.132 Y22.733 E0.22616
G1 X35.7 Y21.946 E0.25844
G1 X36.454 Y21.077 E0.2967
G1 X37.06 Y20.453 E0.32564
G1 X37.718 Y19.809 E0.35626
G1 X38.44 Y19.159 E0.38857
G1 X39.213 Y18.57 E0.42089
G1 X40.031 Y18.047 E0.45319
G1 X40.89 Y17.593 E0.4855
G1 X41.783 Y17.211 E0.51781
G1 X42.704 Y16.903 E0.55011
G1 X43.648 Y16.673 E0.58242
G1 X44.608 Y16.521 E0.61475
G1 X45.761 Y16.444 E0.65318
G1 X46.53 Y16.432 E0.67876
G1 X140.129 Y16.433 E3.79188
G1 X140.831 Y16.443 E3.81523
G1 X141.801 Y16.497 E3.84754
G1 X142.763 Y16.63 E3.87984
G1 X143.711 Y16.842 E3.91215
G1 X144.638 Y17.132 E3.94446
G1 X145.539 Y17.496 E3.97678
G1 X146.406 Y17.934 E4.00909
G1 X147.234 Y18.441 E4.04138
G1 X148.018 Y19.015 E4.0737
G1 X148.802 Y19.698 E4.10828
G1 X149.403 Y20.28 E4.1361
G1 X150.069 Y20.959 E4.16774
G1 X150.72 Y21.68 E4.20005
G1 X151.31 Y22.452 E4.23236
G1 X151.834 Y23.27 E4.26468
G1 X152.289 Y24.128 E4.29698
G1 X152.672 Y25.021 E4.32929
G1 X152.98 Y25.942 E4.36159
G1 X153.211 Y26.886 E4.39392
G1 X153.374 Y27.927 E4.42896
G1 X153.392 Y28.09 E4.43442
G1 X153.463 Y29.383 E4.47749
G1 X153.468 Y53.303 E5.27307
G1 X153.505 Y55.916 E5.35999
G1 X153.61 Y58.389 E5.44231
G1 X153.786 Y60.877 E5.52527
G1 X154.03 Y63.331 E5.6073
G1 X154.347 Y65.808 E5.69035
G1 X154.867 Y69.047 E5.79946
G1 X155.023 Y69.918 E5.82889
G1 X155.155 Y70.88 E5.86119
G1 X155.206 Y71.777 E5.89107
G1 X155.218 Y72.529 E5.91609
G1 X155.218 Y87.059 E6.39936
G1 X155.255 Y89.668 E6.48614
G1 X155.36 Y92.143 E6.56853
G1 X155.534 Y94.599 E6.65042
G1 X155.783 Y97.113 E6.73445
G1 X156.101 Y99.598 E6.81778
G1 X156.488 Y102.058 E6.9006
G1 X156.942 Y104.499 E6.98318
G1 X157.47 Y106.953 E7.06667
G1 X158.053 Y109.335 E7.14823
G1 X158.722 Y111.765 E7.23206
G1 X159.453 Y114.155 E7.31519
G1 X160.25 Y116.515 E7.39804
G1 X161.12 Y118.875 E7.4817
G1 X162.037 Y121.158 E7.56353
G1 X163.051 Y123.488 E7.64804
G1 X164.094 Y125.713 E7.72977
G1 X165.224 Y127.957 E7.81334
G1 X166.402 Y130.137 E7.89575
G1 X167.647 Y132.297 E7.97868
G1 X168.97 Y134.447 E8.06264
G1 X170.316 Y136.504 E8.1444
G1 X171.757 Y138.572 E8.22823
G1 X173.223 Y140.556 E8.31028
G1 X174.766 Y142.526 E8.39351
G1 X176.364 Y144.45 E8.4767
G1 X178.019 Y146.331 E8.56003
G1 X179.722 Y148.163 E8.64322
G1 X181.46 Y149.927 E8.72559
G1 X183.267 Y151.661 E8.80888
G1 X185.1 Y153.321 E8.89113
G1 X187.029 Y154.974 E8.97563
G1 X188.928 Y156.508 E9.05682
G1 X190.925 Y158.03 E9.14033
G1 X192.142 Y158.908 E9.19024
G1 X192.732 Y159.345 E9.21466
G1 X193.488 Y159.955 E9.24697
G1 X193.848 Y160.283 E9.26317
G1 X194.497 Y160.912 E9.29323
G1 X195.155 Y161.587 E9.32458
G1 X195.803 Y162.31 E9.35688
G1 X196.391 Y163.084 E9.38921
G1 X196.912 Y163.903 E9.42149
G1 X197.365 Y164.763 E9.45382
G1 X197.745 Y165.657 E9.48613
G1 X198.05 Y166.579 E9.51843
G1 X198.279 Y167.523 E9.55074
G1 X198.429 Y168.483 E9.58305
G1 X198.503 Y169.612 E9.62069
G1 X198.515 Y170.381 E9.64627
G1 X198.514 Y190.229 E10.30641
G1 X198.504 Y190.931 E10.32976
G1 X198.45 Y191.901 E10.36208
G1 X198.317 Y192.863 E10.39438
G1 X198.105 Y193.811 E10.42669
G1 X197.815 Y194.738 E10.45899
G1 X197.451 Y195.639 E10.49131
G1 X197.013 Y196.506 E10.52362
G1 X196.506 Y197.334 E10.55591
G1 X195.932 Y198.118 E10.58823
G1 X195.237 Y198.914 E10.62338
G1 X194.64 Y199.53 E10.65191
G1 X193.967 Y200.189 E10.68324
G1 X193.245 Y200.84 E10.71557
G1 X192.473 Y201.429 E10.74787
G1 X191.654 Y201.952 E10.78019
G1 X190.796 Y202.406 E10.81247
G1 X189.903 Y202.788 E10.84478
G1 X188.981 Y203.096 E10.87711
G1 X188.038 Y203.326 E10.90939
G1 X187.078 Y203.479 E10.94172
G1 X185.922 Y203.556 E10.98026
G1 X185.153 Y203.568 E11.00584
G1 X167.395 Y203.567 E11.59647
G1 X166.736 Y203.558 E11.61839
G1 X165.766 Y203.505 E11.6507
G1 X164.804 Y203.372 E11.683
G1 X164.009 Y203.2 E11.71006
G1 X162.741 Y202.878 E11.75357
G1 X154.453 Y200.606 E12.0394
G1 X153.718 Y200.395 E12.06483
G1 X152.796 Y200.089 E12.09714
G1 X151.903 Y199.708 E12.12944
G1 X151.218 Y199.354 E12.15508
G1 X150.41 Y198.901 E12.18589
G1 X132.523 Y188.575 E12.87283
G1 X130.309 Y187.338 E12.95718
G1 X128.073 Y186.17 E13.04109
G1 X125.835 Y185.081 E13.12387
G1 X123.55 Y184.049 E13.20726
G1 X121.279 Y183.098 E13.28915
G1 X118.909 Y182.184 E13.37364
G1 X116.576 Y181.361 E13.45592
G1 X114.216 Y180.601 E13.53838
G1 X111.813 Y179.902 E13.62162
G1 X109.385 Y179.269 E13.70507
G1 X107.001 Y178.719 E13.78645
G1 X104.475 Y178.212 E13.87214
G1 X102.062 Y177.798 E13.95357
G1 X99.598 Y177.446 E14.03635
G1 X97.119 Y177.164 E14.11934
G1 X94.639 Y176.952 E14.20212
G1 X92.128 Y176.809 E14.28577
G1 X89.628 Y176.737 E14.36896
G1 X88.289 Y176.728 E14.4135
G1 X39.981 Y176.728 E16.02023
G1 X39.111 Y176.717 E16.04917
G1 X38.141 Y176.663 E16.08148
G1 X37.179 Y176.53 E16.11378
G1 X36.231 Y176.318 E16.14609
G1 X35.304 Y176.028 E16.17839
G1 X34.403 Y175.664 E16.21071
G1 X33.536 Y175.226 E16.24302
G1 X32.708 Y174.719 E16.27531
G1 X31.924 Y174.145 E16.30763
G1 X31.121 Y173.444 E16.34308
G1 X30.493 Y172.834 E16.3722
G1 X29.845 Y172.171 E16.40304
G1 X29.195 Y171.449 E16.43535
G1 X28.607 Y170.676 E16.46765
G1 X28.085 Y169.857 E16.49995
G1 X27.631 Y168.998 E16.53227
G1 X27.25 Y168.105 E16.56456
G1 X26.943 Y167.183 E16.59688
G1 X26.713 Y166.239 E16.6292
G1 X26.562 Y165.279 E16.66152
G1 X26.486 Y164.135 E16.69965
G1 X26.474 Y163.366 E16.72523
G1 X26.474 Y146.323 E17.29209
G1 X26.437 Y143.712 E17.37894
G1 X26.332 Y141.239 E17.46126
G1 X26.158 Y138.782 E17.54319
G1 X25.906 Y136.238 E17.62822
G1 X25.595 Y133.814 E17.7095
G1 X25.204 Y131.324 E17.79333
G1 X24.753 Y128.896 E17.87547
G1 X24.483 Y127.655 E17.91771
G1 X24.198 Y126.286 E17.96422
G1 X24.039 Y125.328 E17.99652
G1 X23.964 Y124.451 E18.0258
G1 X23.819 Y121.45 E18.12573
G1 X23.624 Y118.962 E18.20873
G1 X23.358 Y116.479 E18.29179
G1 X23.022 Y113.996 E18.37513
G1 X22.623 Y111.574 E18.45677
G1 X22.142 Y109.088 E18.54099
G1 X21.94 Y108.18 E18.57192
G1 X21.743 Y107.235 E18.60403
G1 X21.584 Y106.277 E18.63633
G1 X21.497 Y105.039 E18.67761
G1 X21.485 Y104.271 E18.70315
G1 X21.487 Y86.891 E19.28122
G1 X21.499 Y86.18 E19.30487
G1 X21.555 Y85.21 E19.33718
G1 X21.691 Y84.248 E19.3695
G1 X21.906 Y83.301 E19.4018
G1 X22.116 Y82.608 E19.42588
G1 X22.492 Y81.494 E19.46499
G1 X23.272 Y79.071 E19.54965
G1 X23.978 Y76.639 E19.63388
G1 X24.608 Y74.22 E19.71702
G1 X25.166 Y71.797 E19.79972
G1 X25.653 Y69.368 E19.88211
G1 X26.091 Y66.821 E19.96807
G1 X26.299 Y65.497 E20.01265
G1 X26.49 Y64.545 E20.04494
G1 X26.875 Y63.274 E20.08911
G1 X27.117 Y62.619 E20.11234
G1 X27.713 Y61.074 E20.16741
G1 X28.534 Y58.748 E20.24945
G1 X29.307 Y56.344 E20.33344
G1 X29.995 Y53.977 E20.41543
G1 X30.631 Y51.537 E20.49929
G1 X31.191 Y49.099 E20.58249
G1 X31.682 Y46.658 E20.66531
G1 X32.098 Y44.23 E20.74724
G1 X32.451 Y41.752 E20.83049
G1 X32.736 Y39.24 E20.91458
G1 X32.944 Y36.794 E20.99622
G1 X33.088 Y34.273 E21.08021
G1 X33.159 Y31.781 E21.16313
G1 X33.178 Y29.15 E21.25064
G1 F2400 E20.45064
G0 F6000 X33.489 Y34.271
G1 F2400 E21.25064
G1 F1200 X33.559 Y31.795 E21.33302
G1 X33.578 Y29.153 E21.4209
G1 X33.625 Y28.2 E21.45263
G1 X33.752 Y27.253 E21.48441
G1 X33.957 Y26.321 E21.51615
G1 X34.24 Y25.409 E21.54791
G1 X34.598 Y24.524 E21.57967
G1 X35.029 Y23.672 E21.61142
G1 X35.529 Y22.859 E21.64317
G1 X36.096 Y22.09 E21.67495
G1 X36.743 Y21.354 E21.70754
G1 X37.34 Y20.739 E21.73605
G1 X37.998 Y20.095 E21.76667
G1 X38.708 Y19.456 E21.79844
G1 X39.469 Y18.879 E21.8302
G1 X40.275 Y18.368 E21.86194
G1 X41.121 Y17.926 E21.89369
G1 X42.001 Y17.556 E21.92544
G1 X42.909 Y17.261 E21.9572
G1 X43.839 Y17.043 E21.98897
G1 X44.784 Y16.904 E22.02074
G1 X45.768 Y16.844 E22.05352
G1 X46.53 Y16.832 E22.07887
G1 X140.123 Y16.833 E25.19179
G1 X140.825 Y16.843 E25.21514
G1 X141.779 Y16.897 E25.24692
G1 X142.724 Y17.03 E25.27866
G1 X143.655 Y17.242 E25.31042
G1 X144.565 Y17.531 E25.34217
G1 X145.448 Y17.895 E25.37394
G1 X146.297 Y18.331 E25.40568
G1 X147.106 Y18.838 E25.43744
G1 X147.871 Y19.41 E25.46921
G1 X148.526 Y19.987 E25.49824
G1 X149.118 Y20.56 E25.52564
G1 X149.784 Y21.239 E25.55728
G1 X150.423 Y21.948 E25.58902
G1 X151.001 Y22.708 E25.62078
G1 X151.513 Y23.514 E25.65254
G1 X151.956 Y24.36 E25.6843
G1 X152.327 Y25.24 E25.71607
G1 X152.623 Y26.148 E25.74783
G1 X152.841 Y27.077 E25.77957
G1 X152.976 Y27.971 E25.80964
G1 X152.994 Y28.134 E25.8151
G1 X153.063 Y29.383 E25.8567
G1 X153.068 Y53.309 E26.65248
G1 X153.105 Y55.903 E26.73877
G1 X153.212 Y58.436 E26.82309
G1 X153.387 Y60.906 E26.90545
G1 X153.633 Y63.385 E26.98831
G1 X153.951 Y65.866 E27.0715
G1 X154.474 Y69.124 E27.18125
G1 X154.629 Y69.989 E27.21048
G1 X154.758 Y70.935 E27.24223
G1 X154.806 Y71.785 E27.27055
G1 X154.818 Y72.529 E27.2953
G1 X154.818 Y87.065 E27.77877
G1 X154.855 Y89.655 E27.86492
G1 X154.962 Y92.19 E27.94931
G1 X155.138 Y94.663 E28.03177
G1 X155.383 Y97.136 E28.11442
G1 X155.704 Y99.645 E28.19855
G1 X156.092 Y102.117 E28.28178
G1 X156.551 Y104.585 E28.36527
G1 X157.076 Y107.027 E28.44835
G1 X157.674 Y109.464 E28.53181
G1 X158.339 Y111.883 E28.61525
G1 X159.068 Y114.262 E28.69801
G1 X159.871 Y116.645 E28.78165
G1 X160.745 Y119.014 E28.86563
G1 X161.675 Y121.331 E28.94867
G1 X162.674 Y123.625 E29.03189
G1 X163.739 Y125.898 E29.11538
G1 X164.873 Y128.148 E29.19918
G1 X166.046 Y130.321 E29.28131
G1 X167.309 Y132.511 E29.3654
G1 X168.622 Y134.645 E29.44873
G1 X169.986 Y136.729 E29.53157
G1 X171.423 Y138.791 E29.61517
G1 X172.92 Y140.817 E29.69895
G1 X174.473 Y142.8 E29.78273
G1 X176.056 Y144.707 E29.86516
G1 X177.724 Y146.603 E29.94915
G1 X179.427 Y148.434 E30.03232
G1 X181.163 Y150.196 E30.11459
G1 X183.004 Y151.962 E30.19944
G1 X184.837 Y153.623 E30.28171
G1 X186.763 Y155.273 E30.36606
G1 X188.68 Y156.821 E30.44801
G1 X190.712 Y158.371 E30.53302
G1 X191.904 Y159.229 E30.58187
G1 X192.494 Y159.666 E30.60629
G1 X193.572 Y160.573 E30.65314
G1 X194.21 Y161.191 E30.68269
G1 X194.868 Y161.866 E30.71404
G1 X195.505 Y162.577 E30.74579
G1 X196.081 Y163.339 E30.77756
G1 X196.591 Y164.147 E30.80934
G1 X197.031 Y164.994 E30.84108
G1 X197.399 Y165.875 E30.87284
G1 X197.692 Y166.783 E30.90457
G1 X197.908 Y167.713 E30.93633
G1 X198.045 Y168.658 E30.96809
G1 X198.103 Y169.619 E31.00011
G1 X198.115 Y170.381 E31.02546
G1 X198.114 Y190.223 E31.6854
G1 X198.104 Y190.925 E31.70876
G1 X198.05 Y191.879 E31.74054
G1 X197.917 Y192.824 E31.77228
G1 X197.705 Y193.755 E31.80404
G1 X197.416 Y194.665 E31.83579
G1 X197.052 Y195.548 E31.86756
G1 X196.616 Y196.397 E31.8993
G1 X196.109 Y197.206 E31.93106
G1 X195.537 Y197.971 E31.96283
G1 X194.948 Y198.638 E31.99242
G1 X194.36 Y199.244 E32.02051
G1 X193.687 Y199.903 E32.05184
G1 X192.977 Y200.542 E32.08361
G1 X192.217 Y201.119 E32.11534
G1 X191.411 Y201.631 E32.1471
G1 X190.564 Y202.073 E32.17888
G1 X189.684 Y202.443 E32.21063
G1 X188.776 Y202.738 E32.24238
G1 X187.847 Y202.956 E32.27412
G1 X186.902 Y203.096 E32.3059
G1 X185.915 Y203.156 E32.33878
G1 X185.153 Y203.168 E32.36413
G1 X167.4 Y203.167 E32.9546
G1 X166.741 Y203.158 E32.97652
G1 X165.788 Y203.105 E33.00826
G1 X164.842 Y202.972 E33.04004
G1 X164.107 Y202.812 E33.06506
G1 X162.847 Y202.492 E33.10829
G1 X154.563 Y200.221 E33.39399
G1 X153.828 Y200.01 E33.41942
G1 X152.923 Y199.709 E33.45114
G1 X152.045 Y199.332 E33.48292
G1 X151.414 Y199.005 E33.50656
G1 X150.61 Y198.555 E33.53721
G1 X132.712 Y188.222 E34.22458
G1 X130.469 Y186.969 E34.31003
G1 X128.269 Y185.82 E34.39259
G1 X126.038 Y184.735 E34.4751
G1 X123.69 Y183.674 E34.5608
G1 X121.429 Y182.727 E34.64233
G1 X119.05 Y181.81 E34.72713
G1 X116.695 Y180.978 E34.8102
G1 X114.335 Y180.219 E34.89265
G1 X111.92 Y179.516 E34.97631
G1 X109.504 Y178.887 E35.05935
G1 X107.032 Y178.316 E35.14373
G1 X104.585 Y177.825 E35.22674
G1 X102.115 Y177.402 E35.31009
G1 X99.668 Y177.052 E35.3923
G1 X97.162 Y176.767 E35.47619
G1 X94.66 Y176.553 E35.55971
G1 X92.128 Y176.409 E35.64406
G1 X89.641 Y176.337 E35.72682
G1 X88.292 Y176.328 E35.77168
G1 X39.981 Y176.328 E37.37851
G1 X39.117 Y176.317 E37.40725
G1 X38.163 Y176.263 E37.43903
G1 X37.218 Y176.13 E37.47078
G1 X36.287 Y175.918 E37.50253
G1 X35.377 Y175.629 E37.53429
G1 X34.494 Y175.265 E37.56606
G1 X33.645 Y174.829 E37.5978
G1 X32.836 Y174.322 E37.62955
G1 X32.071 Y173.75 E37.66132
G1 X31.398 Y173.155 E37.6912
G1 X30.779 Y172.554 E37.7199
G1 X30.131 Y171.891 E37.75073
G1 X29.493 Y171.181 E37.78248
G1 X28.917 Y170.42 E37.81422
G1 X28.406 Y169.613 E37.84599
G1 X27.964 Y168.767 E37.87774
G1 X27.595 Y167.886 E37.90951
G1 X27.301 Y166.978 E37.94125
G1 X27.084 Y166.048 E37.97302
G1 X26.945 Y165.104 E38.00475
G1 X26.886 Y164.128 E38.03727
G1 X26.874 Y163.366 E38.06262
G1 X26.874 Y146.317 E38.62967
G1 X26.837 Y143.725 E38.71589
G1 X26.73 Y141.192 E38.80021
G1 X26.554 Y138.718 E38.88271
G1 X26.31 Y136.249 E38.96523
G1 X25.988 Y133.732 E39.04963
G1 X25.6 Y131.265 E39.13269
G1 X25.142 Y128.804 E39.21595
G1 X24.874 Y127.573 E39.25785
G1 X24.589 Y126.204 E39.30436
G1 X24.434 Y125.262 E39.33611
G1 X24.363 Y124.431 E39.36385
G1 X24.217 Y121.401 E39.46474
G1 X24.022 Y118.921 E39.54748
G1 X23.758 Y116.454 E39.63001
G1 X23.419 Y113.949 E39.71408
G1 X23.011 Y111.47 E39.79764
G1 X22.538 Y109.031 E39.88028
G1 X22.332 Y108.098 E39.91205
G1 X22.135 Y107.153 E39.94416
G1 X21.979 Y106.211 E39.97592
G1 X21.897 Y105.032 E40.01523
G1 X21.885 Y104.271 E40.04054
G1 X21.887 Y86.898 E40.61837
G1 X21.899 Y86.187 E40.64202
G1 X21.955 Y85.233 E40.67381
G1 X22.09 Y84.288 E40.70556
G1 X22.305 Y83.358 E40.7373
G1 X22.495 Y82.736 E40.75894
G1 X22.872 Y81.617 E40.79821
G1 X23.664 Y79.158 E40.88413
G1 X24.355 Y76.78 E40.9665
G1 X24.997 Y74.313 E41.05128
G1 X25.556 Y71.886 E41.13412
G1 X26.053 Y69.409 E41.21815
G1 X26.476 Y66.943 E41.30136
G1 X26.694 Y65.56 E41.34793
G1 X26.882 Y64.623 E41.37972
G1 X27.251 Y63.411 E41.42185
G1 X27.49 Y62.763 E41.44483
G1 X28.087 Y61.215 E41.50001
G1 X28.916 Y58.866 E41.58286
G1 X29.689 Y56.463 E41.66682
G1 X30.381 Y54.085 E41.74919
G1 X31.02 Y51.63 E41.83356
G1 X31.581 Y49.189 E41.91687
G1 X32.073 Y46.739 E41.99998
G1 X32.494 Y44.282 E42.08289
G1 X32.851 Y41.779 E42.16699
G1 X33.13 Y39.323 E42.2492
G1 X33.343 Y36.817 E42.33285
G1 X33.489 Y34.271 E42.41767
G1 F2400 E41.61767
G0 F6000 X33.531 Y39.33
G1 F2400 E42.41767
G1 F1200 X33.744 Y36.838 E42.50086
G1 X33.886 Y34.34 E42.58407
G1 X33.959 Y31.762 E42.66985
G1 X33.978 Y29.156 E42.75653
G1 X34.025 Y28.22 E42.7877
G1 X34.152 Y27.29 E42.81892
G1 X34.357 Y26.375 E42.85011
G1 X34.639 Y25.481 E42.88129
G1 X34.997 Y24.614 E42.91249
G1 X35.427 Y23.78 E42.94369
G1 X35.926 Y22.987 E42.97486
G1 X36.492 Y22.238 E43.00608
G1 X37.032 Y21.63 E43.03313
G1 X37.62 Y21.025 E43.06119
G1 X38.278 Y20.381 E43.09181
G1 X38.976 Y19.754 E43.12302
G1 X39.724 Y19.189 E43.1542
G1 X40.518 Y18.689 E43.1854
G1 X41.351 Y18.259 E43.21658
G1 X42.219 Y17.902 E43.2478
G1 X43.113 Y17.62 E43.27898
G1 X44.028 Y17.415 E43.31017
G1 X44.958 Y17.289 E43.34138
G1 X45.775 Y17.244 E43.3686
G1 X46.53 Y17.232 E43.39371
G1 X140.118 Y17.233 E46.50646
G1 X140.82 Y17.243 E46.52981
G1 X141.756 Y17.296 E46.56099
G1 X142.684 Y17.429 E46.59217
G1 X143.598 Y17.641 E46.62338
G1 X144.491 Y17.929 E46.65459
G1 X145.355 Y18.293 E46.68577
G1 X146.186 Y18.729 E46.71698
G1 X146.976 Y19.234 E46.74817
G1 X147.72 Y19.804 E46.77934
G1 X148.25 Y20.277 E46.80297
