;FLAVOR:Marlin
;TIME:2165
;Filament used: 1.26633m
;Layer height: 0.2
;MINX:87.391
;MINY:67.404
;MINZ:0.2
;MAXX:132.609
;MAXY:152.595
;MAXZ:10.8
;Generated with Cura_SteamEngine 5.0.0
M140 S50
M105
M190 S50
M104 S200
M105
M109 S200
M82 ;absolute extrusion mode

G28 ;Home
;G29 ;Bed levelling

G92 E0 ;Reset Extruder
G1 Z2.0 F3000 ;Move Z Axis up
G1 X10.1 Y20 Z0.28 F5000.0 ;Move to start position
G1 X10.1 Y200.0 Z0.28 F1500.0 E15 ;Draw the first line
G1 X10.4 Y200.0 Z0.28 F5000.0 ;Move to side a little
G1 X10.4 Y20 Z0.28 F1500.0 E30 ;Draw the second line
G92 E0 ;Reset Extruder
G1 Z2.0 F3000 ;Move Z Axis up
G92 E0
G92 E0
G1 F2400 E-0.8
;LAYER_COUNT:54
;LAYER:0
M107
G1 F300 Z0.6
G0 F6000 X89.996 Y72.269 Z0.6
G1 F300 Z0.6
G0 F6000 X87.393 Y80.154
;TYPE:SKIRT
G1 F300 Z0.2
G1 F2400 E0
G1 F1200 X87.405 Y79.449 E0.02345
G1 X87.461 Y78.479 E0.05577
G1 X87.597 Y77.518 E0.08805
G1 X87.812 Y76.57 E0.12038
G1 X88.104 Y75.644 E0.15267
G1 X88.471 Y74.744 E0.185
G1 X88.911 Y73.878 E0.21731
G1 X89.42 Y73.051 E0.24961
G1 X89.996 Y72.269 E0.28191
G1 X90.682 Y71.487 E0.31651
G1 X91.158 Y71.003 E0.33909
G1 X91.435 Y70.735 E0.35191
G1 X92.16 Y70.088 E0.38423
G1 X92.936 Y69.504 E0.41653
G1 X93.758 Y68.986 E0.44885
G1 X94.619 Y68.536 E0.48116
G1 X95.515 Y68.16 E0.51348
G1 X96.438 Y67.858 E0.54578
G1 X97.383 Y67.633 E0.57809
G1 X98.343 Y67.486 E0.61039
G1 X99.385 Y67.418 E0.64512
G1 X100.101 Y67.405 E0.66894
G1 X119.654 Y67.404 E1.31927
G1 X120.598 Y67.42 E1.35067
G1 X121.568 Y67.479 E1.383
G1 X122.529 Y67.618 E1.41529
G1 X123.476 Y67.835 E1.44761
G1 X124.402 Y68.13 E1.47993
G1 X125.3 Y68.499 E1.51222
G1 X126.165 Y68.941 E1.54453
G1 X126.991 Y69.453 E1.57685
G1 X127.771 Y70.031 E1.60914
G1 X128.427 Y70.601 E1.63805
G1 X128.94 Y71.097 E1.66178
G1 X129.249 Y71.414 E1.6765
G1 X129.898 Y72.137 E1.70882
G1 X130.485 Y72.911 E1.74113
G1 X131.006 Y73.731 E1.77344
G1 X131.459 Y74.59 E1.80574
G1 X131.839 Y75.484 E1.83805
G1 X132.144 Y76.406 E1.87035
G1 X132.373 Y77.351 E1.90269
G1 X132.523 Y78.31 E1.93497
G1 X132.597 Y79.423 E1.97207
G1 X132.609 Y80.168 E1.99686
G1 X132.607 Y139.813 E3.98066
G1 X132.597 Y140.514 E4.00397
G1 X132.543 Y141.484 E4.03629
G1 X132.41 Y142.446 E4.06859
G1 X132.197 Y143.394 E4.1009
G1 X131.908 Y144.322 E4.13323
G1 X131.543 Y145.222 E4.16553
G1 X131.106 Y146.089 E4.19783
G1 X130.599 Y146.918 E4.23015
G1 X130.025 Y147.702 E4.26246
G1 X129.481 Y148.337 E4.29027
G1 X128.864 Y148.976 E4.31982
G1 X128.552 Y149.277 E4.33424
G1 X127.826 Y149.922 E4.36654
G1 X127.049 Y150.505 E4.39885
G1 X126.227 Y151.023 E4.43116
G1 X125.365 Y151.471 E4.46347
G1 X124.469 Y151.846 E4.49578
G1 X123.545 Y152.147 E4.5281
G1 X122.6 Y152.37 E4.5604
G1 X121.639 Y152.515 E4.59272
G1 X120.571 Y152.583 E4.62831
G1 X119.802 Y152.595 E4.65389
G1 X100.175 Y152.594 E5.30669
G1 X99.473 Y152.584 E5.33004
G1 X98.503 Y152.53 E5.36235
G1 X97.541 Y152.397 E5.39465
G1 X96.593 Y152.185 E5.42696
G1 X95.666 Y151.895 E5.45927
G1 X94.765 Y151.531 E5.49159
G1 X93.898 Y151.093 E5.5239
G1 X93.07 Y150.586 E5.55619
G1 X92.286 Y150.012 E5.58851
G1 X91.612 Y149.432 E5.61808
G1 X90.983 Y148.821 E5.64725
G1 X90.682 Y148.507 E5.66172
G1 X90.039 Y147.778 E5.69405
G1 X89.458 Y147 E5.72634
G1 X88.944 Y146.176 E5.75864
G1 X88.498 Y145.312 E5.79098
G1 X88.126 Y144.415 E5.82328
G1 X87.828 Y143.491 E5.85557
G1 X87.608 Y142.545 E5.88788
G1 X87.466 Y141.584 E5.92019
G1 X87.401 Y140.512 E5.95591
G1 X87.391 Y139.721 E5.98222
G1 X87.393 Y80.154 E7.96342
G0 F6000 X87.793 Y80.161
G1 F1200 X87.805 Y79.456 E7.98688
G1 X87.861 Y78.503 E8.01863
G1 X87.997 Y77.558 E8.05038
G1 X88.211 Y76.627 E8.08215
G1 X88.502 Y75.718 E8.1139
G1 X88.869 Y74.837 E8.14564
G1 X89.308 Y73.989 E8.1774
G1 X89.816 Y73.181 E8.20915
G1 X90.391 Y72.418 E8.24092
G1 X90.971 Y71.763 E8.27002
G1 X91.436 Y71.29 E8.29208
G1 X91.713 Y71.022 E8.3049
G1 X92.427 Y70.387 E8.33668
G1 X93.191 Y69.815 E8.36843
G1 X94 Y69.308 E8.40018
G1 X94.849 Y68.871 E8.43194
G1 X95.731 Y68.506 E8.46369
G1 X96.641 Y68.217 E8.49544
G1 X97.572 Y68.004 E8.52721
G1 X98.517 Y67.87 E8.55896
G1 X99.393 Y67.818 E8.58814
G1 X100.101 Y67.805 E8.61169
G1 X119.654 Y67.804 E9.26203
G1 X120.59 Y67.82 E9.29317
G1 X121.543 Y67.879 E9.32492
G1 X122.488 Y68.017 E9.35669
G1 X123.418 Y68.234 E9.38845
G1 X124.326 Y68.528 E9.42019
G1 X125.207 Y68.897 E9.45196
G1 X126.054 Y69.338 E9.48372
G1 X126.86 Y69.849 E9.51547
G1 X127.622 Y70.425 E9.54724
G1 X128.278 Y71.009 E9.57645
G1 X128.653 Y71.377 E9.59392
G1 X128.962 Y71.694 E9.60865
G1 X129.6 Y72.405 E9.64042
G1 X130.175 Y73.166 E9.67214
G1 X130.685 Y73.974 E9.70392
G1 X131.125 Y74.821 E9.73567
G1 X131.493 Y75.702 E9.76742
G1 X131.786 Y76.611 E9.79919
G1 X132.002 Y77.541 E9.83094
G1 X132.139 Y78.486 E9.8627
G1 X132.197 Y79.431 E9.89419
G1 X132.209 Y80.168 E9.91871
G1 X132.207 Y139.808 E11.90234
G1 X132.197 Y140.509 E11.92566
G1 X132.143 Y141.462 E11.95741
G1 X132.01 Y142.407 E11.98915
G1 X131.798 Y143.338 E12.02091
G1 X131.509 Y144.248 E12.05267
G1 X131.145 Y145.131 E12.08443
G1 X130.709 Y145.98 E12.11618
G1 X130.202 Y146.79 E12.14796
G1 X129.63 Y147.554 E12.1797
G1 X129.059 Y148.204 E12.20848
G1 X128.586 Y148.688 E12.23099
G1 X128.274 Y148.989 E12.24541
G1 X127.56 Y149.623 E12.27716
G1 X126.795 Y150.194 E12.30891
G1 X125.985 Y150.7 E12.34068
G1 X125.136 Y151.136 E12.37242
G1 X124.253 Y151.499 E12.40418
G1 X123.343 Y151.788 E12.43593
G1 X122.411 Y151.999 E12.46772
G1 X121.466 Y152.131 E12.49945
G1 X120.564 Y152.183 E12.5295
G1 X119.802 Y152.195 E12.55485
G1 X100.181 Y152.194 E13.20745
G1 X99.479 Y152.184 E13.2308
G1 X98.525 Y152.13 E13.26258
G1 X97.58 Y151.997 E13.29432
G1 X96.649 Y151.785 E13.32608
G1 X95.739 Y151.496 E13.35783
G1 X94.856 Y151.132 E13.3896
G1 X94.007 Y150.696 E13.42134
G1 X93.198 Y150.189 E13.4531
G1 X92.433 Y149.617 E13.48487
G1 X91.744 Y149.009 E13.51543
G1 X91.271 Y148.544 E13.53749
G1 X90.97 Y148.23 E13.55196
G1 X90.339 Y147.514 E13.5837
G1 X89.77 Y146.747 E13.61547
G1 X89.267 Y145.935 E13.64724
G1 X88.834 Y145.085 E13.67896
G1 X88.473 Y144.201 E13.71072
G1 X88.188 Y143.289 E13.7425
G1 X87.98 Y142.358 E13.77423
G1 X87.85 Y141.412 E13.80599
G1 X87.801 Y140.506 E13.83617
G1 X87.791 Y139.721 E13.86228
G1 X87.793 Y80.161 E15.84325
G0 F6000 X88.193 Y80.168
G1 F1200 X88.205 Y79.463 E15.86671
G1 X88.261 Y78.527 E15.89789
G1 X88.396 Y77.599 E15.92908
G1 X88.61 Y76.685 E15.9603
G1 X88.901 Y75.794 E15.99148
G1 X89.267 Y74.93 E16.02269
G1 X89.705 Y74.101 E16.05387
G1 X90.212 Y73.312 E16.08507
G1 X90.785 Y72.569 E16.11627
G1 X91.26 Y72.04 E16.13992
G1 X91.714 Y71.577 E16.16149
G1 X91.991 Y71.309 E16.17431
G1 X92.693 Y70.687 E16.2055
G1 X93.444 Y70.126 E16.23668
G1 X94.241 Y69.631 E16.26789
G1 X95.077 Y69.206 E16.29908
G1 X95.946 Y68.854 E16.33026
G1 X96.842 Y68.577 E16.36145
G1 X97.759 Y68.377 E16.39267
G1 X98.689 Y68.256 E16.42386
G1 X99.402 Y68.218 E16.44761
G1 X100.101 Y68.205 E16.47086
G1 X119.654 Y68.204 E17.1212
G1 X120.583 Y68.22 E17.1521
G1 X121.519 Y68.279 E17.1833
G1 X122.446 Y68.416 E17.21446
G1 X123.359 Y68.633 E17.24568
G1 X124.25 Y68.926 E17.27687
G1 X125.112 Y69.295 E17.30806
G1 X125.94 Y69.735 E17.33925
G1 X126.728 Y70.244 E17.37045
G1 X127.469 Y70.819 E17.40164
G1 X128.005 Y71.301 E17.42562
G1 X128.367 Y71.656 E17.44248
G1 X128.676 Y71.973 E17.4572
G1 X129.301 Y72.672 E17.48839
G1 X129.865 Y73.421 E17.51958
G1 X130.363 Y74.216 E17.55078
G1 X130.791 Y75.051 E17.58199
G1 X131.146 Y75.919 E17.61318
G1 X131.427 Y76.814 E17.64438
G1 X131.63 Y77.729 E17.67555
G1 X131.754 Y78.659 E17.70676
G1 X131.797 Y79.438 E17.73271
G1 X131.809 Y80.168 E17.75699
G1 X131.807 Y139.802 E19.74042
G1 X131.797 Y140.503 E19.76374
G1 X131.744 Y141.439 E19.79492
G1 X131.611 Y142.368 E19.82614
G1 X131.399 Y143.281 E19.85731
G1 X131.111 Y144.174 E19.88852
G1 X130.747 Y145.038 E19.9197
G1 X130.311 Y145.869 E19.95091
G1 X129.806 Y146.659 E19.9821
G1 X129.236 Y147.403 E20.01327
G1 X128.765 Y147.933 E20.03685
G1 X128.308 Y148.4 E20.05859
G1 X127.996 Y148.701 E20.07301
G1 X127.294 Y149.323 E20.1042
G1 X126.542 Y149.883 E20.13539
G1 X125.744 Y150.377 E20.1666
G1 X124.908 Y150.8 E20.19776
G1 X124.038 Y151.152 E20.22898
G1 X123.142 Y151.427 E20.26015
G1 X122.225 Y151.626 E20.29136
G1 X121.295 Y151.745 E20.32255
G1 X120.556 Y151.783 E20.34716
G1 X119.802 Y151.795 E20.37224
G1 X100.186 Y151.794 E21.02467
G1 X99.484 Y151.784 E21.04802
G1 X98.548 Y151.731 E21.0792
G1 X97.62 Y151.598 E21.11038
G1 X96.706 Y151.386 E21.14159
G1 X95.813 Y151.098 E21.1728
G1 X94.949 Y150.734 E21.20398
G1 X94.118 Y150.298 E21.23519
G1 X93.328 Y149.793 E21.26638
G1 X92.584 Y149.223 E21.29755
G1 X92.016 Y148.716 E21.32287
G1 X91.56 Y148.267 E21.34416
G1 X91.259 Y147.953 E21.35863
G1 X90.64 Y147.249 E21.3898
G1 X90.082 Y146.495 E21.421
G1 X89.591 Y145.696 E21.4522
G1 X89.17 Y144.858 E21.48339
G1 X88.822 Y143.987 E21.51458
G1 X88.549 Y143.09 E21.54577
G1 X88.354 Y142.172 E21.57698
G1 X88.237 Y141.242 E21.60816
G1 X88.201 Y140.501 E21.63283
G1 X88.191 Y139.721 E21.65878
G1 X88.193 Y80.168 E23.63952
G0 F6000 X88.593 Y80.175
G1 F1200 X88.605 Y79.47 E23.66297
G1 X88.66 Y78.551 E23.69359
G1 X88.795 Y77.64 E23.72422
G1 X89.009 Y76.744 E23.75486
G1 X89.3 Y75.871 E23.78547
G1 X89.665 Y75.026 E23.81608
G1 X90.102 Y74.216 E23.84669
G1 X90.608 Y73.446 E23.87734
G1 X91.179 Y72.724 E23.90796
G1 X91.709 Y72.15 E23.93394
G1 X92.269 Y71.597 E23.96012
G1 X92.958 Y70.986 E23.99075
G1 X93.698 Y70.437 E24.02139
G1 X94.482 Y69.955 E24.052
G1 X95.305 Y69.542 E24.08263
G1 X96.16 Y69.202 E24.11323
G1 X97.042 Y68.938 E24.14385
G1 X97.944 Y68.752 E24.17449
G1 X98.858 Y68.644 E24.2051
G1 X99.411 Y68.617 E24.22351
G1 X100.101 Y68.605 E24.24646
G1 X119.654 Y68.604 E24.8968
G1 X120.575 Y68.62 E24.92744
G1 X121.493 Y68.678 E24.95803
G1 X122.404 Y68.816 E24.98868
G1 X123.299 Y69.032 E25.0193
G1 X124.172 Y69.325 E25.04993
G1 X125.016 Y69.692 E25.08054
G1 X125.825 Y70.132 E25.11117
G1 X126.593 Y70.64 E25.14179
G1 X127.607 Y71.477 E25.18552
G1 X128.08 Y71.935 E25.20742
G1 X128.389 Y72.252 E25.22215
G1 X129.003 Y72.939 E25.25279
G1 X129.554 Y73.676 E25.2834
G1 X130.04 Y74.458 E25.31402
G1 X130.456 Y75.279 E25.34463
G1 X130.799 Y76.134 E25.37527
G1 X131.066 Y77.015 E25.40589
G1 X131.256 Y77.916 E25.43652
G1 X131.367 Y78.83 E25.46714
G1 X131.397 Y79.446 E25.48765
G1 X131.409 Y80.168 E25.51167
G1 X131.407 Y139.796 E27.49491
G1 X131.397 Y140.497 E27.51822
G1 X131.344 Y141.416 E27.54884
G1 X131.211 Y142.327 E27.57946
G1 X131 Y143.223 E27.61008
G1 X130.712 Y144.098 E27.64072
G1 X130.349 Y144.944 E27.67134
G1 X129.914 Y145.755 E27.70195
G1 X129.41 Y146.526 E27.73258
G1 X128.598 Y147.524 E27.77537
G1 X128.031 Y148.113 E27.80257
G1 X127.719 Y148.414 E27.81699
G1 X127.029 Y149.023 E27.8476
G1 X126.289 Y149.571 E27.87822
G1 X125.504 Y150.053 E27.90886
G1 X124.681 Y150.464 E27.93946
G1 X123.824 Y150.803 E27.97011
G1 X122.942 Y151.065 E28.00071
G1 X122.04 Y151.251 E28.03134
G1 X121.126 Y151.357 E28.06195
G1 X120.549 Y151.383 E28.08116
G1 X119.802 Y151.395 E28.10601
G1 X100.192 Y151.394 E28.75824
G1 X99.49 Y151.384 E28.78159
G1 X98.571 Y151.331 E28.81221
G1 X97.66 Y151.198 E28.84283
G1 X96.764 Y150.987 E28.87344
G1 X95.889 Y150.699 E28.90408
G1 X95.043 Y150.336 E28.9347
G1 X94.232 Y149.901 E28.96531
G1 X93.461 Y149.397 E28.99595
G1 X92.428 Y148.553 E29.04031
G1 X91.849 Y147.99 E29.06717
G1 X91.548 Y147.676 E29.08164
G1 X90.94 Y146.985 E29.11225
G1 X90.395 Y146.243 E29.14288
G1 X89.916 Y145.457 E29.17349
G1 X89.507 Y144.632 E29.20412
G1 X89.171 Y143.774 E29.23476
G1 X88.911 Y142.891 E29.26538
G1 X88.729 Y141.989 E29.29598
G1 X88.625 Y141.074 E29.32661
G1 X88.601 Y140.495 E29.34589
G1 X88.591 Y139.721 E29.37163
G1 X88.593 Y80.175 E31.35214
G0 F6000 X88.992 Y80.181
G1 F1200 X89.004 Y79.476 E31.37559
G1 X89.06 Y78.575 E31.40562
G1 X89.195 Y77.682 E31.43566
G1 X89.408 Y76.804 E31.46571
G1 X89.698 Y75.949 E31.49573
G1 X90.063 Y75.123 E31.52577
G1 X90.499 Y74.332 E31.55581
G1 X91.003 Y73.583 E31.58584
G1 X91.838 Y72.594 E31.62889
G1 X92.271 Y72.152 E31.64947
G1 X92.548 Y71.884 E31.66229
G1 X93.224 Y71.286 E31.69231
G1 X93.95 Y70.749 E31.72234
G1 X94.721 Y70.279 E31.75237
G1 X95.531 Y69.879 E31.78242
G1 X96.373 Y69.552 E31.81246
G1 X97.24 Y69.301 E31.84248
G1 X98.127 Y69.128 E31.87254
G1 X99.419 Y69.017 E31.91567
G1 X100.101 Y69.005 E31.93836
G1 X119.654 Y69.004 E32.58869
G1 X120.567 Y69.02 E32.61906
G1 X121.468 Y69.078 E32.64909
G1 X122.361 Y69.215 E32.67914
G1 X123.238 Y69.431 E32.70918
G1 X124.092 Y69.723 E32.7392
G1 X124.917 Y70.09 E32.76923
G1 X125.707 Y70.528 E32.79928
G1 X126.455 Y71.035 E32.82933
G1 X127.334 Y71.769 E32.86742
G1 X127.794 Y72.214 E32.88871
G1 X128.103 Y72.531 E32.90343
G1 X128.704 Y73.205 E32.93347
G1 X129.243 Y73.93 E32.96351
G1 X129.716 Y74.699 E32.99354
G1 X130.119 Y75.507 E33.02357
G1 X130.449 Y76.348 E33.05362
G1 X130.704 Y77.214 E33.08365
G1 X130.88 Y78.1 E33.11369
G1 X130.978 Y78.998 E33.14374
G1 X130.997 Y79.454 E33.15892
G1 X131.009 Y80.168 E33.18267
G1 X131.007 Y139.79 E35.1657
G1 X130.997 Y140.491 E35.18902
G1 X130.944 Y141.393 E35.21907
G1 X130.812 Y142.286 E35.2491
G1 X130.601 Y143.165 E35.27916
G1 X130.313 Y144.021 E35.3092
G1 X129.951 Y144.848 E35.33923
G1 X129.517 Y145.64 E35.36927
G1 X129.014 Y146.39 E35.3993
G1 X128.303 Y147.253 E35.43649
G1 X127.753 Y147.825 E35.46289
G1 X127.441 Y148.126 E35.4773
G1 X126.764 Y148.723 E35.50733
G1 X126.037 Y149.259 E35.53737
G1 X125.265 Y149.728 E35.56741
G1 X124.455 Y150.127 E35.59744
G1 X123.612 Y150.452 E35.62749
G1 X122.744 Y150.702 E35.65754
G1 X121.858 Y150.874 E35.68756
G1 X120.542 Y150.983 E35.73148
G1 X119.802 Y150.995 E35.75609
G1 X100.198 Y150.994 E36.40812
G1 X99.496 Y150.984 E36.43147
G1 X98.594 Y150.931 E36.46153
G1 X97.701 Y150.799 E36.49155
G1 X96.823 Y150.588 E36.52158
G1 X95.967 Y150.3 E36.55162
G1 X95.139 Y149.938 E36.58168
G1 X94.347 Y149.504 E36.61172
G1 X93.597 Y149.001 E36.64175
G1 X92.7 Y148.259 E36.68047
G1 X92.138 Y147.713 E36.70653
G1 X91.837 Y147.399 E36.721
G1 X91.241 Y146.72 E36.75105
G1 X90.708 Y145.991 E36.78109
G1 X90.242 Y145.218 E36.81111
G1 X89.845 Y144.407 E36.84114
G1 X89.522 Y143.563 E36.8712
G1 X89.275 Y142.695 E36.90121
G1 X89.106 Y141.808 E36.93124
G1 X89.001 Y140.489 E36.97525
G1 X88.991 Y139.721 E37.0008
G1 X88.992 Y80.181 E38.98111
G1 F2400 E38.18111
G1 F300 Z0.6
G0 F6000 X116.126 Y96.692 Z0.6
G0 X116.085 Y96.848
G1 F300 Z0.2
G1 F2400 E38.98111
G1 F1200 X116.126 Y96.692 E38.98647
G1 X116.239 Y96.58 E38.99176
G1 X116.395 Y96.538 E38.99714
G1 X116.551 Y96.58 E39.00251
G1 X116.663 Y96.692 E39.00778
G1 X116.705 Y96.848 E39.01315
G1 X116.663 Y97.004 E39.01853
G1 X116.551 Y97.117 E39.02382
G1 X116.395 Y97.158 E39.02918
G1 X116.238 Y97.117 E39.03458
G1 X116.126 Y97.005 E39.03985
G1 X116.085 Y96.848 E39.04524
G0 F6000 X115.682 Y96.848
G1 F1200 X115.775 Y96.494 E39.05742
G1 X116.037 Y96.232 E39.06974
G1 X116.395 Y96.135 E39.08208
G1 X116.749 Y96.229 E39.09426
G1 X117.014 Y96.494 E39.10672
G1 X117.108 Y96.848 E39.11891
G1 X117.011 Y97.206 E39.13124
G1 X116.749 Y97.468 E39.14357
G1 X116.395 Y97.561 E39.15574
G1 X116.04 Y97.468 E39.16795
G1 X115.775 Y97.203 E39.18041
G1 X115.682 Y96.848 E39.19262
G0 F6000 X115.278 Y96.848
G1 F1200 X115.316 Y96.56 E39.20228
G1 X115.427 Y96.29 E39.21199
G1 X115.605 Y96.059 E39.22169
G1 X115.836 Y95.881 E39.23139
G1 X116.107 Y95.769 E39.24114
G1 X116.395 Y95.731 E39.2508
G1 X116.683 Y95.769 E39.26046
G1 X116.953 Y95.881 E39.27019
G1 X117.184 Y96.059 E39.27989
G1 X117.362 Y96.29 E39.28959
G1 X117.474 Y96.56 E39.29931
G1 X117.512 Y96.848 E39.30897
G1 X117.474 Y97.136 E39.31863
G1 X117.362 Y97.407 E39.32838
G1 X117.184 Y97.638 E39.33808
G1 X116.953 Y97.816 E39.34778
G1 X116.683 Y97.927 E39.35749
G1 X116.395 Y97.965 E39.36715
G1 X116.106 Y97.927 E39.37685
G1 X115.836 Y97.816 E39.38656
G1 X115.605 Y97.638 E39.39626
G1 X115.427 Y97.407 E39.40596
G1 X115.316 Y97.137 E39.41567
G1 X115.278 Y96.848 E39.42536
G1 F2400 E38.62536
G1 F300 Z0.6
;MESH:mtk64_PMCase_RH_rev2 v16.stl
G0 F6000 X116.421 Y99.172 Z0.6
;TYPE:WALL-OUTER
G1 F300 Z0.2
G1 F2400 E39.42536
G1 F1200 X116.369 Y99.172 E39.42709
G1 X115.816 Y99.1 E39.44564
G1 X115.765 Y99.086 E39.4474
G1 X115.233 Y98.866 E39.46655
